SIAEthen/sensorless_force_control/log/controller_data_20260212181115_with_wrench.csv
t,current_joint_0,current_joint_1,current_joint_2,current_joint_3,current_joint_4,current_joint_5,nominal_err_0,nominal_err_1,nominal_err_2,nominal_err_3,nominal_err_4,nominal_err_5,rpy_err_0,rpy_err_1,rpy_err_2,setpoints_0,setpoints_1,setpoints_2,setpoints_3,setpoints_4,setpoints_5,vehicle_rpy_0,vehicle_rpy_1,vehicle_rpy_2,vehicle_xyz_0,vehicle_xyz_1,vehicle_xyz_2,wrench_sensor_0,wrench_sensor_1,wrench_sensor_2,wrench_sensor_3,wrench_sensor_4,wrench_sensor_5,xyz_err_0,xyz_err_1,xyz_err_2,zeta_0,zeta_1,zeta_2,zeta_3,zeta_4,zeta_5,zeta_6,zeta_7,zeta_8,zeta_9,zeta_10,zeta_11
1770916398.685824,0.518477,0.565189,0.426510,-0.549779,-0.109971,-0.234853,-0.000114,0.000298,-0.002395,-0.000000,0.000015,-0.000767,0.086345,0.009989,0.003974,-0.164448,0.156254,0.037164,0.035304,0.085981,-0.650252,-0.086345,-0.009989,0.496026,0.006832,0.007625,1.999276,18.274245,-14.571068,10.253718,0.504216,0.047634,-0.819457,-0.006832,-0.007625,0.000724,-0.019247,-0.006956,0.000316,0.000079,0.009257,0.008770,-0.000114,0.000297,-0.002392,-0.000000,0.000015,-0.000766
1770916428.785774,0.565379,0.659544,-0.012928,-0.455531,-0.596646,-0.359903,0.000108,0.000190,-0.002780,0.000000,-0.000256,-0.001380,0.091930,0.001074,0.003032,-0.164758,0.164913,-0.011464,0.008955,0.080259,-0.649777,-0.091930,-0.001074,0.496968,0.005522,0.007196,1.999026,19.743650,-13.520254,7.116151,0.464002,0.294697,-0.752502,-0.005522,-0.007196,0.000974,-0.016553,-0.007439,0.000310,0.000007,0.000512,0.006131,0.000108,0.000190,-0.002777,0.000000,-0.000256,-0.001379
1770916458.785868,0.628269,0.141307,0.205786,-0.376991,-0.942348,-0.376802,0.000049,0.000065,-0.001582,0.000000,-0.000130,-0.000189,0.103974,-0.000029,0.004122,-0.173515,0.174346,-0.028688,0.023107,0.066240,-0.648049,-0.103974,0.000029,0.495878,0.001272,0.007557,1.996235,22.341925,-11.419460,5.170225,0.375423,0.467252,-0.609571,-0.001272,-0.007557,0.003765,-0.009420,-0.012395,0.002488,-0.000000,-0.000883,0.008188,0.000049,0.000065,-0.001581,0.000000,-0.000130,-0.000188
1770916523.085778,0.345567,-0.219872,-0.613334,0.282743,-0.518405,-0.329403,0.000008,-0.000040,0.000723,0.000000,0.000042,-0.000464,0.039523,-0.009991,-0.003612,-0.102617,0.117350,-0.027972,-0.049578,-0.235988,-0.600975,-0.039523,0.009991,0.503612,0.003981,-0.008459,2.001432,-8.258496,-1.522787,23.717024,0.053958,-1.597150,-0.092748,-0.003981,0.008459,-0.001432,0.001203,0.018682,-0.000681,0.000072,-0.009688,-0.007605,0.000008,-0.000040,0.000723,0.000000,0.000042,-0.000463
1770916553.085781,0.502628,-0.314270,0.189704,-0.424115,-0.518284,-0.235057,0.000027,0.000111,-0.001208,-0.000000,-0.000078,-0.000563,0.075497,0.006124,0.009133,-0.149997,0.141970,-0.008304,0.049122,-0.209032,-0.610372,-0.075497,-0.006124,0.490867,-0.009493,0.003867,1.997864,11.758581,-1.188230,22.585366,0.025500,-0.835728,-0.033262,0.009493,-0.003867,0.002136,0.013098,-0.015866,0.000860,0.000112,0.004724,0.018657,0.000027,0.000111,-0.001207,-0.000000,-0.000078,-0.000562
1770916620.985797,-0.329859,-0.753902,-0.441079,0.125664,-0.486952,0.267226,-0.000008,-0.000080,0.001256,0.000000,0.000005,-0.000191,0.028409,-0.009985,-0.002144,-0.085754,0.102200,-0.028650,-0.047640,-0.341756,-0.548060,-0.028409,0.009985,0.502144,0.000172,-0.006111,2.000477,-15.228895,-6.578600,19.179131,0.220500,-1.559861,-0.360992,-0.000172,0.006111,-0.000477,0.005580,0.010874,-0.000112,0.000043,-0.009849,-0.004566,-0.000008,-0.000080,0.001255,0.000000,0.000005,-0.000191
1770916672.685776,0.675440,0.094269,-0.612471,-0.125664,-1.115263,0.361338,0.000003,-0.000021,-0.000140,-0.000000,-0.000002,-0.000055,0.081276,0.009986,0.005433,-0.151722,0.139831,-0.037199,0.069648,-0.273146,-0.584266,-0.081276,-0.009986,0.494567,-0.007684,0.007158,1.997740,13.794014,7.999800,19.632811,-0.270832,-0.608016,0.436362,0.007684,-0.007158,0.002260,0.006747,-0.019987,0.000570,0.000108,0.009062,0.011628,0.000003,-0.000021,-0.000140,-0.000000,-0.000002,-0.000055
1770916717.885779,-0.455521,-0.486991,0.534465,-0.204204,-0.031417,-0.408402,-0.000010,0.000044,-0.000395,-0.000000,0.000001,-0.000005,0.010645,0.009993,-0.005510,-0.084576,0.062837,0.067533,-0.036824,-0.188131,-0.618352,-0.010645,-0.009993,0.505510,0.008128,-0.011820,2.000267,2.100228,-0.809938,25.537614,0.022048,-1.312548,-0.040079,-0.008128,0.011820,-0.000267,-0.002776,0.028527,0.000065,-0.000110,0.010100,-0.010902,-0.000010,0.000044,-0.000394,-0.000000,0.000001,-0.000005
1770916747.885787,-0.549766,0.314188,-0.581420,-0.376991,-0.141387,0.470834,-0.000013,-0.000029,0.000225,-0.000000,0.000015,0.000405,0.012936,-0.000307,-0.000028,-0.078774,0.081633,0.051395,-0.055676,-0.193338,-0.615903,-0.012936,0.000307,0.500028,0.007515,-0.003321,2.003162,-3.096273,1.107092,24.938094,-0.036466,-1.505854,0.074753,-0.007515,0.003321,-0.003162,-0.009995,0.013062,-0.002993,0.000000,-0.000306,-0.000059,-0.000013,-0.000028,0.000225,-0.000000,0.000015,0.000405
1770916813.985754,0.094166,0.361083,0.190148,0.314159,-0.062848,0.487041,0.000082,0.000200,-0.001653,0.000000,0.000016,-0.000094,0.052435,0.009989,0.003228,-0.138349,0.126779,0.058310,-0.018245,0.160295,-0.665234,-0.052435,-0.009989,0.496772,0.000233,0.005756,1.999396,10.071487,11.469068,20.563433,-0.387401,-0.780126,0.621658,-0.000233,-0.005756,0.000604,-0.005883,-0.009909,0.000143,0.000064,0.009628,0.006963,0.000082,0.000200,-0.001651,0.000000,0.000016,-0.000094
1770916843.985819,-0.706943,-0.392916,0.537209,-0.361283,-1.005192,-0.706905,0.000085,0.000217,-0.003138,-0.000000,-0.000118,0.000047,-0.012181,0.005255,-0.024662,-0.003803,-0.037654,0.062271,-0.049453,0.187624,-0.673441,0.012181,-0.005255,0.524662,0.013322,-0.014238,1.994705,16.710955,-16.051810,10.411567,0.548379,-0.012171,-0.897467,-0.013322,0.014238,0.005295,-0.008759,0.038017,0.004873,-0.000259,0.004649,-0.049335,0.000085,0.000216,-0.003135,-0.000000,-0.000118,0.000047
1770916897.585785,-0.062832,-0.329869,-0.581206,0.109956,-1.193805,0.706852,0.000000,0.000002,0.000011,0.000000,0.000000,0.000007,0.033465,-0.009996,0.001096,-0.101051,0.116048,0.013999,-0.058750,-0.130866,-0.632482,-0.033465,0.009996,0.498904,0.000008,0.003765,2.000035,6.135349,3.419924,24.344562,-0.125548,-1.129713,0.188412,-0.000008,-0.003765,-0.000035,-0.003613,-0.006591,-0.000292,-0.000022,-0.010053,0.001854,0.000000,0.000002,0.000011,0.000000,0.000000,0.000007
1770916927.585802,0.502657,-0.078534,-0.565434,0.267035,-1.036723,0.219907,-0.000003,-0.000006,-0.000053,0.000000,-0.000003,0.000005,0.059466,-0.003550,0.007013,-0.132948,0.136888,-0.016484,-0.028135,-0.159994,-0.625170,-0.059466,0.003550,0.492987,-0.006866,0.008566,1.999854,10.758543,-0.155250,23.197389,0.007151,-0.879792,-0.016307,0.006866,-0.008566,0.000146,0.003985,-0.021540,-0.001122,-0.000050,-0.004372,0.013776,-0.000003,-0.000006,-0.000053,0.000000,-0.000003,0.000005
1770916999.685785,-0.110089,-0.001048,0.589676,-0.659734,-0.376330,0.446540,0.000134,0.001048,-0.008481,-0.000000,-0.000661,-0.006717,0.041135,0.009994,0.001735,-0.128990,0.116444,0.066607,-0.036846,0.236568,-0.687735,-0.041135,-0.009994,0.498265,0.001920,0.000573,2.000048,20.825784,0.757731,15.155521,-0.028887,-0.130643,0.044613,-0.001920,-0.000573,-0.000048,-0.003918,0.000827,0.000025,0.000035,0.009833,0.003873,0.000134,0.001047,-0.008473,-0.000000,-0.000661,-0.006710
1770917063.985771,0.596902,0.534081,-0.738011,0.015708,-0.722569,0.769784,0.000000,-0.000010,-0.000263,0.000000,0.000003,-0.000094,0.074671,-0.009989,-0.002441,-0.142425,0.153375,-0.044903,-0.034967,-0.124070,-0.633147,-0.074671,0.009989,0.502441,-0.002332,0.005002,1.999201,8.441388,10.659732,21.871233,-0.350766,-0.880991,0.570070,0.002332,-0.005002,0.000799,-0.000738,-0.011031,-0.000032,0.000049,-0.009588,-0.005607,0.000000,-0.000010,-0.000263,0.000000,0.000003,-0.000093
1770917139.485780,-0.282657,0.156869,0.411580,0.282743,-0.958056,-0.598108,-0.000086,0.000211,-0.003173,0.000000,-0.000129,0.001205,0.007700,0.009996,-0.000529,-0.084814,0.063857,0.071870,-0.045278,0.274850,-0.702060,-0.007700,-0.009996,0.500529,0.005800,-0.005872,2.000057,23.005624,-11.268906,1.029158,0.357720,0.706188,-0.580502,-0.005800,0.005872,-0.000057,-0.004538,0.015853,0.000110,-0.000011,0.009993,-0.000981,-0.000086,0.000210,-0.003170,0.000000,-0.000129,0.001204
1770917169.485806,-0.376856,0.564141,0.703206,-0.172788,-0.078524,0.316872,-0.000135,0.001346,-0.012056,-0.000000,-0.000016,-0.002713,0.008549,0.003072,0.000251,-0.079677,0.075071,0.062774,-0.056817,0.283485,-0.705125,-0.008549,-0.003072,0.499749,0.005557,-0.001363,2.002806,24.043306,4.009565,5.434203,-0.128437,0.519051,0.214144,-0.005557,0.001363,-0.002806,-0.008448,0.007735,-0.002712,0.000002,0.003065,0.000528,-0.000135,0.001345,-0.012044,-0.000000,-0.000016,-0.002710
1770917199.485813,-0.251304,0.439802,0.267195,-0.769690,-0.047125,-0.754197,-0.000024,0.000021,-0.000160,-0.000000,0.000001,0.000215,0.018404,-0.002297,0.004487,-0.092688,0.097742,0.055527,-0.063609,0.273350,-0.701942,-0.018404,0.002297,0.495513,0.003030,0.003248,1.996268,2.138913,-17.083731,18.618328,0.575165,-0.963924,-0.928955,-0.003030,-0.003248,0.003732,-0.008420,-0.002898,0.003656,-0.000021,-0.002460,0.008922,-0.000024,0.000021,-0.000160,-0.000000,0.000001,0.000215
1770917229.485813,-0.518361,0.659741,0.031486,0.094248,-1.555088,0.471282,-0.000001,-0.000007,-0.000070,0.000000,-0.000001,-0.000043,-0.005661,-0.001069,-0.010846,-0.035275,0.041364,0.054933,-0.059032,0.269197,-0.699346,0.005661,0.001069,0.510846,0.005035,-0.005755,2.005013,17.218269,9.911941,-15.788284,-0.338407,1.442250,0.562056,-0.005035,0.005755,-0.005013,-0.003148,0.014920,-0.005096,0.000023,-0.001190,-0.021665,-0.000001,-0.000007,-0.000070,0.000000,-0.000001,-0.000043
1770917259.586001,0.565584,-0.141558,0.238058,0.612611,-0.879335,-0.488353,-0.000097,0.000187,-0.002438,0.000000,-0.000311,0.001406,0.075489,-0.008809,0.033459,-0.155926,0.165618,0.038365,-0.067737,0.208685,-0.679620,-0.075489,0.008809,0.466541,-0.007288,0.021747,1.983901,19.513326,-6.817687,14.980178,0.232083,-0.114858,-0.373400,0.007288,-0.021747,0.016099,-0.006679,-0.046436,0.012559,-0.000588,-0.013817,0.065994,-0.000097,0.000186,-0.002436,0.000000,-0.000310,0.001404
1770917341.885759,-0.157074,-0.329851,-0.298565,-0.518363,-0.047129,0.329592,-0.000005,-0.000016,0.000114,-0.000000,0.000005,0.000275,0.029722,-0.009981,-0.001801,-0.093115,0.107760,-0.010442,-0.053221,-0.240512,-0.599485,-0.029722,0.009981,0.501801,-0.003860,-0.003416,2.000144,-14.019009,3.832771,21.169805,-0.137006,-1.616164,0.217244,0.003860,0.003416,-0.000144,0.010045,0.002275,0.000024,0.000036,-0.009860,-0.003893,-0.000005,-0.000016,0.000114,-0.000000,0.000005,0.000275
1770917371.885799,0.486943,0.392692,-0.643888,-0.361283,-0.518350,0.094348,0.000004,0.000007,-0.000139,0.000000,-0.000012,-0.000100,0.067335,0.003291,0.009417,-0.141591,0.136083,-0.018494,0.043263,-0.227753,-0.603353,-0.067335,-0.003291,0.490583,-0.012908,0.007591,2.000950,8.199411,3.815097,23.954625,-0.120993,-1.026444,0.204442,0.012908,-0.007591,-0.000950,0.015598,-0.025404,-0.002716,0.000062,0.002014,0.018993,0.000004,0.000007,-0.000139,0.000000,-0.000012,-0.000100
1770917435.685867,0.738336,0.046951,0.568023,0.235619,-1.476516,0.518770,-0.000061,0.000173,-0.002536,0.000000,-0.000032,-0.000408,0.106026,0.009995,0.005182,-0.178893,0.169529,0.016389,0.054717,-0.056723,-0.641857,-0.106026,-0.009995,0.494818,-0.004561,0.008426,1.997497,15.540647,14.990807,-13.634959,-0.500204,1.274288,0.811679,0.004561,-0.008426,0.002503,0.000049,-0.019301,0.000460,0.000103,0.008834,0.011351,-0.000061,0.000173,-0.002533,0.000000,-0.000032,-0.000407
1770917469.985822,-0.486950,-0.408410,-0.345624,0.329867,-1.068146,-0.329844,0.000003,0.000003,0.000049,0.000000,0.000004,-0.000023,0.004764,-0.009988,-0.029168,-0.037499,0.072561,0.026500,-0.067536,-0.166047,-0.626910,-0.004764,0.009988,0.529168,0.019923,-0.018919,1.990040,5.691902,-7.850334,23.436486,0.276375,-1.090430,-0.437413,-0.019923,0.018919,0.009960,-0.015378,0.052678,0.010048,0.000581,-0.009700,-0.058321,0.000003,0.000003,0.000049,0.000000,0.000004,-0.000023
1770917500.085793,-0.738234,-0.486970,0.314785,0.282743,-1.445111,-0.549958,-0.000040,0.000023,-0.000626,-0.000000,-0.000022,0.000180,-0.026179,0.007463,-0.013022,0.049410,-0.070552,0.078167,-0.059782,-0.100956,-0.637553,0.026179,-0.007463,0.513022,0.009829,-0.022882,2.001811,19.777868,-13.965618,6.683129,0.487604,0.316033,-0.771525,-0.009829,0.022882,-0.001811,0.005315,0.049406,-0.003143,-0.000194,0.006772,-0.026203,-0.000040,0.000023,-0.000625,-0.000000,-0.000022,0.000179
1770917583.085813,-0.157245,-0.016256,0.728934,-0.424115,-1.287824,-0.078027,0.000166,0.000549,-0.006368,-0.000000,-0.000229,-0.000512,0.041477,0.009987,0.002371,-0.131795,0.120028,0.069927,-0.043898,0.290003,-0.707929,-0.041477,-0.009987,0.497629,0.002494,0.005350,1.999848,22.325227,-7.788836,-10.013025,0.258609,1.295104,-0.419879,-0.002494,-0.005350,0.000152,-0.009480,-0.007019,-0.000044,0.000047,0.009772,0.005147,0.000165,0.000548,-0.006362,-0.000000,-0.000229,-0.000512
1770917662.085809,-0.062834,0.015740,-0.455918,0.078540,-0.329861,0.596932,0.000002,-0.000032,0.000387,0.000000,-0.000006,-0.000029,0.035569,-0.009987,-0.001809,-0.103624,0.117618,0.013430,-0.057240,-0.111440,-0.636162,-0.035569,0.009987,0.501809,-0.001589,-0.000955,1.999873,-2.664007,-1.608428,25.325238,0.058841,-1.462194,-0.087781,0.001589,0.000955,0.000127,0.003700,0.000139,0.000169,0.000036,-0.009842,-0.003967,0.000002,-0.000032,0.000386,0.000000,-0.000006,-0.000029
1770917700.385966,0.219897,-0.345432,-0.142686,0.000000,-0.109941,-0.785057,0.000014,-0.000143,0.001314,-0.000000,-0.000015,-0.000341,0.040737,-0.009990,-0.000759,-0.107156,0.120827,-0.025463,-0.049681,-0.202900,-0.613362,-0.040737,0.009990,0.500759,-0.002682,0.000190,1.999243,-5.986257,7.442913,23.984438,-0.243763,-1.498196,0.397792,0.002682,-0.000190,0.000757,0.004510,-0.002936,0.000682,0.000015,-0.009910,-0.001922,0.000014,-0.000143,0.001313,-0.000000,-0.000015,-0.000341
1770917730.485804,-0.251320,0.219931,-0.408571,-0.565487,-0.204215,0.093992,-0.000007,-0.000019,0.000164,-0.000000,0.000011,0.000256,0.026228,0.004997,-0.004047,-0.102832,0.092847,0.053728,-0.030540,-0.167391,-0.623427,-0.026228,-0.004997,0.504047,-0.003869,-0.007005,2.002965,1.316307,3.440627,24.716118,-0.108540,-1.329544,0.181110,0.003869,0.007005,-0.002965,0.013513,0.008598,-0.002805,-0.000040,0.005202,-0.007951,-0.000007,-0.000019,0.000164,-0.000000,0.000011,0.000255
1770917788.385807,-0.109924,0.643993,-0.360412,0.235619,-0.643988,-0.220321,-0.000032,0.000034,-0.000871,0.000000,-0.000039,0.000410,0.028329,0.009994,0.001321,-0.112440,0.097459,0.065136,-0.033142,0.159279,-0.665315,-0.028329,-0.009994,0.498679,0.000560,-0.000702,1.999656,20.679383,-1.730899,14.924788,0.070196,-0.145864,-0.106810,-0.000560,0.000702,0.000344,-0.000309,0.001756,0.000397,0.000026,0.009906,0.002921,-0.000032,0.000034,-0.000870,0.000000,-0.000039,0.000409
1770917818.485769,-0.282746,0.015702,-0.204126,-0.345575,-0.392698,-0.675404,0.000002,0.000006,-0.000078,-0.000000,-0.000001,-0.000039,0.022807,-0.005082,-0.001861,-0.091696,0.101864,0.040936,-0.060366,0.116456,-0.657095,-0.022807,0.005082,0.501861,0.006228,0.000680,1.995905,6.024757,-1.786339,24.675445,0.049429,-1.169478,-0.094919,-0.006228,-0.000680,0.004095,-0.011582,0.004702,0.004140,0.000019,-0.004991,-0.003833,0.000002,0.000006,-0.000078,-0.000000,-0.000001,-0.000039
1770917848.485818,0.377026,-0.455552,0.126100,0.706858,-1.115190,-0.204384,-0.000035,0.000021,-0.000437,0.000000,-0.000075,0.000181,0.047204,-0.001696,0.007741,-0.125494,0.127911,0.039831,-0.046893,0.097963,-0.653290,-0.047204,0.001696,0.492259,-0.002155,0.006785,1.998207,17.902373,-7.854808,16.597048,0.277542,-0.294364,-0.429275,0.002155,-0.006785,0.001793,-0.002616,-0.014050,0.001125,-0.000026,-0.002422,0.015368,-0.000035,0.000021,-0.000436,0.000000,-0.000075,0.000181
1770917878.585793,-0.235645,0.675471,-0.502188,-0.345575,-0.895310,-0.612566,0.000026,-0.000029,-0.000467,-0.000000,-0.000044,-0.000044,0.028357,0.008892,-0.005312,-0.111449,0.096715,0.063571,-0.031215,0.172939,-0.667586,-0.028357,-0.008892,0.505312,-0.001382,-0.003946,2.007090,17.851479,-13.908247,12.298056,0.463965,-0.053695,-0.743448,0.001382,0.003946,-0.007090,0.006169,0.005763,-0.006977,-0.000094,0.009180,-0.010357,0.000026,-0.000029,-0.000467,-0.000000,-0.000044,-0.000044
1770917908.585802,-0.345693,-0.330153,0.411640,-0.722566,-0.894937,0.205738,0.000118,0.000286,-0.003233,-0.000000,-0.000417,-0.001534,0.030791,0.004318,0.001059,-0.112411,0.106102,0.059144,-0.046040,0.196521,-0.676044,-0.030791,-0.004318,0.498941,0.001382,-0.000111,1.994133,21.092993,3.603244,14.059303,-0.126012,-0.064942,0.191776,-0.001382,0.000111,0.005867,-0.002293,0.001334,0.005915,0.000009,0.004247,0.002247,0.000117,0.000285,-0.003230,-0.000000,-0.000417,-0.001533
1770917950.585795,-0.581197,-0.188487,-0.691125,-0.157080,-1.507964,-0.502673,0.000002,-0.000009,-0.000025,0.000000,-0.000001,0.000018,0.009103,-0.009997,-0.003979,-0.063240,0.085549,0.037795,-0.068905,0.067228,-0.649485,-0.009103,0.009997,0.503979,0.005506,-0.003909,2.000314,15.125982,-3.896919,20.211331,0.144362,-0.625134,-0.236289,-0.005506,0.003909,-0.000314,-0.005858,0.012154,-0.000262,0.000079,-0.009914,-0.008041,0.000002,-0.000009,-0.000025,0.000000,-0.000001,0.000018
1770918012.285795,-0.345664,0.596832,0.299854,-0.518363,-1.303652,0.723270,0.000089,0.000070,-0.001403,-0.000000,-0.000109,-0.000704,0.027454,0.009987,0.001933,-0.114109,0.099178,0.069207,-0.040067,0.250944,-0.693201,-0.027454,-0.009987,0.498067,-0.000468,0.001588,1.997942,20.987694,6.214108,-12.462770,-0.215676,1.416895,0.343492,0.000468,-0.001588,0.002058,-0.000674,-0.003290,0.001974,0.000039,0.009867,0.004133,0.000089,0.000070,-0.001402,-0.000000,-0.000109,-0.000703
1770918042.285817,-0.408415,-0.110025,0.314815,0.518363,-0.157094,0.769355,0.000008,0.000069,-0.000656,0.000000,0.000015,0.000335,0.011463,-0.007676,-0.006956,-0.070678,0.089145,0.040295,-0.067641,0.219225,-0.683847,-0.011463,0.007676,0.506956,0.008560,-0.000224,1.989365,3.877393,7.048065,23.960136,-0.251690,-1.175713,0.406846,-0.008560,0.000224,0.010635,-0.014816,0.008574,0.010610,0.000107,-0.007508,-0.013984,0.000008,0.000069,-0.000655,0.000000,0.000015,0.000335
1770918072.385815,0.345592,-0.392697,-0.094149,0.628319,-1.492239,-0.172797,-0.000017,-0.000002,-0.000099,0.000000,-0.000017,0.000010,0.045049,-0.007134,0.011895,-0.122367,0.131869,0.037793,-0.062002,0.178757,-0.670055,-0.045049,0.007134,0.488105,-0.001960,0.009051,1.999877,20.200515,-9.548592,11.955897,0.318689,0.051454,-0.528449,0.001960,-0.009051,0.000123,-0.005022,-0.017794,-0.000715,-0.000169,-0.008190,0.023421,-0.000017,-0.000002,-0.000099,0.000000,-0.000017,0.000010
1770918118.885816,0.062949,0.565316,0.301373,0.502655,-0.910760,0.219061,-0.000117,0.000171,-0.002922,-0.000000,-0.000302,0.000851,0.040039,0.009987,0.001173,-0.129680,0.115642,0.069478,-0.037201,0.265539,-0.697644,-0.040039,-0.009987,0.498827,-0.002830,0.000872,1.999642,20.278111,14.620736,-3.567246,-0.511374,0.871649,0.826286,0.002830,-0.000872,0.000358,0.004136,-0.004244,0.000147,0.000023,0.009875,0.002740,-0.000117,0.000171,-0.002919,-0.000000,-0.000302,0.000850
1770918218.185773,0.738308,-0.675408,0.077921,-0.722566,-0.816945,-0.612876,-0.000034,-0.000034,0.000618,-0.000000,0.000131,0.000265,0.069889,-0.009999,-0.003377,-0.128946,0.139664,-0.064360,0.035549,-0.298128,-0.572387,-0.069889,0.009999,0.503377,-0.006841,-0.000915,1.999390,13.547646,2.647573,21.251357,-0.071995,-0.712022,0.131624,0.006841,0.000915,0.000610,0.012847,-0.005032,0.000388,0.000067,-0.009494,-0.007428,-0.000034,-0.000034,0.000618,-0.000000,0.000131,0.000265
1770918313.785789,-0.439908,-0.346456,0.779779,-0.109956,-0.848186,0.283836,0.000085,0.000881,-0.010089,0.000000,-0.000044,-0.001093,0.005563,0.009988,0.000049,-0.080692,0.059603,0.070898,-0.045479,0.244740,-0.690797,-0.005563,-0.009988,0.499951,0.006869,-0.002342,2.000194,23.509390,5.976342,7.181726,-0.202540,0.416487,0.326138,-0.006869,0.002342,-0.000194,-0.009804,0.010686,-0.000036,0.000001,0.009978,0.000153,0.000085,0.000880,-0.010079,0.000000,-0.000044,-0.001092
1770918383.385750,-0.157076,-0.439826,-0.612624,-0.628319,-1.492259,-0.769681,-0.000003,0.000003,0.000014,-0.000000,0.000003,-0.000009,0.048194,-0.009984,-0.001391,-0.116766,0.129812,-0.029331,-0.048542,-0.154083,-0.626957,-0.048194,0.009984,0.501391,-0.002895,0.004429,1.999787,17.191982,2.529969,18.212221,-0.085886,-0.392676,0.125015,0.002895,-0.004429,0.000213,0.000817,-0.010539,-0.000287,0.000028,-0.009828,-0.003257,-0.000003,0.000003,0.000014,-0.000000,0.000003,-0.000009
1770918431.885805,0.172656,-0.314318,0.442075,-0.706858,-1.256356,-0.219645,0.000132,0.000159,-0.002252,-0.000000,-0.000281,-0.000267,0.077808,0.009994,0.005510,-0.160345,0.149238,0.048767,0.032558,0.117802,-0.655688,-0.077808,-0.009994,0.494490,-0.007122,0.006088,1.998300,24.287879,-6.581591,3.906906,0.234109,0.629877,-0.363986,0.007122,-0.006088,0.001700,0.006769,-0.017534,0.000268,0.000110,0.009098,0.011751,0.000132,0.000159,-0.002250,-0.000000,-0.000281,-0.000266
1770918461.985749,-0.094245,-0.376986,-0.439802,0.235619,-1.445132,-0.534086,-0.000002,-0.000005,-0.000021,0.000000,-0.000001,0.000015,0.023761,-0.006458,-0.018728,-0.087189,0.099908,0.028894,-0.056696,0.023353,-0.646965,-0.023761,0.006458,0.518728,0.011020,-0.009789,1.997912,11.056406,-10.754518,20.325955,0.360906,-0.735923,-0.595717,-0.011020,0.009789,0.002088,-0.009438,0.027845,0.002687,0.000241,-0.005560,-0.037561,-0.000002,-0.000005,-0.000021,0.000000,-0.000001,0.000015
1770918491.985755,0.502653,0.125657,-0.408242,-0.204204,-0.596898,-0.408374,0.000002,0.000007,-0.000165,-0.000000,-0.000004,-0.000033,0.069560,-0.006797,0.010956,-0.141073,0.148903,-0.029142,-0.037699,-0.127478,-0.632137,-0.069560,0.006797,0.489044,-0.002380,0.007942,2.001561,9.531761,-1.204034,23.938598,0.036638,-0.965449,-0.056766,0.002380,-0.007942,-0.001561,-0.003245,-0.016092,-0.002707,-0.000149,-0.008295,0.021365,0.000002,0.000007,-0.000165,-0.000000,-0.000004,-0.000033
1770918522.085750,-0.785406,-0.219872,0.031062,0.769690,-0.329906,0.000418,0.000008,-0.000039,0.000354,0.000000,0.000039,-0.000418,-0.008553,-0.005744,-0.023154,0.021588,0.038842,0.050555,-0.067308,-0.168422,-0.624395,0.008553,0.005744,0.523154,0.011516,-0.018797,1.995940,4.892859,-3.712862,24.734336,0.117251,-1.182598,-0.186409,-0.011516,0.018797,0.004060,-0.001190,0.044061,0.003672,0.000265,-0.006133,-0.046210,0.000008,-0.000039,0.000354,0.000000,0.000039,-0.000418
1770918592.585764,0.282617,0.329225,0.367432,-0.298451,-0.298388,-0.311618,0.000126,0.000643,-0.006149,-0.000000,-0.000063,-0.002542,0.070628,0.009982,0.004255,-0.156397,0.145920,0.057109,-0.009708,0.190092,-0.672841,-0.070628,-0.009982,0.495745,-0.001771,0.006569,1.998441,19.442080,-10.239467,12.870643,0.335310,-0.051991,-0.545350,0.001771,-0.006569,0.001559,-0.003115,-0.013306,0.000651,0.000085,0.009347,0.009183,0.000126,0.000642,-0.006143,-0.000000,-0.000063,-0.002539
1770918622.585786,-0.267185,0.690747,0.160290,0.204204,-0.015695,0.488022,0.000150,0.000403,-0.003210,0.000000,-0.000013,-0.001076,0.021632,0.005402,-0.018444,-0.097739,0.089546,0.057373,-0.041923,0.219365,-0.682027,-0.021632,-0.005402,0.518444,0.009469,-0.009478,2.002236,14.509569,12.985623,16.566023,-0.424608,-0.398571,0.704047,-0.009469,0.009478,-0.002236,-0.007061,0.025866,-0.001637,-0.000199,0.006192,-0.036724,0.000150,0.000403,-0.003207,0.000000,-0.000013,-0.001074
1770918652.585820,0.769724,0.722570,0.141745,0.361283,-1.366564,0.282798,-0.000034,-0.000004,-0.000373,0.000000,-0.000029,-0.000054,0.092874,-0.006389,0.024033,-0.167342,0.174084,0.015581,-0.050447,0.151654,-0.661911,-0.092874,0.006389,0.475967,-0.002837,0.017507,1.998790,15.567311,13.434851,-15.479547,-0.460523,1.348383,0.740588,0.002837,-0.017507,0.001210,-0.010997,-0.033649,-0.001991,-0.000306,-0.010808,0.047217,-0.000034,-0.000004,-0.000373,0.000000,-0.000029,-0.000054
1770918688.485809,0.628369,0.706768,-0.376123,0.251327,-0.251305,-0.157764,-0.000051,0.000090,-0.000869,-0.000000,-0.000022,0.000685,0.077358,-0.009985,-0.004834,-0.146082,0.157539,-0.041981,-0.041428,-0.028681,-0.645486,-0.077358,0.009985,0.504834,0.001108,0.004302,1.996173,15.062853,1.638765,20.803113,-0.050820,-0.624023,0.081996,-0.001108,-0.004302,0.003827,-0.006133,-0.006724,0.003252,0.000096,-0.009199,-0.010400,-0.000051,0.000090,-0.000868,-0.000000,-0.000022,0.000684
1770918718.485810,0.628330,0.533964,0.410604,-0.125664,-1.005304,-0.675878,-0.000011,0.000106,-0.002197,-0.000000,-0.000006,0.000436,0.098173,0.005755,0.007280,-0.173981,0.167562,0.029872,0.036052,0.103335,-0.651970,-0.098173,-0.005755,0.492720,-0.008517,0.005683,2.003071,17.043967,-15.068091,-11.021037,0.504381,1.194882,-0.828894,0.008517,-0.005683,-0.003071,0.009604,-0.017659,-0.004877,0.000084,0.004296,0.015038,-0.000011,0.000106,-0.002195,-0.000000,-0.000006,0.000435
1770918760.485776,-0.078540,0.093912,0.458639,-0.502655,-0.204212,-0.595202,0.000000,0.000336,-0.003108,-0.000000,0.000009,-0.001700,0.037115,0.009995,-0.008367,-0.122001,0.107635,0.065347,-0.031171,0.222006,-0.683748,-0.037115,-0.009995,0.508367,0.005724,-0.011700,1.999239,10.831069,-14.185187,18.561037,0.478111,-0.654586,-0.768210,-0.005724,0.011700,0.000761,0.001396,0.025941,0.001710,-0.000167,0.010598,-0.016335,0.000000,0.000336,-0.003105,-0.000000,0.000008,-0.001698
1770918790.485821,-0.031497,0.345528,0.142793,-0.644026,-1.005057,-0.628039,0.000081,0.000047,-0.001422,-0.000000,-0.000253,-0.000279,0.054727,0.007905,0.008294,-0.143312,0.134346,0.066699,-0.044270,0.252230,-0.692569,-0.054727,-0.007905,0.491706,0.001358,-0.000195,2.002783,15.813700,-19.816666,3.177068,0.668976,0.399025,-1.074491,-0.001358,0.000195,-0.002783,-0.002230,0.001773,-0.002670,0.000131,0.006979,0.016978,0.000081,0.000047,-0.001420,-0.000000,-0.000252,-0.000279
1770918820.585804,-0.125692,0.581217,-0.690954,-0.769690,-1.366547,0.345684,0.000028,-0.000022,-0.000196,-0.000000,-0.000046,-0.000109,0.053935,-0.008284,-0.000560,-0.130209,0.140696,0.031545,-0.061938,0.208935,-0.678799,-0.053935,0.008284,0.500560,0.005425,0.002340,1.998743,22.671006,11.519340,5.914294,-0.378982,0.414372,0.612791,-0.005425,-0.002340,0.001257,-0.011763,0.001037,0.001216,0.000009,-0.008203,-0.001564,0.000028,-0.000022,-0.000196,-0.000000,-0.000046,-0.000109
1770918861.085818,-0.455519,0.078547,-0.486816,0.769690,-1.240897,-0.722682,-0.000012,-0.000007,-0.000131,0.000000,-0.000032,0.000116,-0.012364,-0.009996,-0.013177,0.045987,0.035969,0.045246,-0.073864,0.106948,-0.655443,0.012364,0.009996,0.513177,0.010493,-0.015127,1.998269,9.459805,-18.928667,14.010652,0.627407,-0.444209,-1.031289,-0.010493,0.015127,0.001731,-0.003443,0.036642,0.001242,0.000263,-0.010310,-0.026200,-0.000012,-0.000007,-0.000131,0.000000,-0.000032,0.000116
1770918891.185806,-0.172785,-0.612608,-0.157060,0.267035,-1.492255,-0.345581,-0.000003,-0.000002,-0.000020,-0.000000,-0.000001,0.000005,0.018861,-0.007486,0.008672,-0.086085,0.098682,0.043136,-0.064717,-0.056837,-0.643843,-0.018861,0.007486,0.491328,-0.001456,0.000551,1.997388,14.362554,-9.748444,18.725372,0.321615,-0.532859,-0.523899,0.001456,-0.000551,0.002612,0.002027,-0.002392,0.002580,-0.000130,-0.007804,0.017182,-0.000003,-0.000002,-0.000020,-0.000000,-0.000001,0.000005
1770918963.485803,-0.361246,-0.000162,0.536665,0.125664,-1.256623,-0.408889,-0.000038,0.000162,-0.002595,-0.000000,-0.000014,0.000482,0.002817,0.009990,-0.000068,-0.076970,0.052688,0.071400,-0.044161,0.279827,-0.704187,-0.002817,-0.009990,0.500068,0.002489,-0.000931,1.999564,23.155239,-8.036369,-5.525806,0.271735,1.106865,-0.444828,-0.002489,0.000931,0.000436,-0.003467,0.004015,0.000481,-0.000001,0.009981,-0.000108,-0.000038,0.000162,-0.002592,-0.000000,-0.000014,0.000481
1770918993.585810,-0.439693,0.297840,0.729928,0.486947,-1.099182,0.533613,-0.000130,0.000611,-0.007362,0.000000,-0.000375,0.000458,-0.010334,0.003454,-0.006324,-0.026454,-0.014276,0.061807,-0.054010,0.288994,-0.707328,0.010334,-0.003454,0.506324,0.005934,-0.002985,2.003002,12.122722,18.912941,-11.191456,-0.643368,1.043116,1.040334,-0.005934,0.002985,-0.003002,-0.007486,0.010934,-0.003086,-0.000044,0.003320,-0.012671,-0.000129,0.000611,-0.007355,0.000000,-0.000375,0.000457
1770919023.685822,0.659732,0.345540,0.346737,0.000000,-1.178099,0.550113,0.000002,0.000035,-0.001162,-0.000000,0.000002,-0.000334,0.103914,-0.008427,0.049463,-0.180623,0.189001,0.037810,-0.067279,0.198979,-0.675319,-0.103914,0.008427,0.450537,-0.009782,0.032459,1.987279,19.525435,13.592515,-9.649976,-0.483791,1.147979,0.761868,0.009782,-0.032459,0.012721,-0.010753,-0.067841,0.005611,-0.000832,-0.018623,0.097417,0.000002,0.000035,-0.001161,-0.000000,0.000002,-0.000334
1770919053.785905,-0.439768,0.769548,-0.155880,-0.125664,-0.031416,-0.581833,-0.000055,0.000143,-0.001200,-0.000000,-0.000000,0.000638,0.005663,-0.003476,-0.037053,-0.056618,0.066938,0.038312,-0.052376,0.192916,-0.674658,-0.005663,0.003476,0.537053,0.008313,-0.011310,1.999263,11.440780,-10.122806,20.447330,0.331141,-0.722095,-0.523006,-0.008313,0.011310,0.000737,-0.002713,0.027909,0.000885,0.000257,-0.003053,-0.074050,-0.000055,0.000143,-0.001199,-0.000000,-0.000000,0.000637
1770919083.885790,0.754014,0.628338,-0.408230,0.628319,-1.429383,0.486992,-0.000032,-0.000019,-0.000177,0.000000,-0.000042,-0.000045,0.084632,-0.003715,0.025632,-0.162351,0.166175,0.030726,-0.046913,0.147908,-0.661572,-0.084632,0.003715,0.474368,-0.008228,0.016519,1.997097,19.718112,16.473676,-1.392739,-0.558733,0.748927,0.897960,0.008228,-0.016519,0.002903,-0.000461,-0.036983,-0.000228,-0.000190,-0.008027,0.050715,-0.000031,-0.000019,-0.000177,0.000000,-0.000042,-0.000045
1770919149.485813,-0.486968,-0.219784,-0.283820,0.078540,-0.094258,-0.721817,0.000021,-0.000128,0.001077,-0.000000,0.000010,-0.000750,0.014955,-0.009986,-0.002669,-0.072437,0.091455,0.032524,-0.064611,-0.204614,-0.612465,-0.014955,0.009986,0.502669,0.000847,-0.006946,2.001718,-8.614628,6.655670,23.581213,-0.216781,-1.553223,0.343253,-0.000847,0.006946,-0.001718,0.005220,0.013000,-0.001470,0.000053,-0.009895,-0.005480,0.000021,-0.000128,0.001075,-0.000000,0.000010,-0.000749
1770919229.785799,0.455663,0.298104,0.365814,0.408407,-0.785105,0.077116,-0.000132,0.000347,-0.004531,0.000000,-0.000293,0.001423,0.081293,0.009996,0.004067,-0.165668,0.155822,0.055532,0.009008,0.198633,-0.674936,-0.081293,-0.009996,0.495933,-0.001718,0.006825,1.998931,23.194785,9.820485,2.897253,-0.339376,0.628290,0.542827,0.001718,-0.006825,0.001069,-0.003459,-0.013671,-0.000007,0.000081,0.009293,0.008909,-0.000132,0.000347,-0.004526,0.000000,-0.000293,0.001422
1770919259.785814,0.157060,-0.125803,0.456585,0.534071,-0.109917,-0.708234,0.000020,0.000139,-0.001054,0.000000,-0.000039,0.001375,0.052381,-0.002066,-0.010546,-0.129640,0.133485,0.037715,-0.049340,0.192704,-0.674455,-0.052381,0.002066,0.510546,0.008567,-0.002821,1.996019,11.180965,-1.650318,22.925877,0.065690,-0.897992,-0.104515,-0.008567,0.002821,0.003981,-0.012187,0.013057,0.004642,0.000043,-0.000958,-0.021150,0.000019,0.000139,-0.001053,0.000000,-0.000039,0.001374
1770919309.085788,-0.455523,0.267041,-0.722781,-0.581195,-0.612647,0.062636,-0.000008,-0.000005,0.000215,-0.000000,0.000037,0.000196,0.022910,-0.009991,-0.004117,-0.085576,0.103335,0.029274,-0.064898,-0.060460,-0.643026,-0.022910,0.009991,0.504117,0.005924,-0.007049,2.000496,4.712050,7.194896,24.045414,-0.244728,-1.138904,0.381027,-0.005924,0.007049,-0.000496,-0.003555,0.018057,-0.000118,0.000082,-0.009790,-0.008451,-0.000008,-0.000005,0.000215,-0.000000,0.000037,0.000195
1770919365.585778,-0.377018,0.141377,-0.094066,-0.753982,-1.539342,-0.691225,0.000027,-0.000005,-0.000182,-0.000000,-0.000039,0.000075,0.030880,0.009989,0.001776,-0.117224,0.102730,0.067788,-0.037519,0.224187,-0.683726,-0.030880,-0.009989,0.498224,-0.000161,-0.001343,1.999565,19.463915,-16.388733,-0.861184,0.558281,0.696595,-0.895262,0.000161,0.001343,0.000435,0.001569,0.002190,0.000487,0.000035,0.009865,0.003855,0.000027,-0.000005,-0.000182,-0.000000,-0.000039,0.000075
1770919423.485749,0.534077,-0.455526,-0.125581,0.282743,-1.130969,0.612636,-0.000006,-0.000005,-0.000083,0.000000,-0.000005,-0.000025,0.063722,-0.009995,-0.001308,-0.133355,0.145324,-0.036456,-0.044792,-0.101717,-0.637327,-0.063722,0.009995,0.501308,-0.002277,0.005636,2.000491,12.874310,6.376015,20.792922,-0.210245,-0.709057,0.348215,0.002277,-0.005636,-0.000491,-0.001418,-0.012005,-0.001272,0.000026,-0.009798,-0.003244,-0.000006,-0.000005,-0.000083,0.000000,-0.000005,-0.000025
1770919453.485808,0.345552,-0.659714,0.125339,0.753982,-1.005368,-0.659515,0.000023,-0.000021,0.000325,0.000000,0.000058,-0.000220,0.034864,-0.005375,-0.009789,-0.103993,0.111719,0.023981,-0.047346,-0.137775,-0.631158,-0.034864,0.005375,0.509789,0.001664,-0.006883,1.999615,5.469512,-14.081583,20.038847,0.493442,-0.905069,-0.792493,-0.001664,0.006883,0.000385,0.003806,0.013604,0.000879,0.000105,-0.004685,-0.019734,0.000023,-0.000021,0.000325,0.000000,0.000058,-0.000219
1770919483.485808,0.047124,-0.031418,-0.738289,-0.267035,-1.052434,-0.031419,-0.000001,0.000002,0.000015,-0.000000,0.000001,0.000003,0.046654,-0.003815,0.001583,-0.119118,0.123812,0.019341,-0.038914,-0.163091,-0.624379,-0.046654,0.003815,0.498417,-0.001973,-0.000535,2.002453,8.059258,5.289417,23.752120,-0.186240,-1.023978,0.313109,0.001973,0.000535,-0.002453,0.003983,-0.000830,-0.002476,-0.000012,-0.003954,0.002981,-0.000001,0.000002,0.000015,-0.000000,0.000001,0.000003
1770919513.585806,0.628313,0.062517,0.270744,-0.062832,-0.502655,-0.329791,0.000006,0.000315,-0.003709,0.000000,-0.000000,-0.000076,0.093861,0.008447,0.015912,-0.169713,0.160572,0.022531,0.050117,-0.120500,-0.633030,-0.093861,-0.008447,0.484088,-0.012701,0.012283,1.997537,19.300189,-5.782723,15.715040,0.200915,-0.194334,-0.301866,0.012701,-0.012283,0.002463,0.011060,-0.033607,-0.000786,0.000268,0.005422,0.032441,0.000006,0.000315,-0.003705,0.000000,-0.000000,-0.000076
1770919558.385787,-0.785231,-0.063623,0.605466,0.738274,-0.800082,0.625300,-0.000167,0.000791,-0.008563,0.000000,-0.001024,0.003018,-0.040184,0.009984,-0.018921,0.079247,-0.096967,0.078814,-0.055580,0.107380,-0.654686,0.040184,-0.009984,0.518921,0.013330,-0.023222,1.998428,13.575330,20.903414,7.030072,-0.690457,0.062520,1.117781,-0.013330,0.023222,0.001572,-0.000100,0.053518,-0.000579,-0.000377,0.008447,-0.038173,-0.000167,0.000790,-0.008554,0.000000,-0.001023,0.003015
1770919588.385812,-0.738228,-0.267142,0.205701,0.738274,-0.738008,0.658986,-0.000047,0.000106,-0.001498,0.000000,-0.000266,0.000748,-0.021844,-0.004875,0.004726,0.054290,-0.031844,0.061997,-0.076007,0.013429,-0.646664,0.021844,0.004875,0.495274,0.008787,-0.004343,1.996434,13.946532,8.906702,19.615187,-0.312195,-0.578033,0.498937,-0.008787,0.004343,0.003566,-0.011340,0.016052,0.003157,-0.000046,-0.004663,0.009547,-0.000047,0.000106,-0.001496,0.000000,-0.000266,0.000747
1770919620.585800,0.565463,-0.392631,0.030701,0.722566,-0.392776,0.597543,0.000023,-0.000068,0.000715,-0.000000,0.000077,-0.000640,0.059452,-0.009999,0.021149,-0.130506,0.142843,-0.032612,-0.048050,-0.176036,-0.621429,-0.059452,0.009999,0.478851,-0.007334,0.021398,1.995888,4.985147,-1.782192,25.321512,0.055485,-1.194878,-0.112456,0.007334,-0.021398,0.004112,-0.006734,-0.044857,0.001378,-0.000422,-0.012482,0.041586,0.000023,-0.000068,0.000714,-0.000000,0.000077,-0.000640
1770919650.685752,0.109960,-0.329860,-0.219855,0.157080,-1.350884,-0.455561,-0.000004,-0.000008,-0.000057,-0.000000,-0.000001,0.000031,0.042017,0.009180,-0.002000,-0.124765,0.111284,0.053478,0.017948,-0.093057,-0.638785,-0.042017,-0.009180,0.502000,-0.007207,0.002970,2.000792,16.007842,-9.352250,17.423933,0.313364,-0.383442,-0.507379,0.007207,-0.002970,-0.000792,0.009759,-0.012083,-0.001389,-0.000037,0.009331,-0.003608,-0.000004,-0.000008,-0.000057,-0.000000,-0.000001,0.000030
1770919724.085783,0.157100,-0.722553,-0.346342,-0.361283,-0.785465,-0.031707,-0.000020,-0.000013,0.000766,-0.000000,0.000066,0.000291,0.041002,-0.009993,-0.002041,-0.101954,0.115941,-0.042339,-0.035420,-0.309481,-0.566794,-0.041002,0.009993,0.502041,-0.003211,-0.000485,1.999967,-5.748544,8.757006,23.090790,-0.310235,-1.450123,0.497376,0.003211,0.000485,0.000033,0.006088,-0.002240,0.000002,0.000041,-0.009807,-0.004484,-0.000020,-0.000013,0.000766,-0.000000,0.000066,0.000291
1770919760.585809,0.094249,-0.753980,0.691130,0.738274,-0.015708,-0.109957,-0.000002,-0.000002,0.000020,0.000000,0.000000,0.000001,0.043648,0.009986,0.001739,-0.121904,0.106988,0.043502,0.039012,-0.256452,-0.592673,-0.043648,-0.009986,0.498261,-0.006491,-0.001982,1.999563,-0.773325,-0.135344,25.577473,-0.003351,-1.424665,0.016178,0.006491,0.001982,0.000437,0.013288,-0.002729,0.000185,0.000035,0.009815,0.003907,-0.000002,-0.000002,0.000020,0.000000,0.000000,0.000001
1770919790.585854,-0.172777,-0.753985,-0.345611,-0.738274,-1.570803,0.486931,-0.000011,0.000003,0.000036,-0.000000,0.000006,0.000016,0.054945,-0.000763,0.002702,-0.124550,0.125688,-0.030318,0.025191,-0.264082,-0.588982,-0.054945,0.000763,0.497298,-0.001764,0.004706,2.000317,2.572383,19.882900,15.964429,-0.665049,-0.776994,1.078342,0.001764,-0.004706,-0.000317,-0.001388,-0.009913,-0.000864,-0.000004,-0.001057,0.005348,-0.000011,0.000003,0.000036,-0.000000,0.000006,0.000016
1770919871.785795,-0.047121,-0.188505,0.141987,0.015708,-1.021018,-0.251421,-0.000003,0.000010,-0.000616,0.000000,0.000000,0.000093,0.038615,0.009993,0.001824,-0.124231,0.111620,0.063363,-0.032260,0.183027,-0.671205,-0.038615,-0.009993,0.498176,0.004326,0.001090,2.000182,21.100542,-4.854952,13.817683,0.152261,-0.048351,-0.232576,-0.004326,-0.001090,-0.000182,-0.008635,0.002218,-0.000010,0.000036,0.009835,0.004027,-0.000003,0.000010,-0.000615,0.000000,0.000000,0.000093
1770919901.885795,-0.172803,0.659753,-0.549708,-0.361283,-1.507954,-0.329903,0.000015,-0.000019,-0.000071,-0.000000,-0.000011,0.000036,0.037843,0.006922,0.000964,-0.122339,0.113786,0.061377,-0.041810,0.215756,-0.680042,-0.037843,-0.006922,0.499036,0.003707,0.001121,2.004963,23.795328,-8.207681,-1.168267,0.287345,0.901482,-0.451748,-0.003707,-0.001121,-0.004963,-0.007609,0.001762,-0.004842,0.000013,0.006837,0.002187,0.000015,-0.000019,-0.000071,-0.000000,-0.000011,0.000036
1770919947.085751,-0.015816,0.219486,0.555338,-0.329867,-0.895141,-0.234824,0.000108,0.000425,-0.005559,0.000000,-0.000213,-0.000796,0.050370,0.009986,0.003907,-0.141403,0.129979,0.070382,-0.043058,0.283323,-0.705164,-0.050370,-0.009986,0.496093,0.000694,0.003606,1.999458,23.149959,-10.512509,-2.574933,0.359850,0.927395,-0.567312,-0.000694,-0.003606,0.000542,-0.004643,-0.005698,0.000302,0.000078,0.009571,0.008298,0.000108,0.000425,-0.005553,0.000000,-0.000213,-0.000795
1770920046.185790,0.424091,-0.785388,-0.189094,0.329867,-0.801138,0.612655,0.000024,-0.000010,0.000599,0.000000,0.000032,-0.000044,0.035964,-0.009995,-0.001907,-0.098406,0.112165,-0.030741,-0.044179,-0.284001,-0.580103,-0.035964,0.009995,0.501907,-0.004980,-0.003664,2.000013,0.677544,-6.851688,24.220827,0.231986,-1.321735,-0.381390,0.004980,0.003664,-0.000013,0.012245,0.001626,0.000168,0.000038,-0.009842,-0.004167,0.000024,-0.000010,0.000598,0.000000,0.000032,-0.000044
1770920145.485770,0.267285,0.595841,0.670668,0.706858,-0.894302,-0.098365,-0.000250,0.001061,-0.010933,0.000000,-0.001052,0.004117,0.053588,0.009991,0.002596,-0.141995,0.131180,0.065106,-0.035844,0.241217,-0.689089,-0.053588,-0.009991,0.497404,0.003629,0.003180,2.000199,18.300055,14.906533,-9.795073,-0.512148,1.140482,0.823916,-0.003629,-0.003180,-0.000199,-0.009406,-0.002116,-0.000218,0.000052,0.009689,0.005713,-0.000249,0.001060,-0.010922,0.000000,-0.001051,0.004113
1770920175.585849,-0.329957,0.628025,0.506894,-0.157080,-0.926718,0.299298,0.000090,0.000293,-0.004240,-0.000000,-0.000052,-0.000846,0.016153,0.007689,-0.014947,-0.093406,0.080488,0.063740,-0.042626,0.272935,-0.701311,-0.016153,-0.007689,0.514947,0.009540,-0.008271,2.000345,22.502258,3.409797,-12.046112,-0.124576,1.405166,0.184761,-0.009540,0.008271,-0.000345,-0.008452,0.023772,0.000104,-0.000229,0.008163,-0.029736,0.000090,0.000293,-0.004235,-0.000000,-0.000052,-0.000846
1770920217.685793,-0.376998,-0.282810,0.173735,-0.125664,-0.628320,-0.518346,0.000007,0.000067,-0.000948,0.000000,0.000002,-0.000017,0.014270,-0.009988,-0.001531,-0.073758,0.096045,0.037324,-0.071956,0.205423,-0.679335,-0.014270,0.009988,0.501531,0.008094,-0.001871,1.997585,10.705913,-5.812682,22.030661,0.193250,-0.836973,-0.305707,-0.008094,0.001871,0.002415,-0.012406,0.011020,0.002446,0.000031,-0.009933,-0.003201,0.000007,0.000067,-0.000947,0.000000,0.000002,-0.000017
1770920247.785752,-0.424078,0.172612,0.488532,-0.644026,-0.157085,-0.391791,-0.000037,0.000175,-0.001585,-0.000000,0.000006,-0.000908,0.004591,0.006242,-0.004184,-0.075701,0.058752,0.067458,-0.047668,0.241281,-0.688707,-0.004591,-0.006242,0.504184,0.000090,-0.007128,2.005273,11.280582,-14.420534,17.910202,0.495208,-0.594059,-0.799109,-0.000090,0.007128,-0.005273,0.006690,0.012580,-0.005252,-0.000052,0.006274,-0.008332,-0.000037,0.000175,-0.001583,-0.000000,0.000006,-0.000908
1770920277.785789,0.722592,0.266422,0.429716,-0.251327,-0.157121,-0.375425,-0.000026,0.000613,-0.005601,0.000000,0.000041,-0.001566,0.100421,-0.009386,0.035969,-0.173024,0.182045,-0.014737,-0.054647,0.133366,-0.658517,-0.100421,0.009386,0.464031,-0.009866,0.026585,1.991980,17.939664,-10.011500,15.556750,0.342017,-0.220062,-0.544963,0.009866,-0.026585,0.008020,-0.006220,-0.056835,0.002268,-0.000674,-0.016534,0.070562,-0.000026,0.000612,-0.005596,0.000000,0.000041,-0.001565
1770920307.785794,-0.408400,0.109970,-0.565436,0.282743,-1.492252,0.125679,-0.000007,-0.000015,-0.000051,0.000000,-0.000005,-0.000015,0.001714,0.001020,-0.034904,-0.053778,0.051044,0.050377,-0.047450,0.154023,-0.664795,-0.001714,-0.001020,0.534904,0.007958,-0.016000,1.997659,22.672390,-0.477109,12.158050,0.017816,0.074443,-0.018352,-0.007958,0.016000,0.002341,0.002620,0.035604,0.002397,-0.000071,0.001138,-0.069736,-0.000007,-0.000015,-0.000051,0.000000,-0.000005,-0.000015
1770920337.885780,-0.596909,0.565545,-0.785123,-0.062832,-1.162389,0.691329,0.000006,-0.000059,-0.000275,-0.000000,-0.000000,-0.000179,0.001408,-0.000768,-0.004077,-0.058968,0.061132,0.057767,-0.059975,0.148897,-0.662591,-0.001408,0.000768,0.504077,0.004568,-0.008864,2.002642,15.662330,13.520109,15.095594,-0.464322,-0.287450,0.731543,-0.004568,0.008864,-0.002642,0.000565,0.019919,-0.002610,0.000006,-0.000756,-0.008147,0.000006,-0.000059,-0.000275,-0.000000,-0.000000,-0.000179
1770920385.985759,-0.534203,0.031036,0.444475,-0.329867,-0.848004,0.630186,0.000132,0.000380,-0.004652,-0.000000,-0.000226,-0.001867,0.001006,0.009999,-0.000093,-0.073578,0.046636,0.071943,-0.044016,0.253264,-0.693908,-0.001006,-0.009999,0.500093,0.001182,-0.003528,1.999999,21.876306,11.794286,6.457869,-0.382309,0.396119,0.613836,-0.001182,0.003528,0.000001,0.001307,0.007319,-0.000005,-0.000002,0.009989,-0.000176,0.000132,0.000380,-0.004647,-0.000000,-0.000226,-0.001865
1770920415.985867,-0.047085,0.314167,0.016282,0.471239,-1.083766,0.675479,-0.000039,-0.000008,-0.000574,0.000000,-0.000084,-0.000036,0.029738,0.005932,0.013136,-0.116513,0.108334,0.068259,-0.053111,0.271262,-0.700365,-0.029738,-0.005932,0.486864,-0.002039,0.007545,2.000771,16.565377,18.991617,4.966862,-0.633604,0.298012,1.034195,0.002039,-0.007545,-0.000771,-0.003457,-0.015199,-0.001202,0.000156,0.005143,0.026410,-0.000039,-0.000008,-0.000573,0.000000,-0.000084,-0.000036
1770920490.085778,0.109951,-0.361288,-0.596932,0.565487,-1.350890,0.078543,0.000005,0.000005,0.000030,0.000000,0.000005,-0.000003,0.024647,-0.009999,-0.001269,-0.089712,0.105639,0.025939,-0.061515,-0.118114,-0.634963,-0.024647,0.009999,0.501269,-0.002452,-0.000242,2.000096,10.864452,-10.275710,20.269805,0.321984,-0.761533,-0.534696,0.002452,0.000242,-0.000096,0.004529,-0.001927,-0.000098,0.000025,-0.009923,-0.002780,0.000005,0.000005,0.000030,0.000000,0.000005,-0.000003
1770920520.085806,-0.596877,0.628349,-0.596759,0.455531,-1.413689,0.298488,-0.000026,-0.000031,-0.000143,-0.000000,-0.000028,-0.000037,-0.018363,0.008628,-0.014643,0.013088,-0.058479,0.075195,-0.049050,0.069755,-0.649012,0.018363,-0.008628,0.514643,0.000244,-0.016780,2.004809,24.031116,7.470120,2.823167,-0.258257,0.657863,0.415574,-0.000244,0.016780,-0.004809,0.016036,0.029327,-0.005482,-0.000252,0.008081,-0.029409,-0.000026,-0.000031,-0.000143,-0.000000,-0.000028,-0.000037
1770920550.185820,0.612604,0.377003,0.078828,-0.141372,-1.256632,-0.267095,0.000007,-0.000012,-0.000288,-0.000000,-0.000005,0.000059,0.100053,0.007633,0.042501,-0.178670,0.171762,0.041548,0.026354,0.045916,-0.646419,-0.100053,-0.007633,0.457499,-0.016394,0.027140,1.991514,23.737217,-6.601179,-5.511277,0.226438,1.113234,-0.365628,0.016394,-0.027140,0.008486,0.005499,-0.063645,0.002089,0.000648,-0.000894,0.085252,0.000007,-0.000012,-0.000288,-0.000000,-0.000005,0.000059
1770920580.285800,0.581245,0.596790,-0.186924,0.251327,-0.471220,0.533583,-0.000051,0.000112,-0.001572,0.000000,-0.000019,0.000488,0.084334,0.000612,-0.000472,-0.158883,0.158452,-0.016809,0.020477,0.040599,-0.646499,-0.084334,-0.000612,0.500472,-0.004676,0.011179,1.997293,15.354735,13.473473,15.596194,-0.468622,-0.329449,0.753019,0.004676,-0.011179,0.002707,-0.002519,-0.024221,0.000668,-0.000001,0.000689,-0.000887,-0.000050,0.000112,-0.001570,0.000000,-0.000018,0.000487
1770920656.985774,0.094244,-0.518381,-0.691654,0.157080,-0.801117,-0.204039,0.000004,0.000019,0.000504,-0.000000,0.000010,-0.000165,0.028919,-0.009983,-0.002127,-0.088901,0.104740,-0.020644,-0.051384,-0.293874,-0.575019,-0.028919,0.009983,0.502127,-0.000651,-0.005954,2.000579,-9.625309,-0.999901,23.083396,0.021683,-1.616988,-0.043789,0.000651,0.005954,-0.000579,0.006870,0.009812,-0.000226,0.000042,-0.009846,-0.004537,0.000004,0.000018,0.000503,-0.000000,0.000010,-0.000164
1770920716.485807,-0.706867,0.141373,-0.518197,-0.502655,-0.863912,0.518499,0.000008,-0.000001,-0.000166,-0.000000,-0.000026,-0.000136,0.007548,0.009991,-0.000445,-0.083057,0.060057,0.069336,-0.038934,-0.161383,-0.625593,-0.007548,-0.009991,0.500445,0.001145,-0.005460,1.999588,8.910486,9.710443,21.446438,-0.355530,-0.878486,0.571971,-0.001145,0.005460,0.000412,0.003232,0.010666,0.000460,-0.000009,0.009988,-0.000814,0.000008,-0.000001,-0.000166,-0.000000,-0.000026,-0.000136
1770920768.885820,0.361212,0.125125,0.365949,-0.204204,-0.172709,0.520925,0.000071,0.000539,-0.004666,0.000000,-0.000079,-0.002562,0.075603,0.009988,0.007237,-0.157842,0.147543,0.045896,0.032231,0.090314,-0.651461,-0.075603,-0.009988,0.492763,-0.004603,0.012274,1.997853,14.686896,7.635409,19.340538,-0.241899,-0.538897,0.402800,0.004603,-0.012274,0.002147,-0.003477,-0.026047,0.000213,0.000144,0.008857,0.015172,0.000071,0.000539,-0.004661,0.000000,-0.000079,-0.002559
1770920802.985807,-0.675583,0.439450,0.113924,-0.565487,-0.455220,-0.327201,0.000141,0.000372,-0.003969,-0.000000,-0.000311,-0.002666,-0.012149,0.009982,-0.024921,-0.028267,-0.046926,0.067662,-0.039716,0.173649,-0.668760,0.012149,-0.009982,0.524921,0.012582,-0.016548,2.000704,16.206102,-13.592466,14.456919,0.455154,-0.221762,-0.742333,-0.012582,0.016548,-0.000704,-0.005192,0.041199,-0.001152,-0.000497,0.009367,-0.049906,0.000141,0.000372,-0.003965,-0.000000,-0.000311,-0.002664
1770920833.085814,-0.785406,0.141394,-0.502506,-0.188496,-1.178094,0.597007,0.000008,-0.000022,-0.000149,0.000000,-0.000003,-0.000105,-0.008392,-0.004345,-0.001306,-0.014325,0.045292,0.054777,-0.069619,0.138484,-0.661219,0.008392,0.004345,0.501306,0.010817,-0.005533,1.996529,14.953313,11.837691,17.042889,-0.392106,-0.451829,0.633302,-0.010817,0.005533,0.003471,-0.013655,0.020109,0.003240,0.000011,-0.004362,-0.002573,0.000008,-0.000022,-0.000149,0.000000,-0.000003,-0.000104
1770920870.285803,0.376991,-0.267012,0.109766,0.486947,-0.109956,0.125856,-0.000000,-0.000023,0.000190,0.000000,0.000000,-0.000193,0.058146,-0.009994,0.012260,-0.129736,0.142093,-0.027562,-0.050982,-0.125451,-0.633750,-0.058146,0.009994,0.487740,-0.004336,0.014686,1.996693,-0.851304,-0.376802,25.155082,0.010708,-1.430212,-0.025847,0.004336,-0.014686,0.003307,-0.006130,-0.030119,0.001495,-0.000245,-0.011390,0.023873,-0.000000,-0.000023,0.000190,0.000000,0.000000,-0.000193
1770920900.385815,0.314131,0.769651,-0.517688,-0.172788,-0.486929,0.204513,0.000028,0.000039,-0.000675,-0.000000,-0.000018,-0.000309,0.063643,0.004390,0.003281,-0.143461,0.137264,0.035775,0.021447,-0.074894,-0.640257,-0.063643,-0.004390,0.496719,-0.008462,0.007033,2.003755,17.833358,3.978253,17.693277,-0.126206,-0.397192,0.197536,0.008462,-0.007033,-0.003755,0.008152,-0.020128,-0.005077,0.000029,0.003959,0.006821,0.000028,0.000039,-0.000674,-0.000000,-0.000018,-0.000309
1770920965.185793,-0.439849,0.691095,0.362787,-0.047124,-1.083847,0.188686,0.000026,0.000056,-0.001504,0.000000,-0.000002,-0.000190,0.003709,0.009981,-0.001513,-0.077296,0.053439,0.071387,-0.044470,0.240304,-0.689379,-0.003709,-0.009981,0.501513,0.005335,-0.005743,1.999286,20.928557,3.380961,-13.609088,-0.097409,1.467427,0.173801,-0.005335,0.005743,0.000714,-0.003824,0.015183,0.000808,-0.000030,0.009983,-0.002986,0.000026,0.000056,-0.001503,0.000000,-0.000002,-0.000190
1770920995.185814,0.502938,0.626709,0.674375,0.644026,-0.674152,-0.557402,-0.000283,0.001610,-0.014641,0.000000,-0.001291,0.007623,0.076429,0.002540,0.030453,-0.162281,0.160436,0.058607,-0.053288,0.224441,-0.683289,-0.076429,-0.002540,0.469547,-0.005739,0.019750,1.995506,24.266380,4.230143,-7.101716,-0.135361,1.241835,0.217598,0.005739,-0.019750,0.004494,-0.007618,-0.040605,0.001412,0.000154,-0.002115,0.060861,-0.000283,0.001608,-0.014626,0.000000,-0.001289,0.007615
1770921025.285761,-0.455398,0.109556,0.381861,0.644026,-0.831914,0.013565,-0.000133,0.000400,-0.004870,0.000000,-0.000608,0.002143,-0.011612,0.004522,-0.036950,0.020061,-0.040731,0.055396,-0.042574,0.246990,-0.692743,0.011612,-0.004522,0.536950,0.011391,-0.013917,1.992399,23.377491,7.898095,7.508997,-0.253340,0.366986,0.411634,-0.011391,0.013917,0.007601,-0.005298,0.035621,0.007205,-0.000334,0.003660,-0.073872,-0.000133,0.000400,-0.004865,0.000000,-0.000607,0.002140
1770921098.785792,-0.298446,-0.455518,-0.204573,-0.157080,-0.722570,-0.314186,-0.000005,-0.000013,0.000370,-0.000000,0.000003,0.000027,0.025881,-0.009980,-0.000835,-0.090704,0.106397,0.021982,-0.059802,-0.160587,-0.625618,-0.025881,0.009980,0.500835,-0.002635,0.000042,2.000013,2.439170,2.663681,25.309650,-0.077378,-1.298193,0.128393,0.002635,-0.000042,-0.000013,0.004578,-0.002600,-0.000034,0.000017,-0.009923,-0.001926,-0.000005,-0.000013,0.000370,-0.000000,0.000003,0.000027
1770921128.885787,0.753876,-0.392827,0.488979,-0.534071,-1.319298,-0.754268,0.000106,0.000128,-0.002032,-0.000000,-0.000171,0.000285,0.111212,-0.001292,0.023141,-0.174922,0.175687,-0.055944,0.053495,-0.197635,-0.612859,-0.111212,0.001292,0.476859,-0.018082,0.024503,1.994087,18.144943,-17.889503,1.567292,0.610313,0.539732,-0.990755,0.018082,-0.024503,0.005913,0.009619,-0.060363,-0.000784,-0.000060,-0.006414,0.045807,0.000106,0.000128,-0.002030,-0.000000,-0.000171,0.000285
1770921211.585773,-0.298705,-0.173931,0.733596,-0.722566,-0.972868,0.475616,0.000254,0.001144,-0.011030,-0.000000,-0.001026,-0.004377,0.033561,0.009990,0.001253,-0.121086,0.107898,0.069589,-0.042698,0.266235,-0.698572,-0.033561,-0.009990,0.498747,0.005057,-0.001517,2.000269,25.093993,3.415694,2.859662,-0.123139,0.674636,0.186601,-0.005057,0.001517,-0.000269,-0.007425,0.007497,0.000057,0.000025,0.009891,0.002838,0.000254,0.001143,-0.011019,-0.000000,-0.001025,-0.004373
1770921241.585805,-0.502635,-0.455544,0.314700,0.188496,-1.382288,0.455688,-0.000020,0.000013,-0.000541,0.000000,-0.000012,-0.000157,-0.003571,-0.006405,-0.016200,-0.024427,0.055789,0.043860,-0.066632,0.235647,-0.688228,0.003571,0.006405,0.516200,0.014089,-0.008620,1.996130,21.808242,9.501614,8.592581,-0.333665,0.291766,0.539245,-0.014089,0.008620,0.003870,-0.016005,0.028887,0.003660,0.000207,-0.006514,-0.032343,-0.000020,0.000013,-0.000540,0.000000,-0.000012,-0.000157
1770921275.385759,0.424057,0.549580,-0.218029,-0.722566,-0.376743,0.520851,0.000058,0.000198,-0.001882,-0.000000,-0.000248,-0.002488,0.076706,-0.009981,0.021650,-0.151932,0.162553,0.011573,-0.058942,0.141716,-0.659966,-0.076706,0.009981,0.478350,-0.004915,0.017024,2.000272,16.494964,4.161196,18.927283,-0.131631,-0.489746,0.212640,0.004915,-0.017024,-0.000272,-0.006937,-0.034587,-0.003000,-0.000431,-0.013256,0.042363,0.000058,0.000198,-0.001880,-0.000000,-0.000248,-0.002486
1770921305.385798,-0.675419,0.141256,0.110957,-0.094248,-0.015707,-0.612974,-0.000024,0.000115,-0.001002,0.000000,-0.000001,0.000363,-0.009326,-0.003705,-0.030498,0.025055,0.025814,0.048123,-0.060084,0.114390,-0.656829,0.009326,0.003705,0.530498,0.009586,-0.016643,1.995660,5.109113,-4.493556,24.305448,0.152391,-1.169017,-0.255419,-0.009586,0.016643,0.004340,0.000288,0.038411,0.003979,0.000226,-0.004270,-0.060897,-0.000024,0.000115,-0.001001,0.000000,-0.000001,0.000363
1770921335.385810,-0.361276,0.000015,-0.219794,0.157080,-1.288051,-0.706949,-0.000007,-0.000015,-0.000118,0.000000,-0.000002,0.000091,0.005323,0.007311,0.002051,-0.078725,0.060538,0.069068,-0.047304,0.175277,-0.669284,-0.005323,-0.007311,0.497949,-0.000780,-0.006831,2.000607,16.615143,-14.885508,12.489701,0.507118,-0.093283,-0.815792,0.000780,0.006831,-0.000607,0.007884,0.011250,-0.000604,0.000030,0.007282,0.004136,-0.000007,-0.000015,-0.000118,0.000000,-0.000002,0.000091
1770921365.485852,0.204179,-0.015702,-0.094083,-0.612611,-1.492223,-0.251370,0.000025,-0.000006,-0.000165,-0.000000,-0.000033,0.000042,0.077859,0.002382,0.028950,-0.160353,0.158141,0.048124,-0.040146,0.154293,-0.663309,-0.077859,-0.002382,0.471050,-0.009707,0.018963,1.996621,25.581458,-3.614562,2.389703,0.133924,0.712844,-0.209127,0.009707,-0.018963,0.003379,0.000096,-0.042696,0.000054,0.000138,-0.002127,0.057852,0.000025,-0.000006,-0.000164,-0.000000,-0.000033,0.000042
1770921395.585810,0.644026,0.392542,0.079797,-0.565487,-0.172732,0.284319,0.000001,0.000157,-0.001257,0.000000,-0.000056,-0.001576,0.089763,-0.007357,0.004731,-0.159972,0.167650,-0.038470,-0.032178,0.058783,-0.647366,-0.089763,0.007357,0.495269,-0.004919,0.015167,1.998090,16.332404,-1.092506,19.397210,0.029139,-0.507962,-0.036283,0.004919,-0.015167,0.001910,-0.005769,-0.031374,-0.000951,-0.000069,-0.008168,0.008755,0.000001,0.000157,-0.001256,0.000000,-0.000056,-0.001574
1770921460.485813,0.675426,-0.502679,-0.706993,0.502655,-1.225239,0.502642,0.000016,0.000024,0.000134,0.000000,0.000018,0.000012,0.040093,-0.009986,-0.003188,-0.103813,0.117780,-0.030203,-0.046717,-0.242532,-0.598352,-0.040093,0.009986,0.503188,-0.000169,-0.005218,2.001188,6.747723,-8.526715,22.977953,0.282399,-1.023063,-0.455527,0.000169,0.005218,-0.001188,0.005334,0.009008,-0.000773,0.000064,-0.009713,-0.006763,0.000016,0.000024,0.000134,0.000000,0.000018,0.000012
1770921543.685773,-0.518262,-0.314560,0.680563,0.376991,-1.162205,0.675687,-0.000101,0.000401,-0.005121,-0.000000,-0.000184,-0.000245,-0.014021,0.009994,-0.001164,-0.032768,-0.044752,0.073742,-0.048598,0.222091,-0.683110,0.014021,-0.009994,0.501164,0.006060,-0.004609,1.999862,17.754025,18.060934,1.024411,-0.614667,0.544393,1.011582,-0.006060,0.004609,0.000138,-0.006194,0.013895,0.000004,-0.000023,0.009950,-0.002465,-0.000101,0.000400,-0.005116,-0.000000,-0.000184,-0.000244
1770921573.685813,0.565509,0.047135,-0.109751,0.376991,-1.350868,-0.581314,-0.000022,-0.000011,-0.000205,-0.000000,-0.000017,0.000119,0.078396,-0.000220,0.038190,-0.161372,0.162574,0.049647,-0.053428,0.180428,-0.670103,-0.078396,0.000220,0.461810,-0.007230,0.026390,1.994716,21.157520,-12.452478,5.866036,0.422048,0.381617,-0.674514,0.007230,-0.026390,0.005284,-0.010563,-0.053890,0.001059,-0.000017,-0.006195,0.076053,-0.000022,-0.000011,-0.000204,-0.000000,-0.000017,0.000119
1770921603.785787,0.455579,0.423738,0.191577,0.392699,-0.188381,-0.489926,-0.000048,0.000377,-0.003082,0.000000,-0.000115,0.002979,0.077433,-0.000193,0.003020,-0.156575,0.157239,0.032363,-0.035438,0.172371,-0.667570,-0.077433,0.000193,0.496980,-0.004766,0.013985,1.999423,18.709212,-1.655162,17.714171,0.057046,-0.296572,-0.084776,0.004766,-0.013985,0.000577,-0.004951,-0.029060,-0.001677,-0.000001,-0.000659,0.006002,-0.000048,0.000376,-0.003079,0.000000,-0.000114,0.002976
1770921633.885810,-0.628523,-0.283608,0.700301,-0.518363,-0.847646,-0.233376,0.000204,0.000865,-0.009151,-0.000000,-0.000584,-0.002244,-0.005632,0.009290,-0.034176,-0.046573,-0.027619,0.063143,-0.032488,0.224393,-0.684607,0.005632,-0.009290,0.534176,0.009721,-0.017560,1.995105,21.698294,-10.116846,8.216628,0.346545,0.266705,-0.582618,-0.009721,0.017560,0.004895,0.001191,0.040113,0.004654,-0.000634,0.008896,-0.068331,0.000204,0.000864,-0.009142,-0.000000,-0.000583,-0.002241
1770921663.985811,-0.204244,0.643779,0.050055,-0.109956,-0.424120,-0.345245,0.000040,0.000248,-0.002931,0.000000,0.000005,-0.000331,0.024404,0.005605,0.009063,-0.107533,0.099076,0.066446,-0.051654,0.246942,-0.690840,-0.024404,-0.005605,0.490937,0.001592,-0.000029,2.005280,21.068021,-8.610943,11.345978,0.297733,0.116680,-0.479629,-0.001592,0.000029,-0.005280,-0.002807,0.001678,-0.005220,0.000101,0.005156,0.018238,0.000040,0.000247,-0.002928,0.000000,0.000005,-0.000330
1770921694.085794,-0.392731,0.644063,-0.628098,-0.502655,-1.303720,-0.219901,0.000032,-0.000036,-0.000220,-0.000000,-0.000041,-0.000011,0.023887,-0.002096,0.000978,-0.099332,0.103477,0.052635,-0.060095,0.234428,-0.687423,-0.023887,0.002096,0.499022,0.003354,0.001316,1.998116,23.555692,-5.132570,6.266249,0.171606,0.485079,-0.274117,-0.003354,-0.001316,0.001884,-0.007147,0.000854,0.001889,-0.000004,-0.002140,0.001904,0.000032,-0.000036,-0.000220,-0.000000,-0.000041,-0.000011
1770921727.485749,0.204294,0.078163,0.633274,0.125664,-1.099521,-0.723840,-0.000090,0.000376,-0.004955,0.000000,-0.000037,0.001273,0.061353,0.009993,0.015147,-0.153698,0.142617,0.072491,-0.044406,0.274049,-0.701138,-0.061353,-0.009993,0.484853,-0.006917,0.009377,1.998748,20.812735,-13.921522,-6.691680,0.460051,1.057134,-0.740357,0.006917,-0.009377,0.001252,0.003508,-0.023050,-0.000198,0.000302,0.008109,0.030818,-0.000090,0.000376,-0.004951,0.000000,-0.000037,0.001272
1770921796.185811,0.329867,0.172789,-0.267048,0.549779,-0.172788,0.361298,0.000000,-0.000001,0.000013,0.000000,0.000000,-0.000015,0.057660,-0.009997,-0.002756,-0.128753,0.140529,-0.024483,-0.050712,0.044572,-0.646924,-0.057660,0.009997,0.502756,-0.002120,0.001385,2.000226,1.836382,1.134053,25.332946,-0.036466,-1.321125,0.051494,0.002120,-0.001385,-0.000226,0.002380,-0.004447,-0.000459,0.000055,-0.009653,-0.006072,0.000000,-0.000001,0.000013,0.000000,0.000000,-0.000015
1770921850.485817,-0.722563,0.015720,-0.707185,0.000000,-0.502652,-0.738184,-0.000003,-0.000012,0.000326,-0.000000,-0.000003,-0.000090,0.005961,-0.009981,-0.003342,-0.055607,0.078599,0.040841,-0.068944,-0.215710,-0.608975,-0.005961,0.009981,0.503342,0.002107,-0.010298,2.000593,-3.794961,3.649673,25.028034,-0.110388,-1.485196,0.182563,-0.002107,0.010298,-0.000593,0.006243,0.020058,-0.000410,0.000067,-0.009931,-0.006736,-0.000003,-0.000012,0.000326,-0.000000,-0.000003,-0.000090
1770921880.585777,0.549740,-0.691652,0.712816,-0.172788,-0.801054,-0.471097,0.000038,0.000502,-0.005958,-0.000000,-0.000052,-0.000142,0.082011,0.007607,0.022858,-0.159119,0.149873,0.019459,0.049784,-0.186508,-0.617928,-0.082011,-0.007607,0.477142,-0.016528,0.015113,1.992409,18.101266,-8.197780,15.903718,0.270610,-0.253544,-0.444634,0.016528,-0.015113,0.007591,0.015524,-0.042459,0.004000,0.000347,0.003832,0.046138,0.000038,0.000501,-0.005952,-0.000000,-0.000052,-0.000142
1770921910.585860,0.267042,-0.376972,0.204033,0.424115,-0.062827,0.486991,-0.000006,-0.000019,0.000170,0.000000,-0.000005,-0.000044,0.053472,-0.000884,-0.005059,-0.125779,0.126773,-0.010737,-0.011646,-0.191118,-0.616621,-0.053472,0.000884,0.505059,-0.001044,0.000994,2.001574,-1.847182,-1.853004,25.774387,0.056382,-1.452281,-0.075631,0.001044,-0.000994,-0.001574,0.000866,-0.002659,-0.001716,0.000009,-0.000342,-0.010142,-0.000006,-0.000019,0.000170,0.000000,-0.000005,-0.000044
1770921942.985841,0.235628,0.157039,-0.219386,0.078540,-0.471236,-0.502809,-0.000008,0.000040,-0.000526,-0.000000,-0.000003,0.000154,0.054432,0.009987,0.001623,-0.136430,0.123499,0.049637,0.029954,-0.111971,-0.635384,-0.054432,-0.009987,0.498377,-0.003308,-0.000788,2.001327,9.673990,-4.251909,23.119192,0.143337,-0.925730,-0.234961,0.003308,0.000788,-0.001327,0.006544,-0.001698,-0.001486,0.000032,0.009786,0.003781,-0.000008,0.000040,-0.000525,-0.000000,-0.000003,0.000154
1770921972.985880,-0.612638,-0.125540,-0.283844,0.722566,-0.330020,-0.453925,0.000027,-0.000124,0.001101,0.000000,0.000153,-0.001606,0.003624,-0.008973,-0.015324,-0.045548,0.072798,0.038253,-0.068470,-0.183594,-0.620012,-0.003624,0.008973,0.515324,0.012930,-0.012080,1.996784,-2.745384,-6.671684,24.707961,0.210690,-1.436420,-0.338922,-0.012930,0.012080,0.003216,-0.010612,0.033721,0.003240,0.000274,-0.008853,-0.030649,0.000027,-0.000124,0.001100,0.000000,0.000153,-0.001604
1770922048.485799,0.314093,0.533979,0.347561,-0.361283,-1.036606,-0.156798,0.000066,0.000092,-0.001986,-0.000000,-0.000119,-0.000281,0.080221,0.009988,0.004253,-0.164387,0.154609,0.054334,0.012908,0.189447,-0.672505,-0.080221,-0.009988,0.495747,-0.000883,0.007205,1.998403,22.143581,-9.329034,-8.825179,0.315215,1.240070,-0.497557,0.000883,-0.007205,0.001597,-0.005279,-0.013591,0.000561,0.000085,0.009265,0.009269,0.000066,0.000092,-0.001984,-0.000000,-0.000119,-0.000281
1770922078.585746,0.518149,0.343983,0.769880,-0.314159,-0.580782,-0.043263,0.000214,0.001593,-0.015898,0.000000,-0.000413,-0.003861,0.096331,0.002995,0.007594,-0.174361,0.172260,0.040561,-0.030285,0.193613,-0.673102,-0.096331,-0.002995,0.492406,-0.000390,0.009785,1.997430,23.937524,-6.797087,-4.307620,0.224528,1.065762,-0.354056,0.000390,-0.009785,0.002570,-0.008547,-0.017764,0.000889,0.000045,0.001519,0.015390,0.000214,0.001591,-0.015882,0.000000,-0.000413,-0.003857
1770922108.585810,-0.000076,-0.314414,0.364157,-0.565487,-0.643751,-0.438600,0.000076,0.000255,-0.002874,-0.000000,-0.000275,-0.001223,0.050642,-0.002544,-0.017524,-0.126577,0.130898,0.035116,-0.048436,0.193846,-0.675258,-0.050642,0.002544,0.517524,0.009863,-0.007243,1.993778,15.211647,-7.156756,19.466592,0.232711,-0.534332,-0.364108,-0.009863,0.007243,0.006222,-0.009982,0.021983,0.007313,0.000089,-0.000766,-0.035096,0.000076,0.000255,-0.002871,-0.000000,-0.000275,-0.001222
1770922138.685760,-0.047165,-0.408549,0.504962,-0.235619,-1.068101,-0.722880,0.000041,0.000142,-0.002307,0.000000,-0.000041,0.000313,0.044710,0.005498,-0.003569,-0.128807,0.121655,0.060000,-0.042531,0.228073,-0.684603,-0.044710,-0.005498,0.503569,0.003731,-0.007091,2.002730,17.441155,-15.332204,9.884537,0.513403,0.073510,-0.835624,-0.003731,0.007091,-0.002730,0.000293,0.016112,-0.002011,-0.000039,0.005806,-0.006879,0.000041,0.000142,-0.002305,0.000000,-0.000041,0.000313
1770922177.185776,0.063049,-0.110950,0.764584,0.565487,-0.941737,0.437845,-0.000217,0.000994,-0.010601,0.000000,-0.000741,0.001978,0.041539,0.009998,0.000450,-0.131294,0.117977,0.071446,-0.042258,0.284586,-0.705131,-0.041539,-0.009998,0.499550,0.001939,-0.004027,2.001882,17.664938,18.565626,0.859804,-0.627523,0.527122,1.021596,-0.001939,0.004027,-0.001882,0.000435,0.008989,-0.001513,0.000009,0.009942,0.001314,-0.000217,0.000993,-0.010591,0.000000,-0.000741,0.001976
1770922207.185853,0.141461,0.188384,0.190527,0.518363,-0.926528,-0.032203,-0.000090,0.000112,-0.002032,-0.000000,-0.000242,0.000787,0.046890,0.000818,0.002903,-0.131971,0.131562,0.059600,-0.058694,0.283188,-0.705173,-0.046890,-0.000818,0.497097,0.003453,0.001298,1.999578,24.298504,5.334116,7.848133,-0.174927,0.376382,0.274365,-0.003453,-0.001298,0.000422,-0.007301,0.000989,0.000474,0.000005,0.000544,0.005831,-0.000089,0.000112,-0.002029,-0.000000,-0.000241,0.000786
1770922249.285783,-0.424167,-0.408558,0.347444,-0.439823,-0.722440,-0.235025,0.000052,0.000151,-0.001869,-0.000000,-0.000126,-0.000594,0.017552,-0.009996,-0.006176,-0.079408,0.099163,0.036463,-0.069696,0.218963,-0.682773,-0.017552,0.009996,0.506176,0.006941,-0.005374,1.998872,15.259550,-2.400058,19.833411,0.078185,-0.566607,-0.133042,-0.006941,0.005374,0.001128,-0.006934,0.016093,0.001340,0.000123,-0.009768,-0.012512,0.000052,0.000150,-0.001867,-0.000000,-0.000126,-0.000594
1770922279.285839,-0.455569,0.109662,0.238915,-0.047124,-0.455525,0.408912,0.000038,0.000293,-0.003296,0.000000,-0.000006,-0.000505,0.005063,0.002575,-0.005871,-0.071759,0.064095,0.062438,-0.053457,0.235273,-0.687027,-0.005063,-0.002575,0.505871,0.001212,-0.009160,2.003611,17.043754,7.641452,17.556497,-0.234264,-0.388801,0.385490,-0.001212,0.009160,-0.003611,0.006741,0.017201,-0.003538,-0.000030,0.002632,-0.011717,0.000038,0.000293,-0.003292,0.000000,-0.000006,-0.000505
1770922380.385769,0.298486,-0.502672,-0.771026,-0.738274,-0.738620,-0.268098,-0.000035,0.000018,0.001335,-0.000000,0.000346,0.001062,0.044107,-0.009981,-0.002153,-0.103638,0.116558,-0.048820,-0.021469,-0.337367,-0.550659,-0.044107,0.009981,0.502153,-0.007350,-0.001788,1.999889,-2.563393,18.128561,17.612270,-0.628916,-1.032285,1.005984,0.007350,0.001788,0.000111,0.014590,-0.003944,0.000083,0.000043,-0.009771,-0.004737,-0.000035,0.000018,0.001334,-0.000000,0.000345,0.001061
1770922434.485811,-0.675443,0.141372,-0.345577,-0.691150,-0.047124,-0.471236,0.000000,-0.000000,0.000002,0.000000,-0.000000,-0.000002,0.001399,0.009982,-0.001748,-0.073314,0.044079,0.072272,-0.042321,-0.248458,-0.596326,-0.001399,-0.009982,0.501748,0.000692,-0.009272,1.999668,-0.239494,4.272794,25.233496,-0.139381,-1.399591,0.214513,-0.000692,0.009272,0.000332,0.007702,0.016907,0.000278,-0.000035,0.009977,-0.003478,0.000000,-0.000000,0.000002,0.000000,-0.000000,-0.000002
1770922480.185753,0.534053,-0.659714,-0.251511,0.753982,-0.141374,0.408656,0.000017,-0.000020,0.000184,0.000000,0.000002,-0.000249,0.035923,-0.009993,0.001293,-0.096092,0.112569,-0.040364,-0.042526,-0.321285,-0.560721,-0.035923,0.009993,0.498707,-0.000577,0.005851,1.999269,-6.414847,-16.782807,17.790466,0.572208,-1.191344,-0.925141,0.000577,-0.005851,0.000731,-0.004587,-0.010836,0.000295,-0.000026,-0.010069,0.002224,0.000017,-0.000020,0.000183,0.000000,0.000002,-0.000249
1770922510.185815,0.753924,-0.549569,0.029669,0.329867,-0.172797,0.142762,0.000058,-0.000209,0.001747,-0.000000,0.000010,-0.001390,0.054857,0.000565,0.003343,-0.122857,0.121240,-0.039400,0.044132,-0.317727,-0.561939,-0.054857,-0.000565,0.496657,-0.007445,0.006891,1.998634,-6.868939,-3.753144,24.628423,0.127826,-1.544089,-0.224430,0.007445,-0.006891,0.001366,0.006519,-0.019238,0.000307,0.000004,0.000197,0.006700,0.000058,-0.000209,0.001746,-0.000000,0.000010,-0.001389
1770922540.285889,-0.691145,-0.628325,-0.534098,-0.408407,-1.429427,-0.172783,-0.000005,0.000006,0.000027,-0.000000,0.000002,-0.000005,0.025154,0.007606,-0.004998,-0.099488,0.085299,0.050919,0.005439,-0.289007,-0.577729,-0.025154,-0.007606,0.504998,-0.000549,-0.006315,2.000245,8.609037,8.487006,22.601076,-0.286467,-0.942068,0.463394,0.000549,0.006315,-0.000245,0.007063,0.010516,-0.000034,-0.000076,0.007847,-0.009792,-0.000005,0.000006,0.000027,-0.000000,0.000002,-0.000005
1770922570.385792,-0.785398,0.439825,-0.644049,0.047124,-0.298451,-0.565479,0.000000,-0.000002,0.000022,0.000000,-0.000000,-0.000008,-0.004605,0.009385,-0.006644,-0.060800,0.022678,0.074388,-0.048488,-0.253559,-0.593685,0.004605,-0.009385,0.506644,0.004989,-0.012482,2.003195,1.998138,-1.628658,25.182051,0.047485,-1.303766,-0.092116,-0.004989,0.012482,-0.003195,0.003356,0.026627,-0.003346,-0.000124,0.009314,-0.013317,0.000000,-0.000002,0.000022,0.000000,-0.000000,-0.000007
1770922650.685804,-0.188467,0.612616,-0.376345,0.267035,-0.832483,-0.424483,-0.000028,-0.000005,-0.000646,0.000000,-0.000040,0.000368,0.019368,0.009985,0.001084,-0.101233,0.085436,0.066715,-0.038759,0.177557,-0.669918,-0.019368,-0.009985,0.498916,0.003914,0.002765,2.000084,21.370155,-7.174350,12.332761,0.241046,0.039550,-0.400794,-0.003914,-0.002765,-0.000084,-0.009510,-0.001109,-0.000011,0.000022,0.009932,0.002359,-0.000028,-0.000005,-0.000645,0.000000,-0.000039,0.000368
1770922728.685820,0.581231,-0.298278,-0.284262,-0.439823,-0.298578,0.391118,-0.000037,-0.000174,0.001519,-0.000000,0.000127,0.001581,0.056614,-0.009984,-0.002388,-0.120023,0.132527,-0.050716,-0.024196,-0.260418,-0.590565,-0.056614,0.009984,0.502388,-0.004032,0.003202,1.999665,-6.910596,4.275655,24.237660,-0.156700,-1.549602,0.236185,0.004032,-0.003202,0.000335,0.003977,-0.009492,-0.000163,0.000048,-0.009689,-0.005327,-0.000037,-0.000174,0.001517,-0.000000,0.000127,0.001579
1770922828.285784,0.000056,0.454868,0.636489,0.062832,-0.785381,-0.299328,-0.000056,0.000663,-0.008170,0.000000,-0.000017,0.000876,0.042110,0.009990,0.002018,-0.131648,0.120019,0.069682,-0.043928,0.281571,-0.704408,-0.042110,-0.009990,0.497982,0.004925,0.001796,2.000270,23.848599,-4.745809,-7.942668,0.166770,1.242442,-0.253869,-0.004925,-0.001796,-0.000270,-0.010361,0.001553,-0.000101,0.000040,0.009801,0.004449,-0.000055,0.000662,-0.008162,0.000000,-0.000017,0.000875
1770922858.385791,-0.581050,0.108557,0.702248,0.486947,-0.297803,-0.746294,-0.000145,0.001399,-0.011097,0.000000,-0.000648,0.008019,-0.017117,-0.001311,-0.027210,0.054387,-0.045486,0.048801,-0.057193,0.271066,-0.701429,0.017117,0.001311,0.527210,0.016445,-0.013442,1.993176,21.565950,-7.790320,11.464376,0.276786,0.059311,-0.439981,-0.016445,0.013442,0.006824,-0.014891,0.039852,0.006117,0.000071,-0.002240,-0.054336,-0.000145,0.001398,-0.011086,0.000000,-0.000647,0.008011
1770922895.985787,-0.471212,-0.267324,0.504890,0.486947,-0.204088,-0.551927,-0.000027,0.000289,-0.002236,0.000000,-0.000116,0.002149,0.002714,-0.009980,0.003531,-0.050871,0.078307,0.043906,-0.073974,0.213630,-0.680943,-0.002714,0.009980,0.496469,0.005968,-0.000730,1.998784,10.015564,-2.863965,23.318596,0.098216,-0.935650,-0.168210,-0.005968,0.000730,0.001216,-0.009802,0.006959,0.001136,-0.000070,-0.009989,0.007027,-0.000027,0.000289,-0.002233,0.000000,-0.000115,0.002147
1770922993.585787,0.722588,-0.392650,-0.722971,-0.439823,-0.125680,0.015011,-0.000022,-0.000050,0.000405,-0.000000,0.000016,0.000697,0.035457,-0.009984,-0.001704,-0.095657,0.109599,-0.037788,-0.037856,-0.329107,-0.555739,-0.035457,0.009984,0.501704,-0.007121,-0.001398,1.999976,-18.437079,10.052692,14.173080,-0.342879,-1.402965,0.543998,0.007121,0.001398,0.000024,0.013816,-0.004396,0.000007,0.000034,-0.009847,-0.003756,-0.000022,-0.000049,0.000405,-0.000000,0.000016,0.000697
1770923063.585816,0.738286,-0.282737,-0.251256,0.486947,-1.476540,-0.549818,-0.000012,-0.000006,-0.000071,0.000000,-0.000009,0.000039,0.073367,0.009987,0.003762,-0.149998,0.138757,0.024048,0.051651,-0.189934,-0.616558,-0.073367,-0.009987,0.496238,-0.003424,0.005039,1.999150,15.625013,-14.664629,12.352063,0.515041,-0.152076,-0.822293,0.003424,-0.005039,0.000850,0.001231,-0.012140,-0.000053,0.000075,0.009399,0.008228,-0.000012,-0.000006,-0.000071,0.000000,-0.000009,0.000039
1770923101.285774,0.110079,-0.660357,0.712746,0.769690,-0.596317,0.735474,-0.000123,0.000622,-0.005887,0.000000,-0.000586,0.002801,0.040614,0.009993,-0.003907,-0.122254,0.108608,0.055981,0.004062,-0.076192,-0.641604,-0.040614,-0.009993,0.503907,0.004682,-0.005370,1.999545,9.464671,11.043760,20.249252,-0.387572,-0.803585,0.616311,-0.004682,0.005370,0.000455,-0.003006,0.013882,0.001049,-0.000078,0.010292,-0.007393,-0.000123,0.000622,-0.005881,0.000000,-0.000585,0.002798
1770923155.685885,0.518389,0.408415,0.063073,0.424115,-1.429397,0.581298,-0.000026,-0.000008,-0.000242,-0.000000,-0.000028,-0.000103,0.080621,0.009988,0.005490,-0.164190,0.154370,0.053531,0.016203,0.177719,-0.668913,-0.080621,-0.009988,0.494510,-0.000491,0.006641,1.997396,15.817005,19.195915,-8.473573,-0.617300,0.977195,1.003190,0.000491,-0.006641,0.002604,-0.005408,-0.012318,0.001669,0.000109,0.009062,0.011736,-0.000026,-0.000008,-0.000241,-0.000000,-0.000028,-0.000103
1770923185.785807,-0.282728,0.502633,-0.455011,0.251327,-0.581172,0.156876,-0.000015,0.000022,-0.000520,-0.000000,-0.000023,0.000204,0.017161,-0.001451,-0.023788,-0.081832,0.087105,0.044206,-0.053342,0.172101,-0.669363,-0.017161,0.001451,0.523788,0.014817,-0.012526,1.996426,14.524368,2.969535,20.708907,-0.106906,-0.638595,0.175179,-0.014817,0.012526,0.003574,-0.013123,0.036412,0.004177,0.000069,-0.000634,-0.047546,-0.000015,0.000022,-0.000520,-0.000000,-0.000023,0.000204
1770923237.585771,0.502663,-0.612662,0.550179,0.565487,-0.235599,-0.314532,-0.000008,0.000051,-0.000401,0.000000,-0.000021,0.000372,0.062259,-0.009989,0.000125,-0.131004,0.143193,-0.037473,-0.044023,-0.136895,-0.630936,-0.062259,0.009989,0.499875,-0.000678,0.003895,2.000253,4.522849,-0.212431,25.647451,0.028676,-1.212201,-0.041019,0.000678,-0.003895,-0.000253,-0.002538,-0.007447,-0.000743,-0.000002,-0.009975,-0.000372,-0.000008,0.000051,-0.000400,0.000000,-0.000021,0.000372
1770923267.585791,0.628343,0.518395,-0.565290,0.408407,-1.319448,-0.471367,-0.000025,-0.000032,-0.000197,-0.000000,-0.000021,0.000128,0.076686,0.007714,0.005438,-0.156521,0.146803,0.039320,0.037438,-0.050450,-0.642028,-0.076686,-0.007714,0.494562,-0.009054,0.003340,2.005298,22.742105,-10.744767,6.563683,0.342856,0.412229,-0.546758,0.009054,-0.003340,-0.005298,0.012713,-0.014004,-0.006483,0.000084,0.006851,0.011422,-0.000025,-0.000032,-0.000197,-0.000000,-0.000021,0.000128
1770923322.585853,0.659733,-0.392695,-0.345537,-0.172788,-1.178096,0.628344,0.000002,-0.000004,-0.000039,-0.000000,-0.000001,-0.000025,0.073930,-0.009985,-0.003290,-0.136400,0.147883,-0.057706,0.008104,-0.229818,-0.602890,-0.073930,0.009985,0.503290,-0.001091,0.001211,2.001093,7.734881,10.381659,21.535891,-0.366365,-0.947654,0.575597,0.001091,-0.001211,-0.001093,0.000754,-0.003083,-0.001316,0.000066,-0.009462,-0.007292,0.000002,-0.000004,-0.000039,-0.000000,-0.000001,-0.000025
1770923375.285815,-0.219915,0.157095,-0.502481,-0.109956,-0.989600,-0.345598,0.000003,-0.000016,-0.000174,0.000000,-0.000001,0.000023,0.026823,0.009997,-0.001754,-0.108212,0.091290,0.064253,-0.027431,-0.037737,-0.644732,-0.026823,-0.009997,0.501754,0.002960,-0.009616,2.000014,15.135845,-3.596394,20.273789,0.125586,-0.582746,-0.210280,-0.002960,0.009616,-0.000014,0.004056,0.019684,0.000473,-0.000035,0.010078,-0.003235,0.000003,-0.000016,-0.000174,0.000000,-0.000001,0.000023
1770923454.185823,0.502661,-0.455446,-0.629125,0.078540,-0.188502,-0.392357,-0.000007,-0.000085,0.000807,0.000000,0.000007,-0.000342,0.033166,-0.009984,-0.001624,-0.093130,0.108233,-0.033278,-0.043968,-0.318040,-0.562163,-0.033166,0.009984,0.501624,-0.002231,-0.002367,2.000050,-18.836890,6.576141,16.218678,-0.215597,-1.524426,0.354088,0.002231,0.002367,-0.000050,0.006183,0.002002,0.000078,0.000032,-0.009861,-0.003573,-0.000007,-0.000085,0.000806,0.000000,0.000007,-0.000342
1770923549.985894,-0.549778,0.314170,-0.204146,0.047124,-1.445133,-0.439857,-0.000001,-0.000011,-0.000057,-0.000000,0.000000,0.000034,-0.010267,0.009981,-0.000693,-0.046360,-0.028108,0.072629,-0.048331,0.204881,-0.677703,0.010267,-0.009981,0.500693,0.006309,-0.001069,2.000038,22.847045,-10.937608,0.214600,0.364900,0.776024,-0.592861,-0.006309,0.001069,-0.000038,-0.010032,0.007925,-0.000019,-0.000014,0.009956,-0.001487,-0.000001,-0.000011,-0.000057,-0.000000,0.000000,0.000034
1770923580.085746,0.518443,-0.000061,0.111190,0.738274,-1.146480,-0.377607,-0.000080,0.000061,-0.001235,0.000000,-0.000201,0.000615,0.068675,0.002962,0.031557,-0.154382,0.152375,0.054917,-0.048992,0.191301,-0.673638,-0.068675,-0.002962,0.468443,-0.006078,0.024100,1.992912,23.285174,-5.032777,8.586159,0.178197,0.323040,-0.296288,0.006078,-0.024100,0.007088,-0.010883,-0.048822,0.003772,0.000187,-0.001375,0.063105,-0.000080,0.000061,-0.001233,0.000000,-0.000201,0.000615
1770923610.085756,0.298452,0.329877,0.015815,-0.015708,-1.413717,-0.345619,-0.000001,-0.000010,-0.000107,-0.000000,-0.000000,0.000043,0.072051,0.008203,0.006091,-0.159127,0.150639,0.058289,-0.027728,0.225771,-0.683159,-0.072051,-0.008203,0.493909,-0.006077,0.013366,2.001736,23.547356,-7.678730,-5.583350,0.244366,1.124845,-0.383580,0.006077,-0.013366,-0.001736,-0.001983,-0.029070,-0.003820,0.000100,0.007297,0.012728,-0.000001,-0.000010,-0.000107,-0.000000,-0.000000,0.000043
1770923640.185747,-0.172625,0.753568,0.600103,-0.628319,-0.109919,0.426457,-0.000163,0.000414,-0.003200,-0.000000,-0.000036,-0.002342,0.028322,0.006391,-0.017088,-0.109384,0.100189,0.059169,-0.039677,0.255452,-0.694259,-0.028322,-0.006391,0.517088,0.005395,-0.005180,2.002815,25.474129,-4.285686,3.129319,0.142595,0.678465,-0.221029,-0.005395,0.005180,-0.002815,-0.004271,0.014397,-0.002378,-0.000218,0.007349,-0.033946,-0.000162,0.000414,-0.003197,-0.000000,-0.000036,-0.002340
1770923670.185815,0.628323,0.407782,0.777272,0.031416,-1.083853,0.582068,-0.000005,0.000625,-0.007582,0.000000,0.000003,-0.000873,0.097443,-0.006168,0.025542,-0.173601,0.179854,0.031752,-0.056733,0.197525,-0.674252,-0.097443,0.006168,0.474458,-0.004083,0.018795,1.995389,13.802218,12.773964,-17.579478,-0.410291,1.428899,0.671695,0.004083,-0.018795,0.004611,-0.009927,-0.037398,0.000911,-0.000314,-0.011098,0.050190,-0.000005,0.000624,-0.007575,0.000000,0.000003,-0.000872
1770923700.285801,0.424219,0.769543,0.112399,0.251327,-0.753884,-0.519525,-0.000104,0.000148,-0.002443,0.000000,-0.000098,0.001162,0.073015,0.001895,-0.006992,-0.154282,0.152232,0.045001,-0.037377,0.215701,-0.680523,-0.073015,-0.001895,0.506992,-0.001158,0.001542,1.998923,24.850527,-6.856325,-2.225793,0.224685,0.938385,-0.363969,0.001158,-0.001542,0.001077,0.000528,-0.003885,0.000793,-0.000026,0.002907,-0.013795,-0.000104,0.000147,-0.002440,0.000000,-0.000098,0.001161
1770923730.385792,-0.141365,-0.235675,0.283278,0.753982,-0.251295,0.706340,-0.000007,0.000056,-0.000535,0.000000,-0.000032,0.000519,0.029483,-0.007425,-0.019231,-0.096785,0.109759,0.030590,-0.060130,0.187793,-0.674154,-0.029483,0.007425,0.519231,0.010460,-0.010350,1.990682,3.590562,4.619755,24.426562,-0.180604,-1.199546,0.279606,-0.010460,0.010350,0.009318,-0.007952,0.028040,0.010080,0.000285,-0.006282,-0.038624,-0.000007,0.000055,-0.000535,0.000000,-0.000032,0.000518
1770923799.285775,0.408410,-0.706849,0.251191,-0.345575,-0.722574,-0.345605,-0.000003,-0.000010,0.000137,-0.000000,0.000008,0.000030,0.060338,-0.009986,-0.002393,-0.126703,0.138165,-0.043175,-0.034229,-0.200329,-0.613595,-0.060338,0.009986,0.502393,-0.003526,-0.000228,1.999878,9.524739,1.867652,23.692476,-0.058494,-0.968328,0.096408,0.003526,0.000228,0.000122,0.006392,-0.002999,0.000005,0.000048,-0.009669,-0.005373,-0.000003,-0.000010,0.000137,-0.000000,0.000008,0.000030
1770923868.485802,-0.659557,0.674696,0.448254,0.738274,-0.705848,0.341463,-0.000178,0.000747,-0.008431,0.000000,-0.001010,0.004112,-0.026800,0.009991,-0.003126,0.047608,-0.074198,0.078431,-0.053970,0.162683,-0.666479,0.026800,-0.009991,0.503126,0.006792,-0.010838,1.997605,14.136497,20.855818,-3.442717,-0.721729,0.653419,1.161859,-0.006792,0.010838,0.002395,-0.001424,0.025569,0.001722,-0.000062,0.009810,-0.006510,-0.000178,0.000746,-0.008423,0.000000,-0.001009,0.004108
1770923950.785805,0.377000,-0.078523,-0.785514,-0.392699,-0.047133,0.518006,-0.000009,-0.000016,0.000116,-0.000000,0.000010,0.000356,0.039746,-0.009986,-0.001360,-0.102440,0.116580,-0.039216,-0.039480,-0.287420,-0.578162,-0.039746,0.009986,0.501360,-0.005297,0.002999,1.999592,-18.285464,-1.100708,17.849620,0.038396,-1.577339,-0.056488,0.005297,-0.002999,0.000408,0.006396,-0.010352,0.000060,0.000027,-0.009860,-0.003111,-0.000009,-0.000016,0.000116,-0.000000,0.000010,0.000356
1770924010.185785,-0.596891,-0.361360,0.503326,-0.455531,-0.109962,-0.250960,-0.000011,0.000077,-0.000671,-0.000000,0.000006,-0.000368,-0.000373,0.009982,-0.001367,-0.070445,0.040942,0.072358,-0.044152,-0.144932,-0.629491,0.000373,-0.009982,0.501367,0.001766,-0.006109,2.000421,5.396780,-3.524149,24.440784,0.106056,-1.161350,-0.168937,-0.001766,0.006109,-0.000421,0.002768,0.012400,-0.000453,-0.000027,0.009971,-0.002734,-0.000011,0.000077,-0.000671,-0.000000,0.000006,-0.000368
1770924047.985793,-0.172797,-0.251226,-0.456519,0.141372,-0.235622,0.110402,0.000010,-0.000101,0.000988,0.000000,0.000003,-0.000446,0.028719,-0.009991,0.003720,-0.092590,0.109261,-0.009673,-0.057195,-0.232006,-0.602864,-0.028719,0.009991,0.496280,0.001133,0.007172,1.999584,-11.457218,-3.216732,22.508657,0.100026,-1.618715,-0.163284,-0.001133,-0.007172,0.000416,-0.008818,-0.011527,-0.000004,-0.000074,-0.010190,0.007143,0.000010,-0.000101,0.000987,0.000000,0.000003,-0.000446
1770924135.685816,0.062901,0.172698,0.190246,0.345575,-0.926651,-0.534923,-0.000069,0.000089,-0.001750,0.000000,-0.000119,0.000852,0.041352,0.009981,0.002100,-0.129758,0.117779,0.066872,-0.038818,0.250233,-0.692528,-0.041352,-0.009981,0.497900,0.002926,0.004055,1.999954,22.969513,-8.591314,7.428396,0.299371,0.385289,-0.477568,-0.002926,-0.004055,0.000046,-0.009006,-0.004327,-0.000043,0.000042,0.009789,0.004605,-0.000069,0.000089,-0.001748,0.000000,-0.000119,0.000851
1770924166.285761,0.031409,-0.000015,0.188610,0.502655,-0.015708,-0.518469,0.000007,0.000015,-0.000114,0.000000,0.000000,0.000106,0.042497,-0.009988,-0.000361,-0.115708,0.130227,0.026963,-0.065558,0.197063,-0.675746,-0.042497,0.009988,0.500361,0.007158,0.005590,1.996699,4.758603,0.990479,25.111746,-0.032102,-1.189049,0.053081,-0.007158,-0.005590,0.003301,-0.017939,-0.003069,0.002991,0.000007,-0.009938,-0.001144,0.000007,0.000015,-0.000114,0.000000,0.000000,0.000106
1770924196.385790,0.062816,0.361277,-0.549398,-0.691150,-0.769606,0.220247,0.000016,0.000006,-0.000381,-0.000000,-0.000084,-0.000335,0.056339,-0.009550,0.003282,-0.130055,0.141978,0.008855,-0.057637,0.137090,-0.659690,-0.056339,0.009550,0.496718,0.000432,0.006650,2.001147,14.328831,7.405253,19.683530,-0.252170,-0.604760,0.401435,-0.000432,-0.006650,-0.001147,-0.007079,-0.011185,-0.001846,-0.000063,-0.009894,0.006010,0.000016,0.000006,-0.000380,-0.000000,-0.000084,-0.000335
1770924226.485755,0.628493,0.203567,0.651464,0.345575,-0.989325,-0.205802,-0.000175,0.000637,-0.007438,0.000000,-0.000277,0.001598,0.096615,0.007953,0.016110,-0.177585,0.169465,0.049342,0.019573,0.172531,-0.666734,-0.096615,-0.007953,0.483890,-0.012045,0.012729,1.999843,24.392479,3.489429,-7.489772,-0.115921,1.217944,0.187157,0.012045,-0.012729,0.000157,0.009472,-0.033560,-0.003171,0.000256,0.004803,0.032804,-0.000174,0.000636,-0.007430,0.000000,-0.000276,0.001597
1770924256.485775,0.141378,-0.345613,0.330186,0.471239,-0.204196,0.093985,-0.000006,0.000038,-0.000319,0.000000,-0.000007,0.000263,0.048172,-0.008997,-0.017883,-0.117630,0.130508,-0.017984,-0.053593,0.120461,-0.658327,-0.048172,0.008997,0.517883,0.007812,-0.004742,1.991059,4.189619,1.448238,24.483961,-0.047395,-1.228815,0.080018,-0.007812,0.004742,0.008941,-0.008951,0.015514,0.009610,0.000321,-0.007257,-0.036120,-0.000006,0.000038,-0.000319,0.000000,-0.000007,0.000263
1770924286.485786,0.628349,-0.141646,0.317422,0.031416,-0.549778,-0.613141,-0.000030,0.000274,-0.003263,-0.000000,-0.000000,0.000531,0.089228,-0.003077,0.011073,-0.162369,0.165401,-0.016543,-0.026839,0.077229,-0.648971,-0.089228,0.003077,0.488927,-0.005245,0.008433,2.001634,15.870558,-8.778219,17.967301,0.300312,-0.450325,-0.475804,0.005245,-0.008433,-0.001634,0.001343,-0.019574,-0.003386,-0.000068,-0.005033,0.021762,-0.000030,0.000274,-0.003260,-0.000000,-0.000000,0.000530
1770924316.585746,0.298461,-0.518383,0.173045,0.518363,-0.769661,-0.597060,-0.000009,0.000020,-0.000257,0.000000,-0.000030,0.000157,0.044742,-0.005796,-0.014218,-0.115029,0.123182,0.014076,-0.046265,-0.057551,-0.643710,-0.044742,0.005796,0.514218,0.005508,-0.008598,1.997764,7.344154,-9.149469,23.050398,0.300019,-0.983526,-0.484239,-0.005508,0.008598,0.002236,-0.001145,0.020250,0.003136,0.000164,-0.004514,-0.028637,-0.000009,0.000020,-0.000257,0.000000,-0.000030,0.000157
1770924388.785810,-0.785405,-0.691080,-0.189694,0.267035,-0.565522,0.612871,0.000007,-0.000070,0.001198,-0.000000,0.000035,-0.000261,0.016339,-0.009991,-0.001419,-0.072837,0.091247,0.026844,-0.061163,-0.293023,-0.575717,-0.016339,0.009991,0.501419,-0.000652,-0.007394,2.000335,-3.401058,-8.518424,23.340215,0.296964,-1.405555,-0.476839,0.000652,0.007394,-0.000335,0.008246,0.012331,-0.000051,0.000028,-0.009933,-0.002998,0.000007,-0.000070,0.001197,-0.000000,0.000035,-0.000260
1770924418.885788,-0.282758,0.062890,-0.723260,0.392699,-0.329920,-0.140655,0.000014,-0.000059,0.000694,0.000000,0.000053,-0.000717,0.021649,0.004399,0.001288,-0.095275,0.085605,0.052043,-0.030970,-0.273164,-0.584748,-0.021649,-0.004399,0.498712,-0.005977,-0.004674,2.003221,-7.945144,-3.966922,23.659466,0.148245,-1.577947,-0.246409,0.005977,0.004674,-0.003221,0.014940,0.002560,-0.003228,0.000011,0.004338,0.002667,0.000014,-0.000059,0.000693,0.000000,0.000053,-0.000716
1770924489.485807,-0.596957,-0.188750,0.301138,-0.219911,-0.471191,0.095067,0.000054,0.000254,-0.002687,-0.000000,-0.000047,-0.000819,-0.001625,0.009986,-0.000447,-0.067956,0.038841,0.072070,-0.045659,0.070608,-0.649856,0.001625,-0.009986,0.500447,0.003650,-0.002315,2.000043,14.532359,0.413438,21.373821,-0.027783,-0.673517,0.033459,-0.003650,0.002315,-0.000043,-0.004179,0.007557,-0.000013,-0.000009,0.009975,-0.000910,0.000054,0.000254,-0.002684,-0.000000,-0.000047,-0.000818
1770924522.385809,-0.094307,0.156949,-0.013970,-0.565487,-0.549584,-0.564445,0.000059,0.000130,-0.001738,-0.000000,-0.000195,-0.001041,0.040818,0.009989,0.014079,-0.128471,0.115641,0.064467,-0.032006,0.156782,-0.664206,-0.040818,-0.009989,0.485921,-0.003664,0.011314,2.000530,13.495531,-9.616463,19.334105,0.331092,-0.619896,-0.530490,0.003664,-0.011314,-0.000530,-0.004088,-0.023368,-0.001444,0.000281,0.008823,0.028513,0.000059,0.000130,-0.001737,-0.000000,-0.000195,-0.001040
1770924575.885797,-0.377140,0.564583,0.528152,-0.172788,-0.486891,-0.234032,0.000149,0.000904,-0.009790,0.000000,-0.000056,-0.001588,0.008031,0.009986,-0.001847,-0.085282,0.064775,0.070119,-0.042895,0.265082,-0.698116,-0.008031,-0.009986,0.501847,0.004376,-0.001194,1.999197,23.593667,-9.311300,-0.154108,0.320761,0.817577,-0.517674,-0.004376,0.001194,0.000803,-0.006509,0.006289,0.000918,-0.000037,0.010006,-0.003611,0.000148,0.000903,-0.009780,0.000000,-0.000056,-0.001586
1770924612.085802,0.031414,-0.455715,0.676864,0.628319,-0.172709,-0.645730,0.000001,0.000184,-0.001421,0.000000,-0.000078,0.001703,0.040578,-0.009995,0.008308,-0.115144,0.130609,0.030456,-0.068762,0.200136,-0.677997,-0.040578,0.009995,0.491692,0.002949,0.011058,1.992138,8.887100,-1.290042,23.857369,0.051472,-0.994044,-0.075979,-0.002949,-0.011058,0.007862,-0.015703,-0.016993,0.007014,-0.000166,-0.010650,0.016179,0.000001,0.000184,-0.001420,0.000000,-0.000078,0.001702
1770924649.985806,-0.298534,0.361129,0.222397,-0.235619,-0.816722,0.708048,0.000083,0.000154,-0.002485,-0.000000,-0.000093,-0.001190,0.022400,0.009986,-0.003368,-0.107511,0.090169,0.069890,-0.038169,0.269456,-0.698662,-0.022400,-0.009986,0.503368,-0.001375,-0.002509,2.003789,20.649171,14.330359,4.458945,-0.476792,0.469798,0.775489,0.001375,0.002509,-0.003789,0.004787,0.003151,-0.003763,-0.000067,0.010124,-0.006503,0.000083,0.000154,-0.002483,-0.000000,-0.000092,-0.001189
1770924737.585850,0.424046,-0.581147,-0.268251,0.753982,-0.801377,0.079360,0.000069,-0.000047,0.001216,0.000000,0.000271,-0.000820,0.032827,-0.009982,-0.001617,-0.097452,0.111591,-0.016474,-0.051808,-0.227929,-0.604365,-0.032827,0.009982,0.501617,-0.004551,-0.001625,1.999714,3.297893,-12.538322,22.223638,0.407621,-1.102610,-0.662740,0.004551,0.001625,0.000286,0.009530,-0.001538,0.000330,0.000032,-0.009861,-0.003556,0.000069,-0.000047,0.001215,0.000000,0.000270,-0.000819
1770924826.085804,0.078606,0.675115,0.287046,0.094248,-0.628294,-0.267826,-0.000066,0.000327,-0.004303,-0.000000,-0.000025,0.000791,0.048353,0.009987,0.002372,-0.137094,0.125508,0.066251,-0.036703,0.245439,-0.690709,-0.048353,-0.009987,0.497628,0.001970,0.002796,2.000150,25.039951,-3.821826,-0.702316,0.119346,0.905210,-0.200098,-0.001970,-0.002796,-0.000150,-0.006127,-0.003022,-0.000235,0.000047,0.009736,0.005216,-0.000066,0.000327,-0.004299,-0.000000,-0.000025,0.000790
1770924856.185779,-0.424005,0.564836,0.336565,0.125664,-0.361234,-0.158616,-0.000110,0.000651,-0.006697,0.000000,-0.000049,0.001536,0.002107,0.004593,-0.019357,-0.063317,0.052766,0.059475,-0.048092,0.262979,-0.697838,-0.002107,-0.004593,0.519357,0.011077,-0.010480,1.998059,24.822143,-1.376186,7.726614,0.036900,0.402309,-0.069960,-0.011077,0.010480,0.001941,-0.008811,0.029158,0.002041,-0.000177,0.004670,-0.038664,-0.000110,0.000650,-0.006691,0.000000,-0.000049,0.001535
1770924886.185818,-0.078461,0.486912,0.173923,0.628319,-1.209348,-0.000277,-0.000079,0.000035,-0.001136,0.000000,-0.000166,0.000277,0.019489,0.005186,0.005974,-0.100806,0.092757,0.066980,-0.054119,0.282560,-0.704941,-0.019489,-0.005186,0.494026,0.003198,-0.000835,2.000975,23.294225,9.761023,-4.447900,-0.325735,1.037886,0.527204,-0.003198,0.000835,-0.000975,-0.004840,0.004516,-0.000861,0.000062,0.004948,0.012034,-0.000079,0.000035,-0.001135,0.000000,-0.000165,0.000277
1770924916.285761,-0.785341,0.062623,0.395883,0.219911,-0.910975,-0.409289,-0.000057,0.000209,-0.003184,-0.000000,-0.000087,0.000882,-0.036161,-0.006717,-0.023878,0.094817,-0.080445,0.045179,-0.067531,0.246223,-0.691942,0.036161,0.006717,0.523878,0.014542,-0.014048,1.993111,23.293147,-8.799363,4.344322,0.286751,0.543468,-0.447730,-0.014542,0.014048,0.006889,-0.011164,0.039060,0.005399,0.000320,-0.008430,-0.047433,-0.000057,0.000209,-0.003181,-0.000000,-0.000087,0.000882
1770924946.385752,0.141340,-0.487439,0.617927,-0.094248,-0.486939,-0.188074,0.000032,0.000492,-0.005316,-0.000000,-0.000008,-0.000421,0.054005,-0.007087,0.035360,-0.135832,0.144644,0.047376,-0.068675,0.197790,-0.676136,-0.054005,0.007087,0.464640,-0.006537,0.018233,1.992450,14.896064,-1.399238,20.893097,0.065018,-0.603941,-0.096827,0.006537,-0.018233,0.007550,-0.004701,-0.038769,0.005425,-0.000500,-0.010883,0.070162,0.000032,0.000492,-0.005311,-0.000000,-0.000008,-0.000421
1770924988.085795,0.015569,0.408097,0.522625,-0.486947,-1.052119,-0.109125,0.000139,0.000310,-0.004262,-0.000000,-0.000314,-0.000831,0.057224,0.010000,0.004106,-0.148458,0.135866,0.068374,-0.033094,0.264757,-0.696264,-0.057224,-0.010000,0.495894,-0.007310,0.006641,2.002138,21.649647,-10.780570,-9.239655,0.361681,1.226926,-0.591583,0.007310,-0.006641,-0.002138,0.006511,-0.018463,-0.003263,0.000082,0.009504,0.008762,0.000139,0.000309,-0.004258,-0.000000,-0.000314,-0.000830
1770925018.185819,-0.722398,0.093318,0.495709,0.392699,-0.533537,-0.616895,-0.000168,0.000930,-0.008762,0.000000,-0.000534,0.004285,-0.029982,-0.003616,-0.039921,0.084755,-0.075093,0.043780,-0.058834,0.234537,-0.688583,0.029982,0.003616,0.539921,0.015910,-0.017998,1.990160,21.238031,-8.864707,11.204377,0.302546,0.103387,-0.483142,-0.015910,0.017998,0.009840,-0.008817,0.047459,0.008379,0.000288,-0.006002,-0.079618,-0.000168,0.000929,-0.008753,0.000000,-0.000533,0.004281
1770925048.285808,0.266904,-0.597202,0.663346,-0.329867,-1.539307,0.283103,0.000132,0.000299,-0.003611,-0.000000,-0.000073,-0.000360,0.078501,-0.003100,0.041227,-0.161086,0.164658,0.050129,-0.060637,0.193658,-0.674122,-0.078501,0.003100,0.458773,-0.008628,0.021161,1.993290,24.009653,8.280640,-2.049110,-0.276697,0.935033,0.437930,0.008628,-0.021161,0.006710,-0.003289,-0.045927,0.003101,-0.000255,-0.009547,0.081875,0.000131,0.000299,-0.003608,-0.000000,-0.000073,-0.000360
1770925078.285810,-0.298510,-0.754014,0.377536,-0.675442,-1.287977,-0.534099,0.000059,0.000031,-0.000545,-0.000000,-0.000076,0.000028,0.040524,-0.009456,-0.011549,-0.111033,0.124458,0.013705,-0.057874,0.141408,-0.661520,-0.040524,0.009456,0.511549,0.002264,0.001097,1.998222,20.914065,-4.616126,13.702585,0.161725,0.006202,-0.250513,-0.002264,-0.001097,0.001778,-0.005033,0.000233,0.001740,0.000218,-0.008504,-0.023437,0.000059,0.000031,-0.000544,-0.000000,-0.000076,0.000028
1770925108.285812,0.518619,0.422838,0.593331,0.345575,-0.423811,0.105543,-0.000256,0.001277,-0.012136,0.000000,-0.000304,0.004413,0.089491,0.007841,0.018397,-0.172622,0.164171,0.052138,0.011296,0.176849,-0.667141,-0.089491,-0.007841,0.481603,-0.012627,0.012906,2.007040,22.676115,11.474097,2.194596,-0.385948,0.636429,0.627908,0.012627,-0.012906,-0.007040,0.010360,-0.033765,-0.010172,0.000288,0.004516,0.037309,-0.000256,0.001276,-0.012124,0.000000,-0.000304,0.004409
1770925189.085880,0.188493,-0.392694,-0.267067,0.738274,-0.062835,-0.502536,0.000002,-0.000005,0.000032,0.000000,0.000003,-0.000119,0.037064,-0.009989,-0.002325,-0.100181,0.114292,-0.028046,-0.047324,-0.257668,-0.592029,-0.037064,0.009989,0.502325,-0.002068,-0.004776,2.000318,-14.284090,-3.249580,20.601784,0.102684,-1.619436,-0.179909,0.002068,0.004776,-0.000318,0.008218,0.006378,0.000001,0.000046,-0.009800,-0.005013,0.000002,-0.000005,0.000032,0.000000,0.000003,-0.000119
1770925219.185818,-0.141381,0.047150,-0.377290,0.376991,-0.314164,0.675650,0.000010,-0.000026,0.000299,-0.000000,0.000005,-0.000208,0.030079,0.009956,-0.001446,-0.110131,0.092851,0.057468,0.014321,-0.206699,-0.611650,-0.030079,-0.009956,0.501446,-0.005812,-0.007672,2.001611,1.558993,-1.915301,25.479813,0.047265,-1.331398,-0.094493,0.005812,0.007672,-0.001611,0.017534,0.007910,-0.001547,-0.000029,0.010028,-0.002589,0.000010,-0.000026,0.000299,-0.000000,0.000005,-0.000208
1770925249.285852,0.549777,-0.031410,-0.706818,-0.314159,-1.115262,0.141386,0.000002,-0.000006,-0.000041,-0.000000,-0.000003,-0.000014,0.070902,-0.004269,0.009706,-0.138712,0.143744,-0.045767,0.025954,-0.238383,-0.599759,-0.070902,0.004269,0.490294,-0.005228,0.010751,1.997074,10.075009,8.101504,22.112002,-0.262544,-0.871655,0.435198,0.005228,-0.010751,0.002926,-0.000913,-0.024015,0.001221,-0.000083,-0.005628,0.019042,0.000002,-0.000006,-0.000041,-0.000000,-0.000003,-0.000014
1770925279.385790,0.753932,0.157060,0.189308,-0.408407,-1.272280,0.471549,0.000050,0.000019,-0.000812,-0.000000,-0.000065,-0.000310,0.115067,0.007897,0.013131,-0.178878,0.170869,-0.052977,0.074887,-0.215961,-0.606087,-0.115067,-0.007897,0.486869,-0.014091,0.017291,1.998516,23.016694,8.569485,-3.606511,-0.299055,0.988283,0.479536,0.014091,-0.017291,0.001484,0.008731,-0.043579,-0.003614,0.000207,0.004825,0.026967,0.000050,0.000019,-0.000812,-0.000000,-0.000065,-0.000309
1770925336.385811,-0.141400,-0.754020,-0.628568,0.471239,-1.162421,0.518335,0.000029,0.000037,0.000250,0.000000,0.000032,0.000027,0.017618,-0.010000,-0.005208,-0.070891,0.091714,0.018278,-0.060987,-0.312764,-0.565268,-0.017618,0.010000,0.505208,0.006134,-0.010657,2.002958,1.715852,-11.341411,22.715940,0.411155,-1.185882,-0.652311,-0.006134,0.010657,-0.002958,-0.000389,0.024612,-0.002526,0.000104,-0.009805,-0.010580,0.000029,0.000037,0.000249,0.000000,0.000032,0.000027
1770925366.485785,0.612615,-0.157088,-0.659841,-0.424115,-0.973909,0.109905,-0.000004,0.000008,0.000107,-0.000000,0.000015,0.000051,0.067378,0.001705,0.009007,-0.135078,0.131997,-0.045994,0.054212,-0.307165,-0.567069,-0.067378,-0.001705,0.490993,-0.009456,0.007797,2.000015,5.751648,8.904006,23.306021,-0.309093,-1.090248,0.491876,0.009456,-0.007797,-0.000015,0.009315,-0.022593,-0.001555,0.000031,0.000488,0.018071,-0.000004,0.000008,0.000107,-0.000000,0.000015,0.000051
1770925396.585780,0.675439,-0.298446,-0.628296,-0.471239,-1.492254,0.628336,0.000004,-0.000005,-0.000022,-0.000000,-0.000002,-0.000018,0.079349,-0.000002,0.003018,-0.141564,0.141206,-0.061629,0.062449,-0.310488,-0.565547,-0.079349,0.000002,0.496982,-0.006280,0.008017,1.997745,6.404504,16.719371,17.856357,-0.563217,-0.761301,0.929916,0.006280,-0.008017,0.002255,0.003392,-0.020177,0.000655,-0.000000,-0.000480,0.006012,0.000004,-0.000005,-0.000022,-0.000000,-0.000002,-0.000018
1770925489.785785,-0.581176,0.644048,-0.188286,0.314159,-1.240908,0.267063,-0.000019,-0.000021,-0.000209,0.000000,-0.000021,-0.000027,-0.016906,0.009990,-0.001240,-0.018313,-0.050782,0.074644,-0.051554,0.177450,-0.669892,0.016906,-0.009990,0.501240,0.008519,-0.003660,2.000081,23.369744,9.722986,-3.219246,-0.333493,0.961733,0.527634,-0.008519,0.003660,-0.000081,-0.011414,0.014590,-0.000214,-0.000025,0.009937,-0.002645,-0.000019,-0.000021,-0.000209,0.000000,-0.000021,-0.000027
1770925524.485806,-0.329868,0.329051,0.478617,-0.109956,-0.078521,0.772775,0.000001,0.000817,-0.007378,-0.000000,-0.000019,-0.003085,0.015646,0.009998,0.009989,-0.099558,0.082762,0.071588,-0.045420,0.236410,-0.688210,-0.015646,-0.009998,0.490011,0.000297,0.007641,1.998192,15.250319,12.603565,15.931913,-0.428004,-0.351903,0.694374,-0.000297,-0.007641,0.001808,-0.007691,-0.013219,0.001677,0.000199,0.009675,0.020111,0.000001,0.000816,-0.007371,-0.000000,-0.000019,-0.003082
1770925554.585776,-0.408259,0.596487,0.067110,0.565487,-0.486515,-0.286141,-0.000148,0.000416,-0.004278,0.000000,-0.000432,0.003398,-0.000360,0.002028,-0.005824,-0.058743,0.055507,0.058942,-0.055721,0.242791,-0.690013,0.000360,-0.002028,0.505824,0.005593,0.001096,2.001271,22.789632,2.807515,11.268612,-0.069252,0.137959,0.115207,-0.005593,-0.001096,-0.001271,-0.010840,0.003499,-0.001249,-0.000024,0.002022,-0.011637,-0.000148,0.000415,-0.004274,0.000000,-0.000432,0.003394
1770925603.985797,0.298410,-0.628374,0.362237,-0.314159,-1.052385,0.204405,0.000041,0.000055,-0.000954,-0.000000,-0.000049,-0.000201,0.069377,-0.009997,0.003987,-0.141939,0.153847,-0.033343,-0.049097,0.077653,-0.650775,-0.069377,0.009997,0.496013,-0.005318,0.014848,1.998062,17.886555,7.398308,17.521243,-0.251135,-0.321191,0.396945,0.005318,-0.014848,0.001938,-0.004793,-0.031203,-0.000276,-0.000080,-0.010516,0.007253,0.000041,0.000055,-0.000953,-0.000000,-0.000049,-0.000201
1770925634.085776,0.581219,0.454176,0.703758,-0.015708,-0.015708,0.015787,-0.000025,0.001355,-0.012608,0.000000,-0.000000,-0.000079,0.093634,0.005354,0.008731,-0.171696,0.165498,0.032606,0.032041,0.123088,-0.654934,-0.093634,-0.005354,0.491269,-0.012633,0.012407,2.005048,23.992634,1.400578,7.842082,-0.057936,0.371691,0.086449,0.012633,-0.012407,-0.005048,0.010535,-0.033140,-0.008234,0.000093,0.003694,0.017867,-0.000025,0.001354,-0.012595,0.000000,-0.000000,-0.000079
1770925664.085820,-0.172803,0.219857,-0.125137,-0.314159,-0.219918,-0.549458,0.000015,0.000054,-0.000527,-0.000000,0.000007,-0.000321,0.027930,0.001048,-0.022865,-0.100693,0.099134,0.045395,-0.041823,0.141070,-0.662176,-0.027930,-0.001048,0.522865,0.006974,-0.012058,1.993766,6.623868,-4.497319,24.196928,0.138496,-1.094448,-0.228561,-0.006974,0.012058,0.006234,-0.000036,0.027646,0.007002,-0.000048,0.002323,-0.045636,0.000015,0.000054,-0.000526,-0.000000,0.000007,-0.000320
1770925694.185833,-0.015561,-0.549987,0.568174,0.486947,-1.397861,-0.251722,-0.000147,0.000208,-0.002687,0.000000,-0.000148,0.000395,0.026426,0.008190,-0.002866,-0.108882,0.095416,0.065472,-0.039189,0.200113,-0.676286,-0.026426,-0.008190,0.502866,0.002218,-0.008154,2.000349,24.474058,-5.397536,4.212420,0.188535,0.607374,-0.295262,-0.002218,0.008154,-0.000349,0.003965,0.016415,0.000053,-0.000047,0.008330,-0.005507,-0.000147,0.000208,-0.002685,0.000000,-0.000148,0.000394
1770925724.285814,-0.266994,0.581121,-0.438937,0.581195,-0.424006,-0.110899,-0.000041,0.000073,-0.000886,0.000000,-0.000109,0.000943,0.015799,-0.004453,-0.004410,-0.081484,0.091366,0.047078,-0.062647,0.172092,-0.668164,-0.015799,0.004453,0.504410,0.007229,-0.005098,2.002980,13.255981,0.815927,21.598816,-0.020931,-0.748927,0.048792,-0.007229,0.005098,-0.002980,-0.007709,0.015943,-0.002760,0.000039,-0.004309,-0.008880,-0.000041,0.000073,-0.000885,0.000000,-0.000109,0.000942
