SIAEthen/sensorless_force_control/log/controller_data_20260210163728.csv
t,current_joint_0,current_joint_1,current_joint_2,current_joint_3,current_joint_4,current_joint_5,nominal_err_0,nominal_err_1,nominal_err_2,nominal_err_3,nominal_err_4,nominal_err_5,rpy_err_0,rpy_err_1,rpy_err_2,setpoints_0,setpoints_1,setpoints_2,setpoints_3,setpoints_4,setpoints_5,vehicle_rpy_0,vehicle_rpy_1,vehicle_rpy_2,vehicle_xyz_0,vehicle_xyz_1,vehicle_xyz_2,xyz_err_0,xyz_err_1,xyz_err_2,zeta_0,zeta_1,zeta_2,zeta_3,zeta_4,zeta_5,zeta_6,zeta_7,zeta_8,zeta_9,zeta_10,zeta_11
1770737973.792170,0.518477,0.565189,0.426510,-0.549779,-0.109971,-0.234853,-0.000114,0.000298,-0.002394,0.000000,0.000015,-0.000767,0.086344,0.009984,0.004031,-0.164504,0.156146,0.037785,0.035386,0.085472,-0.650312,-0.086344,-0.009984,0.495969,0.006630,0.006880,1.999051,-0.006630,-0.006880,0.000949,-0.018182,-0.005862,0.000626,0.000080,0.009242,0.008884,-0.000114,0.000297,-0.002392,0.000000,0.000015,-0.000766
1770738003.892194,0.565379,0.659544,-0.012928,-0.455531,-0.596646,-0.359903,0.000108,0.000190,-0.002780,0.000000,-0.000256,-0.001380,0.091931,0.001073,0.003024,-0.164778,0.164850,-0.010483,0.009272,0.080369,-0.649768,-0.091931,-0.001073,0.496976,0.005428,0.006829,1.999147,-0.005428,-0.006829,0.000853,-0.016037,-0.006875,0.000239,0.000006,0.000513,0.006116,0.000108,0.000190,-0.002777,0.000000,-0.000256,-0.001379
1770738033.892206,0.628269,0.141307,0.205786,-0.376991,-0.942348,-0.376802,0.000049,0.000065,-0.001582,0.000000,-0.000130,-0.000189,0.103975,-0.000032,0.004127,-0.173520,0.174332,-0.028569,0.023096,0.066294,-0.648054,-0.103975,0.000032,0.495873,0.001239,0.007384,1.996264,-0.001239,-0.007384,0.003736,-0.009197,-0.012123,0.002487,-0.000000,-0.000887,0.008198,0.000049,0.000065,-0.001581,0.000000,-0.000130,-0.000188
1770738098.192201,0.345567,-0.219872,-0.613334,0.282743,-0.518405,-0.329403,0.000008,-0.000040,0.000723,0.000000,0.000042,-0.000464,0.039523,-0.009995,-0.003615,-0.102608,0.117353,-0.027973,-0.049604,-0.235944,-0.600993,-0.039523,0.009995,0.503615,0.003991,-0.008506,2.001437,-0.003991,0.008506,-0.001437,0.001231,0.018775,-0.000682,0.000072,-0.009692,-0.007612,0.000008,-0.000040,0.000723,0.000000,0.000042,-0.000463
1770738128.192219,0.502628,-0.314270,0.189704,-0.424115,-0.518284,-0.235057,0.000027,0.000111,-0.001208,-0.000000,-0.000078,-0.000563,0.075497,0.006120,0.009157,-0.150003,0.141972,-0.008251,0.049123,-0.209022,-0.610374,-0.075497,-0.006120,0.490843,-0.009503,0.003850,1.997865,0.009503,-0.003850,0.002135,0.013133,-0.015844,0.000860,0.000112,0.004716,0.018705,0.000027,0.000111,-0.001207,-0.000000,-0.000078,-0.000562
1770738196.092241,-0.329859,-0.753902,-0.441079,0.125664,-0.486952,0.267226,-0.000008,-0.000080,0.001256,0.000000,0.000005,-0.000191,0.028409,-0.009990,-0.002146,-0.085744,0.102209,-0.028676,-0.047664,-0.341724,-0.548080,-0.028409,0.009990,0.502146,0.000182,-0.006115,2.000480,-0.000182,0.006115,-0.000480,0.005566,0.010893,-0.000114,0.000043,-0.009854,-0.004569,-0.000008,-0.000080,0.001255,0.000000,0.000005,-0.000191
1770738247.792207,0.675440,0.094269,-0.612471,-0.125664,-1.115263,0.361338,0.000003,-0.000021,-0.000140,-0.000000,-0.000002,-0.000055,0.081275,0.009982,0.005438,-0.151724,0.139832,-0.037195,0.069648,-0.273149,-0.584265,-0.081275,-0.009982,0.494562,-0.007697,0.007167,1.997743,0.007697,-0.007167,0.002257,0.006761,-0.020015,0.000564,0.000108,0.009057,0.011638,0.000003,-0.000021,-0.000140,-0.000000,-0.000002,-0.000055
1770738292.992168,-0.455521,-0.486991,0.534465,-0.204204,-0.031417,-0.408402,-0.000010,0.000044,-0.000395,-0.000000,0.000001,-0.000005,0.010645,0.009991,-0.005535,-0.084572,0.062823,0.067527,-0.036798,-0.188151,-0.618346,-0.010645,-0.009991,0.505535,0.008133,-0.011832,2.000259,-0.008133,0.011832,-0.000259,-0.002772,0.028553,0.000073,-0.000110,0.010099,-0.010951,-0.000010,0.000044,-0.000394,-0.000000,0.000001,-0.000005
1770738322.992270,-0.549766,0.314188,-0.581420,-0.376991,-0.141387,0.470834,-0.000013,-0.000029,0.000225,-0.000000,0.000015,0.000405,0.012937,-0.000308,-0.000025,-0.078772,0.081634,0.051395,-0.055681,-0.193340,-0.615909,-0.012937,0.000308,0.500025,0.007526,-0.003322,2.003151,-0.007526,0.003322,-0.003151,-0.010013,0.013074,-0.002982,0.000000,-0.000307,-0.000054,-0.000013,-0.000028,0.000225,-0.000000,0.000015,0.000405
1770738389.092228,0.094166,0.361083,0.190148,0.314159,-0.062848,0.487041,0.000082,0.000200,-0.001653,0.000000,0.000016,-0.000094,0.052435,0.009992,0.003230,-0.138353,0.126773,0.058319,-0.018205,0.160245,-0.665221,-0.052435,-0.009992,0.496770,0.000227,0.005759,1.999396,-0.000227,-0.005759,0.000604,-0.005877,-0.009920,0.000143,0.000064,0.009630,0.006968,0.000082,0.000200,-0.001651,0.000000,0.000016,-0.000094
1770738419.192236,-0.706943,-0.392916,0.537209,-0.361283,-1.005192,-0.706905,0.000085,0.000217,-0.003138,-0.000000,-0.000118,0.000047,-0.012181,0.005245,-0.024575,-0.003710,-0.037632,0.062293,-0.049504,0.187677,-0.673453,0.012181,-0.005245,0.524575,0.013316,-0.014222,1.994749,-0.013316,0.014222,0.005251,-0.008769,0.037981,0.004829,-0.000257,0.004641,-0.049160,0.000085,0.000216,-0.003135,-0.000000,-0.000118,0.000047
1770738472.892217,-0.062832,-0.329869,-0.581206,0.109956,-1.193805,0.706852,0.000000,0.000002,0.000011,0.000000,0.000000,0.000007,0.033465,-0.009981,0.001087,-0.101057,0.116041,0.014016,-0.058732,-0.130948,-0.632465,-0.033465,0.009981,0.498913,-0.000002,0.003771,2.000033,0.000002,-0.003771,-0.000033,-0.003601,-0.006613,-0.000290,-0.000022,-0.010038,0.001838,0.000000,0.000002,0.000011,0.000000,0.000000,0.000007
1770738502.992276,0.502657,-0.078534,-0.565434,0.267035,-1.036723,0.219907,-0.000003,-0.000006,-0.000053,0.000000,-0.000003,0.000005,0.059466,-0.003536,0.006985,-0.132951,0.136878,-0.016494,-0.028060,-0.160079,-0.625149,-0.059466,0.003536,0.493015,-0.006865,0.008558,1.999844,0.006865,-0.008558,0.000156,0.003989,-0.021527,-0.001111,-0.000049,-0.004355,0.013722,-0.000003,-0.000006,-0.000053,0.000000,-0.000003,0.000005
1770738575.192196,-0.110089,-0.001048,0.589676,-0.659734,-0.376330,0.446539,0.000134,0.001048,-0.008481,-0.000000,-0.000661,-0.006716,0.041135,0.009981,0.001734,-0.128985,0.116451,0.066600,-0.036873,0.236609,-0.687749,-0.041135,-0.009981,0.498266,0.001928,0.000570,2.000049,-0.001928,-0.000570,-0.000049,-0.003928,0.000841,0.000025,0.000035,0.009820,0.003871,0.000134,0.001047,-0.008473,-0.000000,-0.000661,-0.006710
1770738639.492218,0.596902,0.534081,-0.738011,0.015708,-0.722569,0.769784,0.000000,-0.000010,-0.000263,0.000000,0.000003,-0.000094,0.074671,-0.009996,-0.002441,-0.142422,0.153386,-0.044915,-0.035016,-0.123961,-0.633168,-0.074671,0.009996,0.502441,-0.002324,0.005009,1.999201,0.002324,-0.005009,0.000799,-0.000758,-0.011035,-0.000032,0.000049,-0.009595,-0.005609,0.000000,-0.000010,-0.000263,0.000000,0.000003,-0.000093
1770738714.992159,-0.282657,0.156869,0.411580,0.282743,-0.958056,-0.598108,-0.000086,0.000211,-0.003173,0.000000,-0.000129,0.001205,0.007700,0.009996,-0.000529,-0.084819,0.063846,0.071878,-0.045265,0.274829,-0.702052,-0.007700,-0.009996,0.500529,0.005797,-0.005886,2.000057,-0.005797,0.005886,-0.000057,-0.004518,0.015876,0.000110,-0.000011,0.009994,-0.000981,-0.000086,0.000210,-0.003170,0.000000,-0.000129,0.001204
1770738744.992215,-0.376856,0.564141,0.703206,-0.172788,-0.078524,0.316872,-0.000135,0.001346,-0.012056,-0.000000,-0.000016,-0.002713,0.008549,0.003073,0.000253,-0.079679,0.075066,0.062780,-0.056816,0.283472,-0.705124,-0.008549,-0.003073,0.499747,0.005562,-0.001369,2.002798,-0.005562,0.001369,-0.002798,-0.008451,0.007750,-0.002703,0.000002,0.003066,0.000531,-0.000135,0.001345,-0.012044,-0.000000,-0.000016,-0.002710
1770738775.092163,-0.251304,0.439802,0.267195,-0.769690,-0.047125,-0.754197,-0.000024,0.000021,-0.000160,-0.000000,0.000001,0.000215,0.018404,-0.002292,0.004470,-0.092690,0.097737,0.055527,-0.063598,0.273334,-0.701934,-0.018404,0.002292,0.495530,0.003026,0.003243,1.996298,-0.003026,-0.003243,0.003702,-0.008408,-0.002892,0.003626,-0.000020,-0.002454,0.008887,-0.000024,0.000021,-0.000160,-0.000000,0.000001,0.000215
1770738805.192258,-0.518361,0.659741,0.031486,0.094248,-1.555088,0.471282,-0.000001,-0.000007,-0.000070,0.000000,-0.000001,-0.000043,-0.005662,-0.001067,-0.010809,-0.035290,0.041367,0.054945,-0.059036,0.269190,-0.699346,0.005662,0.001067,0.510809,0.005034,-0.005754,2.004950,-0.005034,0.005754,-0.004950,-0.003147,0.014918,-0.005033,0.000023,-0.001189,-0.021591,-0.000001,-0.000007,-0.000070,0.000000,-0.000001,-0.000043
1770738835.292159,0.565584,-0.141558,0.238058,0.612611,-0.879335,-0.488353,-0.000097,0.000187,-0.002438,0.000000,-0.000311,0.001406,0.075489,-0.008811,0.033502,-0.155928,0.165635,0.038298,-0.067738,0.208772,-0.679622,-0.075489,0.008811,0.466498,-0.007284,0.021804,1.984009,0.007284,-0.021804,0.015991,-0.006736,-0.046526,0.012442,-0.000589,-0.013825,0.066081,-0.000097,0.000186,-0.002436,0.000000,-0.000310,0.001404
1770738917.592276,-0.157074,-0.329851,-0.298565,-0.518363,-0.047129,0.329592,-0.000005,-0.000016,0.000114,-0.000000,0.000005,0.000275,0.029722,-0.009987,-0.001802,-0.093106,0.107770,-0.010523,-0.053242,-0.240461,-0.599505,-0.029722,0.009987,0.501802,-0.003852,-0.003412,2.000142,0.003852,0.003412,-0.000142,0.010027,0.002274,0.000025,0.000036,-0.009866,-0.003895,-0.000005,-0.000016,0.000114,-0.000000,0.000005,0.000275
1770738947.692173,0.486943,0.392692,-0.643888,-0.361283,-0.518350,0.094348,0.000004,0.000007,-0.000139,0.000000,-0.000012,-0.000100,0.067335,0.003280,0.009387,-0.141585,0.136093,-0.018558,0.043241,-0.227703,-0.603374,-0.067335,-0.003280,0.490613,-0.012883,0.007589,2.000922,0.012883,-0.007589,-0.000922,0.015557,-0.025379,-0.002686,0.000061,0.002007,0.018933,0.000004,0.000007,-0.000139,0.000000,-0.000012,-0.000100
1770739011.492199,0.738336,0.046951,0.568023,0.235619,-1.476516,0.518770,-0.000061,0.000173,-0.002536,0.000000,-0.000032,-0.000408,0.106026,0.009991,0.005181,-0.178893,0.169529,0.016396,0.054715,-0.056715,-0.641856,-0.106026,-0.009991,0.494819,-0.004563,0.008426,1.997505,0.004563,-0.008426,0.002495,0.000053,-0.019300,0.000452,0.000103,0.008830,0.011348,-0.000061,0.000173,-0.002533,0.000000,-0.000032,-0.000407
1770739045.792241,-0.486950,-0.408410,-0.345624,0.329867,-1.068146,-0.329844,0.000003,0.000003,0.000049,0.000000,0.000004,-0.000023,0.004765,-0.009993,-0.029155,-0.037451,0.072569,0.026511,-0.067576,-0.165918,-0.626916,-0.004765,0.009993,0.529155,0.019991,-0.018951,1.990112,-0.019991,0.018951,0.009888,-0.015463,0.052801,0.009976,0.000582,-0.009706,-0.058296,0.000003,0.000003,0.000049,0.000000,0.000004,-0.000023
1770739075.892220,-0.738234,-0.486970,0.314785,0.282743,-1.445111,-0.549958,-0.000040,0.000023,-0.000626,-0.000000,-0.000022,0.000180,-0.026179,0.007457,-0.013035,0.049433,-0.070555,0.078167,-0.059797,-0.100965,-0.637561,0.026179,-0.007457,0.513035,0.009861,-0.022912,2.001773,-0.009861,0.022912,-0.001773,0.005291,0.049491,-0.003107,-0.000194,0.006765,-0.026230,-0.000040,0.000023,-0.000625,-0.000000,-0.000022,0.000179
1770739158.892147,-0.157245,-0.016256,0.728934,-0.424115,-1.287824,-0.078027,0.000166,0.000549,-0.006368,-0.000000,-0.000229,-0.000512,0.041477,0.009989,0.002371,-0.131798,0.120022,0.069932,-0.043881,0.289977,-0.707918,-0.041477,-0.009989,0.497629,0.002490,0.005352,1.999843,-0.002490,-0.005352,0.000157,-0.009474,-0.007027,-0.000040,0.000047,0.009774,0.005146,0.000165,0.000548,-0.006362,-0.000000,-0.000229,-0.000512
1770739237.892261,-0.062834,0.015740,-0.455918,0.078540,-0.329861,0.596932,0.000002,-0.000032,0.000387,0.000000,-0.000006,-0.000029,0.035569,-0.009993,-0.001810,-0.103615,0.117628,0.013367,-0.057262,-0.111328,-0.636181,-0.035569,0.009993,0.501810,-0.001572,-0.000946,1.999877,0.001572,0.000946,0.000123,0.003661,0.000141,0.000164,0.000036,-0.009848,-0.003969,0.000002,-0.000032,0.000386,0.000000,-0.000006,-0.000029
1770739276.192174,0.219897,-0.345432,-0.142686,0.000000,-0.109941,-0.785057,0.000014,-0.000143,0.001314,-0.000000,-0.000015,-0.000341,0.040737,-0.009995,-0.000757,-0.107150,0.120838,-0.025490,-0.049708,-0.202843,-0.613380,-0.040737,0.009995,0.500757,-0.002671,0.000196,1.999239,0.002671,-0.000196,0.000761,0.004486,-0.002936,0.000686,0.000015,-0.009915,-0.001918,0.000014,-0.000143,0.001313,-0.000000,-0.000015,-0.000341
1770739306.192230,-0.251320,0.219931,-0.408571,-0.565487,-0.204215,0.093992,-0.000007,-0.000019,0.000164,-0.000000,0.000011,0.000256,0.026229,0.005001,-0.004084,-0.102836,0.092830,0.053741,-0.030499,-0.167464,-0.623415,-0.026229,-0.005001,0.504084,-0.003885,-0.007032,2.002970,0.003885,0.007032,-0.002970,0.013567,0.008631,-0.002810,-0.000041,0.005209,-0.008025,-0.000007,-0.000019,0.000164,-0.000000,0.000011,0.000255
1770739364.092189,-0.109924,0.643993,-0.360412,0.235619,-0.643988,-0.220321,-0.000032,0.000034,-0.000871,0.000000,-0.000039,0.000410,0.028329,0.009998,0.001321,-0.112446,0.097449,0.065146,-0.033115,0.159218,-0.665299,-0.028329,-0.009998,0.498679,0.000552,-0.000712,1.999660,-0.000552,0.000712,0.000340,-0.000285,0.001766,0.000393,0.000026,0.009910,0.002921,-0.000032,0.000034,-0.000870,0.000000,-0.000039,0.000409
1770739394.092191,-0.282746,0.015702,-0.204126,-0.345575,-0.392698,-0.675404,0.000002,0.000006,-0.000078,-0.000000,-0.000001,-0.000039,0.022808,-0.005089,-0.001876,-0.091686,0.101871,0.040916,-0.060379,0.116586,-0.657108,-0.022808,0.005089,0.501876,0.006256,0.000684,1.995897,-0.006256,-0.000684,0.004103,-0.011635,0.004721,0.004149,0.000019,-0.004997,-0.003862,0.000002,0.000006,-0.000078,-0.000000,-0.000001,-0.000039
1770739424.092263,0.377026,-0.455552,0.126100,0.706858,-1.115190,-0.204384,-0.000035,0.000021,-0.000437,0.000000,-0.000075,0.000181,0.047204,-0.001703,0.007758,-0.125492,0.127924,0.039806,-0.046916,0.098052,-0.653304,-0.047204,0.001703,0.492242,-0.002139,0.006796,1.998209,0.002139,-0.006796,0.001791,-0.002654,-0.014056,0.001123,-0.000026,-0.002431,0.015403,-0.000035,0.000021,-0.000436,0.000000,-0.000075,0.000181
1770739454.192157,-0.235645,0.675471,-0.502188,-0.345575,-0.895310,-0.612566,0.000026,-0.000029,-0.000467,-0.000000,-0.000044,-0.000044,0.028357,0.008885,-0.005327,-0.111445,0.096716,0.063571,-0.031231,0.172929,-0.667596,-0.028357,-0.008885,0.505327,-0.001372,-0.003954,2.007061,0.001372,0.003954,-0.007061,0.006161,0.005786,-0.006948,-0.000094,0.009175,-0.010388,0.000026,-0.000029,-0.000467,-0.000000,-0.000044,-0.000044
1770739484.192211,-0.345693,-0.330153,0.411640,-0.722566,-0.894937,0.205738,0.000118,0.000286,-0.003233,-0.000000,-0.000417,-0.001534,0.030792,0.004315,0.001058,-0.112409,0.106101,0.059143,-0.046040,0.196552,-0.676040,-0.030792,-0.004315,0.498942,0.001388,-0.000112,1.994157,-0.001388,0.000112,0.005843,-0.002302,0.001343,0.005891,0.000009,0.004243,0.002246,0.000117,0.000285,-0.003230,-0.000000,-0.000417,-0.001533
1770739526.192154,-0.581197,-0.188487,-0.691125,-0.157080,-1.507964,-0.502673,0.000002,-0.000009,-0.000025,0.000000,-0.000001,0.000018,0.009103,-0.010000,-0.003991,-0.063227,0.085557,0.037766,-0.068911,0.067362,-0.649500,-0.009103,0.010000,0.503991,0.005518,-0.003908,2.000316,-0.005518,0.003908,-0.000316,-0.005881,0.012164,-0.000264,0.000080,-0.009917,-0.008065,0.000002,-0.000009,-0.000025,0.000000,-0.000001,0.000018
1770739587.892213,-0.345664,0.596832,0.299854,-0.518363,-1.303652,0.723270,0.000089,0.000070,-0.001403,-0.000000,-0.000109,-0.000704,0.027454,0.009983,0.001932,-0.114110,0.099177,0.069209,-0.040065,0.250948,-0.693197,-0.027454,-0.009983,0.498068,-0.000472,0.001592,1.997961,0.000472,-0.001592,0.002039,-0.000671,-0.003300,0.001954,0.000038,0.009863,0.004132,0.000089,0.000070,-0.001402,-0.000000,-0.000109,-0.000703
1770739617.992208,-0.408415,-0.110025,0.314815,0.518363,-0.157094,0.769355,0.000008,0.000069,-0.000656,0.000000,0.000015,0.000335,0.011463,-0.007666,-0.006930,-0.070689,0.089142,0.040320,-0.067642,0.219212,-0.683830,-0.011463,0.007666,0.506930,0.008560,-0.000210,1.989498,-0.008560,0.000210,0.010502,-0.014829,0.008550,0.010477,0.000106,-0.007499,-0.013932,0.000008,0.000069,-0.000655,0.000000,0.000015,0.000335
1770739647.992218,0.345592,-0.392697,-0.094149,0.628319,-1.492239,-0.172797,-0.000017,-0.000002,-0.000099,0.000000,-0.000017,0.000010,0.045048,-0.007147,0.012011,-0.122368,0.131902,0.037758,-0.062050,0.178857,-0.670085,-0.045048,0.007147,0.487989,-0.001948,0.009103,1.999845,0.001948,-0.009103,0.000155,-0.005090,-0.017878,-0.000687,-0.000171,-0.008214,0.023652,-0.000017,-0.000002,-0.000099,0.000000,-0.000017,0.000010
1770739694.392308,0.062949,0.565316,0.301373,0.502655,-0.910760,0.219061,-0.000117,0.000171,-0.002922,-0.000000,-0.000302,0.000851,0.040039,0.010000,0.001168,-0.129691,0.115624,0.069494,-0.037133,0.265475,-0.697609,-0.040039,-0.010000,0.498832,-0.002857,0.000876,1.999704,0.002857,-0.000876,0.000296,0.004179,-0.004275,0.000083,0.000023,0.009888,0.002732,-0.000117,0.000171,-0.002919,-0.000000,-0.000302,0.000850
1770739793.792195,0.738308,-0.675408,0.077921,-0.722566,-0.816945,-0.612876,-0.000034,-0.000034,0.000618,-0.000000,0.000131,0.000265,0.069889,-0.009982,-0.003372,-0.128948,0.139655,-0.064354,0.035581,-0.298170,-0.572363,-0.069889,0.009982,0.503372,-0.006826,-0.000910,1.999396,0.006826,0.000910,0.000604,0.012817,-0.005025,0.000381,0.000067,-0.009478,-0.007417,-0.000034,-0.000034,0.000618,-0.000000,0.000131,0.000265
1770739889.392191,-0.439908,-0.346456,0.779779,-0.109956,-0.848186,0.283836,0.000085,0.000881,-0.010089,0.000000,-0.000044,-0.001093,0.005563,0.009995,0.000050,-0.080703,0.059583,0.070915,-0.045458,0.244686,-0.690779,-0.005563,-0.009995,0.499950,0.006870,-0.002354,2.000192,-0.006870,0.002354,-0.000192,-0.009793,0.010708,-0.000035,0.000001,0.009984,0.000155,0.000085,0.000880,-0.010079,0.000000,-0.000044,-0.001092
1770739958.992191,-0.157076,-0.439826,-0.612624,-0.628319,-1.492259,-0.769681,-0.000003,0.000003,0.000014,-0.000000,0.000003,-0.000009,0.048194,-0.009986,-0.001390,-0.116762,0.129819,-0.029341,-0.048564,-0.154033,-0.626970,-0.048194,0.009986,0.501390,-0.002884,0.004440,1.999788,0.002884,-0.004440,0.000212,0.000788,-0.010546,-0.000289,0.000028,-0.009831,-0.003254,-0.000003,0.000003,0.000014,-0.000000,0.000003,-0.000009
1770740007.492158,0.172656,-0.314318,0.442075,-0.706858,-1.256356,-0.219645,0.000132,0.000159,-0.002252,-0.000000,-0.000281,-0.000267,0.077808,0.009994,0.005518,-0.160347,0.149236,0.048775,0.032567,0.117762,-0.655681,-0.077808,-0.009994,0.494482,-0.007129,0.006093,1.998304,0.007129,-0.006093,0.001696,0.006777,-0.017550,0.000264,0.000110,0.009097,0.011767,0.000132,0.000159,-0.002250,-0.000000,-0.000281,-0.000266
1770740037.492159,-0.094245,-0.376986,-0.439802,0.235619,-1.445132,-0.534086,-0.000002,-0.000005,-0.000021,0.000000,-0.000001,0.000015,0.023762,-0.006472,-0.018867,-0.087150,0.099909,0.028829,-0.056726,0.024213,-0.646992,-0.023762,0.006472,0.518867,0.011075,-0.009814,1.997897,-0.011075,0.009814,0.002103,-0.009505,0.027945,0.002705,0.000244,-0.005568,-0.037839,-0.000002,-0.000005,-0.000021,0.000000,-0.000001,0.000015
1770740067.492224,0.502653,0.125657,-0.408242,-0.204204,-0.596898,-0.408374,0.000002,0.000007,-0.000165,-0.000000,-0.000004,-0.000033,0.069560,-0.006811,0.010972,-0.141065,0.148923,-0.029214,-0.037753,-0.127327,-0.632172,-0.069560,0.006811,0.489028,-0.002355,0.007949,2.001552,0.002355,-0.007949,-0.001552,-0.003297,-0.016082,-0.002697,-0.000149,-0.008312,0.021395,0.000002,0.000007,-0.000165,-0.000000,-0.000004,-0.000033
1770740097.592213,-0.785406,-0.219872,0.031062,0.769690,-0.329906,0.000418,0.000008,-0.000039,0.000354,0.000000,0.000039,-0.000418,-0.008552,-0.005757,-0.023206,0.021719,0.038850,0.050536,-0.067341,-0.168295,-0.624423,0.008552,0.005757,0.523206,0.011556,-0.018817,1.995951,-0.011556,0.018817,0.004049,-0.001238,0.044137,0.003661,0.000267,-0.006148,-0.046314,0.000008,-0.000039,0.000354,0.000000,0.000039,-0.000418
1770740167.992169,0.282617,0.329225,0.367432,-0.298451,-0.298388,-0.311618,0.000126,0.000643,-0.006149,-0.000000,-0.000063,-0.002542,0.070628,0.009997,0.004270,-0.156405,0.145905,0.057132,-0.009492,0.189975,-0.672806,-0.070628,-0.009997,0.495730,-0.001794,0.006582,1.998431,0.001794,-0.006582,0.001569,-0.003086,-0.013352,0.000658,0.000085,0.009360,0.009214,0.000126,0.000642,-0.006143,-0.000000,-0.000063,-0.002539
1770740197.992193,-0.267185,0.690747,0.160290,0.204204,-0.015695,0.488022,0.000150,0.000403,-0.003210,0.000000,-0.000013,-0.001076,0.021632,0.005410,-0.018476,-0.097740,0.089522,0.057406,-0.041914,0.219298,-0.682008,-0.021632,-0.005410,0.518476,0.009470,-0.009487,2.002229,-0.009470,0.009487,-0.002229,-0.007054,0.025882,-0.001629,-0.000200,0.006202,-0.036788,0.000150,0.000403,-0.003207,0.000000,-0.000013,-0.001074
1770740227.992206,0.769724,0.722570,0.141745,0.361283,-1.366564,0.282798,-0.000034,-0.000004,-0.000373,0.000000,-0.000029,-0.000054,0.092873,-0.006392,0.024076,-0.167342,0.174103,0.015406,-0.050460,0.151710,-0.661926,-0.092873,0.006392,0.475924,-0.002825,0.017549,1.998768,0.002825,-0.017549,0.001232,-0.011056,-0.033715,-0.001975,-0.000307,-0.010819,0.047303,-0.000034,-0.000004,-0.000373,0.000000,-0.000029,-0.000054
1770740263.892173,0.628369,0.706768,-0.376123,0.251327,-0.251305,-0.157764,-0.000051,0.000090,-0.000869,-0.000000,-0.000022,0.000685,0.077359,-0.009989,-0.004845,-0.146076,0.157544,-0.041991,-0.041457,-0.028267,-0.645499,-0.077359,0.009989,0.504845,0.001127,0.004309,1.996176,-0.001127,-0.004309,0.003824,-0.006172,-0.006718,0.003249,0.000097,-0.009201,-0.010422,-0.000051,0.000090,-0.000868,-0.000000,-0.000022,0.000684
1770740293.892220,0.628330,0.533964,0.410604,-0.125664,-1.005304,-0.675878,-0.000011,0.000106,-0.002197,-0.000000,-0.000006,0.000436,0.098172,0.005747,0.007286,-0.173980,0.167570,0.029846,0.036031,0.103359,-0.651985,-0.098172,-0.005747,0.492714,-0.008510,0.005691,2.003034,0.008510,-0.005691,-0.003034,0.009585,-0.017671,-0.004841,0.000084,0.004287,0.015049,-0.000011,0.000106,-0.002195,-0.000000,-0.000006,0.000435
1770740335.892281,-0.078540,0.093912,0.458639,-0.502655,-0.204212,-0.595202,0.000000,0.000336,-0.003108,-0.000000,0.000009,-0.001700,0.037115,0.009991,-0.008400,-0.121993,0.107626,0.065336,-0.031144,0.222005,-0.683744,-0.037115,-0.009991,0.508400,0.005735,-0.011715,1.999237,-0.005735,0.011715,0.000763,0.001391,0.025978,0.001714,-0.000168,0.010597,-0.016400,0.000000,0.000336,-0.003105,-0.000000,0.000008,-0.001698
1770740365.992259,-0.031497,0.345528,0.142793,-0.644026,-1.005057,-0.628039,0.000081,0.000047,-0.001422,-0.000000,-0.000253,-0.000279,0.054727,0.007889,0.008269,-0.143305,0.134356,0.066680,-0.044291,0.252285,-0.692593,-0.054727,-0.007889,0.491731,0.001367,-0.000193,2.002756,-0.001367,0.000193,-0.002756,-0.002247,0.001777,-0.002642,0.000130,0.006966,0.016927,0.000081,0.000047,-0.001420,-0.000000,-0.000252,-0.000279
1770740396.092155,-0.125692,0.581217,-0.690954,-0.769690,-1.366547,0.345684,0.000028,-0.000022,-0.000196,-0.000000,-0.000046,-0.000109,0.053935,-0.008293,-0.000564,-0.130203,0.140706,0.031524,-0.061963,0.209015,-0.678822,-0.053935,0.008293,0.500564,0.005439,0.002345,1.998744,-0.005439,-0.002345,0.001256,-0.011793,0.001041,0.001215,0.000009,-0.008212,-0.001573,0.000028,-0.000022,-0.000196,-0.000000,-0.000046,-0.000109
1770740436.692168,-0.455519,0.078547,-0.486816,0.769690,-1.240897,-0.722682,-0.000012,-0.000007,-0.000131,0.000000,-0.000032,0.000116,-0.012364,-0.009986,-0.013105,0.045958,0.035984,0.045283,-0.073876,0.106916,-0.655432,0.012364,0.009986,0.513105,0.010488,-0.015115,1.998290,-0.010488,0.015115,0.001710,-0.003448,0.036615,0.001222,0.000261,-0.010299,-0.026056,-0.000012,-0.000007,-0.000131,0.000000,-0.000032,0.000116
1770740466.692207,-0.172785,-0.612608,-0.157060,0.267035,-1.492255,-0.345581,-0.000003,-0.000002,-0.000020,-0.000000,-0.000001,0.000005,0.018861,-0.007499,0.008765,-0.086080,0.098719,0.043105,-0.064760,-0.056448,-0.643871,-0.018861,0.007499,0.491235,-0.001448,0.000584,1.997381,0.001448,-0.000584,0.002619,0.001981,-0.002442,0.002586,-0.000131,-0.007821,0.017368,-0.000003,-0.000002,-0.000020,-0.000000,-0.000001,0.000005
1770740538.992157,-0.361246,-0.000162,0.536665,0.125664,-1.256623,-0.408889,-0.000038,0.000162,-0.002595,-0.000000,-0.000014,0.000482,0.002817,0.009989,-0.000068,-0.076974,0.052683,0.071402,-0.044152,0.279814,-0.704180,-0.002817,-0.009989,0.500068,0.002482,-0.000932,1.999563,-0.002482,0.000932,0.000437,-0.003453,0.004011,0.000483,-0.000001,0.009980,-0.000109,-0.000038,0.000162,-0.002592,-0.000000,-0.000014,0.000481
1770740568.992194,-0.439693,0.297840,0.729928,0.486947,-1.099182,0.533613,-0.000130,0.000611,-0.007362,0.000000,-0.000375,0.000458,-0.010333,0.003460,-0.006371,-0.026449,-0.014357,0.061818,-0.054002,0.288952,-0.707319,0.010333,-0.003460,0.506371,0.005947,-0.002998,2.003002,-0.005947,0.002998,-0.003002,-0.007496,0.010969,-0.003086,-0.000044,0.003325,-0.012763,-0.000129,0.000611,-0.007355,0.000000,-0.000375,0.000457
1770740599.092197,0.659732,0.345540,0.346737,0.000000,-1.178099,0.550113,0.000002,0.000035,-0.001162,-0.000000,0.000002,-0.000334,0.103914,-0.008433,0.049523,-0.180625,0.189032,0.037663,-0.067279,0.199097,-0.675338,-0.103914,0.008433,0.450477,-0.009769,0.032531,1.987303,0.009769,-0.032531,0.012697,-0.010836,-0.067956,0.005575,-0.000834,-0.018643,0.097536,0.000002,0.000035,-0.001161,-0.000000,0.000002,-0.000334
1770740629.092265,-0.439768,0.769548,-0.155880,-0.125664,-0.031416,-0.581833,-0.000055,0.000143,-0.001200,-0.000000,-0.000000,0.000638,0.005664,-0.003493,-0.037289,-0.056546,0.066926,0.038304,-0.052432,0.193025,-0.674693,-0.005664,0.003493,0.537289,0.008373,-0.011349,1.999247,-0.008373,0.011349,0.000753,-0.002770,0.028038,0.000901,0.000260,-0.003067,-0.074522,-0.000055,0.000143,-0.001199,-0.000000,-0.000000,0.000637
1770740659.192189,0.754014,0.628338,-0.408230,0.628319,-1.429383,0.486992,-0.000032,-0.000019,-0.000177,0.000000,-0.000042,-0.000045,0.084632,-0.003739,0.025640,-0.162343,0.166204,0.030586,-0.046952,0.148132,-0.661620,-0.084632,0.003739,0.474360,-0.008203,0.016541,1.997098,0.008203,-0.016541,0.002902,-0.000527,-0.036998,-0.000231,-0.000191,-0.008052,0.050729,-0.000031,-0.000019,-0.000177,0.000000,-0.000042,-0.000045
1770740724.892192,-0.486968,-0.219784,-0.283820,0.078540,-0.094258,-0.721817,0.000021,-0.000128,0.001077,-0.000000,0.000010,-0.000750,0.014955,-0.009980,-0.002657,-0.072436,0.091458,0.032526,-0.064617,-0.204623,-0.612465,-0.014955,0.009980,0.502657,0.000861,-0.006945,2.001706,-0.000861,0.006945,-0.001706,0.005194,0.013012,-0.001458,0.000053,-0.009890,-0.005457,0.000021,-0.000128,0.001075,-0.000000,0.000010,-0.000749
1770740805.192287,0.455663,0.298104,0.365814,0.408407,-0.785105,0.077116,-0.000132,0.000347,-0.004531,0.000000,-0.000293,0.001423,0.081293,0.009997,0.004067,-0.165669,0.155818,0.055535,0.009094,0.198601,-0.674926,-0.081293,-0.009997,0.495933,-0.001727,0.006832,1.998927,0.001727,-0.006832,0.001073,-0.003451,-0.013693,-0.000005,0.000081,0.009294,0.008909,-0.000132,0.000347,-0.004526,0.000000,-0.000293,0.001422
1770740835.292236,0.157060,-0.125803,0.456585,0.534071,-0.109917,-0.708234,0.000020,0.000139,-0.001054,0.000000,-0.000039,0.001375,0.052381,-0.002062,-0.010506,-0.129644,0.133484,0.037741,-0.049347,0.192685,-0.674449,-0.052381,0.002062,0.510506,0.008556,-0.002818,1.996054,-0.008556,0.002818,0.003946,-0.012172,0.013041,0.004606,0.000043,-0.000958,-0.021070,0.000019,0.000139,-0.001053,0.000000,-0.000039,0.001374
1770740884.592180,-0.455523,0.267041,-0.722781,-0.581195,-0.612647,0.062636,-0.000008,-0.000005,0.000215,-0.000000,0.000037,0.000196,0.022910,-0.009993,-0.004125,-0.085570,0.103339,0.029244,-0.064900,-0.060346,-0.643037,-0.022910,0.009993,0.504125,0.005930,-0.007044,2.000498,-0.005930,0.007044,-0.000498,-0.003571,0.018054,-0.000119,0.000082,-0.009791,-0.008469,-0.000008,-0.000005,0.000215,-0.000000,0.000037,0.000195
1770740941.092165,-0.377018,0.141377,-0.094066,-0.753982,-1.539342,-0.691225,0.000027,-0.000005,-0.000182,-0.000000,-0.000039,0.000075,0.030880,0.009990,0.001778,-0.117228,0.102724,0.067796,-0.037503,0.224163,-0.683716,-0.030880,-0.009990,0.498222,-0.000171,-0.001347,1.999573,0.000171,0.001347,0.000427,0.001590,0.002186,0.000478,0.000035,0.009865,0.003858,0.000027,-0.000005,-0.000182,-0.000000,-0.000039,0.000075
1770740998.992204,0.534077,-0.455526,-0.125581,0.282743,-1.130969,0.612636,-0.000006,-0.000005,-0.000083,0.000000,-0.000005,-0.000025,0.063722,-0.009999,-0.001304,-0.133352,0.145337,-0.036475,-0.044827,-0.101629,-0.637345,-0.063722,0.009999,0.501304,-0.002265,0.005647,2.000478,0.002265,-0.005647,-0.000478,-0.001449,-0.012014,-0.001259,0.000026,-0.009803,-0.003235,-0.000006,-0.000005,-0.000083,0.000000,-0.000005,-0.000025
1770741028.992215,0.345552,-0.659714,0.125339,0.753982,-1.005368,-0.659515,0.000023,-0.000021,0.000325,0.000000,0.000058,-0.000220,0.034864,-0.005379,-0.009816,-0.103984,0.111721,0.023963,-0.047361,-0.137719,-0.631169,-0.034864,0.005379,0.509816,0.001675,-0.006887,1.999618,-0.001675,0.006887,0.000382,0.003793,0.013621,0.000877,0.000105,-0.004687,-0.019788,0.000023,-0.000021,0.000325,0.000000,0.000058,-0.000220
1770741059.092245,0.047124,-0.031418,-0.738289,-0.267035,-1.052434,-0.031419,-0.000001,0.000002,0.000015,-0.000000,0.000001,0.000003,0.046654,-0.003811,0.001575,-0.119118,0.123811,0.019332,-0.038905,-0.163106,-0.624378,-0.046654,0.003811,0.498425,-0.001968,-0.000535,2.002426,0.001968,0.000535,-0.002426,0.003974,-0.000828,-0.002450,-0.000012,-0.003950,0.002966,-0.000001,0.000002,0.000015,-0.000000,0.000001,0.000003
1770741089.192172,0.628313,0.062517,0.270744,-0.062832,-0.502655,-0.329791,0.000006,0.000315,-0.003709,0.000000,-0.000000,-0.000076,0.093860,0.008445,0.015947,-0.169718,0.160575,0.022516,0.050129,-0.120522,-0.633027,-0.093860,-0.008445,0.484053,-0.012707,0.012299,1.997531,0.012707,-0.012299,0.002469,0.011057,-0.033639,-0.000783,0.000269,0.005414,0.032511,0.000006,0.000315,-0.003705,0.000000,-0.000000,-0.000076
1770741133.892158,-0.785231,-0.063623,0.605466,0.738274,-0.800082,0.625300,-0.000167,0.000791,-0.008563,0.000000,-0.001024,0.003018,-0.040184,0.009995,-0.019083,0.079279,-0.097014,0.078794,-0.055515,0.107196,-0.654661,0.040184,-0.009995,0.519083,0.013375,-0.023300,1.998409,-0.013375,0.023300,0.001591,-0.000092,0.053698,-0.000567,-0.000381,0.008445,-0.038496,-0.000167,0.000790,-0.008554,0.000000,-0.001023,0.003015
1770741163.892194,-0.738228,-0.267142,0.205701,0.738274,-0.738008,0.658986,-0.000047,0.000106,-0.001498,0.000000,-0.000266,0.000748,-0.021844,-0.004868,0.004727,0.054294,-0.031861,0.061998,-0.076004,0.013271,-0.646654,0.021844,0.004868,0.495273,0.008816,-0.004374,1.996438,-0.008816,0.004374,0.003562,-0.011361,0.016133,0.003152,-0.000046,-0.004656,0.009548,-0.000047,0.000106,-0.001496,0.000000,-0.000266,0.000747
1770741196.192170,0.565463,-0.392631,0.030701,0.722566,-0.392776,0.597543,0.000023,-0.000068,0.000715,-0.000000,0.000077,-0.000640,0.059452,-0.009978,0.021062,-0.130502,0.142828,-0.032645,-0.047992,-0.176123,-0.621403,-0.059452,0.009978,0.478938,-0.007313,0.021360,1.995905,0.007313,-0.021360,0.004095,-0.006740,-0.044768,0.001367,-0.000419,-0.012451,0.041413,0.000023,-0.000068,0.000714,-0.000000,0.000077,-0.000640
1770741226.192207,0.109960,-0.329860,-0.219855,0.157080,-1.350884,-0.455561,-0.000004,-0.000008,-0.000057,-0.000000,-0.000001,0.000031,0.042017,0.009206,-0.002038,-0.124774,0.111250,0.053515,0.018116,-0.093457,-0.638730,-0.042017,-0.009206,0.502038,-0.007222,0.002938,2.000795,0.007222,-0.002938,-0.000795,0.009816,-0.012042,-0.001391,-0.000037,0.009360,-0.003683,-0.000004,-0.000008,-0.000057,-0.000000,-0.000001,0.000031
1770741299.592172,0.157100,-0.722553,-0.346342,-0.361283,-0.785465,-0.031707,-0.000020,-0.000013,0.000766,-0.000000,0.000066,0.000291,0.041002,-0.009991,-0.002041,-0.101951,0.115944,-0.042345,-0.035435,-0.309470,-0.566799,-0.041002,0.009991,0.502041,-0.003199,-0.000484,1.999970,0.003199,0.000484,0.000030,0.006068,-0.002230,-0.000001,0.000041,-0.009806,-0.004483,-0.000020,-0.000013,0.000766,-0.000000,0.000066,0.000291
1770741336.092196,0.094249,-0.753980,0.691130,0.738274,-0.015708,-0.109957,-0.000002,-0.000002,0.000020,0.000000,0.000000,0.000001,0.043648,0.009987,0.001740,-0.121909,0.106981,0.043515,0.039035,-0.256479,-0.592663,-0.043648,-0.009987,0.498260,-0.006496,-0.001985,1.999556,0.006496,0.001985,0.000444,0.013301,-0.002730,0.000192,0.000035,0.009816,0.003908,-0.000002,-0.000002,0.000020,0.000000,0.000000,0.000001
1770741366.092207,-0.172777,-0.753985,-0.345611,-0.738274,-1.570803,0.486931,-0.000011,0.000003,0.000036,-0.000000,0.000006,0.000016,0.054945,-0.000762,0.002705,-0.124551,0.125690,-0.030322,0.025195,-0.264085,-0.588984,-0.054945,0.000762,0.497295,-0.001764,0.004719,2.000303,0.001764,-0.004719,-0.000303,-0.001400,-0.009936,-0.000850,-0.000004,-0.001057,0.005355,-0.000011,0.000003,0.000036,-0.000000,0.000006,0.000016
1770741447.292189,-0.047121,-0.188505,0.141987,0.015708,-1.021018,-0.251421,-0.000003,0.000010,-0.000616,0.000000,0.000000,0.000093,0.038615,0.009998,0.001825,-0.124236,0.111610,0.063373,-0.032227,0.182967,-0.671189,-0.038615,-0.009998,0.498175,0.004321,0.001087,2.000181,-0.004321,-0.001087,-0.000181,-0.008623,0.002219,-0.000009,0.000036,0.009840,0.004028,-0.000003,0.000010,-0.000615,0.000000,0.000000,0.000093
1770741477.392159,-0.172803,0.659753,-0.549708,-0.361283,-1.507954,-0.329903,0.000015,-0.000019,-0.000071,-0.000000,-0.000011,0.000036,0.037843,0.006924,0.000966,-0.122342,0.113783,0.061382,-0.041798,0.215714,-0.680036,-0.037843,-0.006924,0.499034,0.003710,0.001123,2.004945,-0.003710,-0.001123,-0.004945,-0.007615,0.001761,-0.004824,0.000013,0.006839,0.002191,0.000015,-0.000019,-0.000071,-0.000000,-0.000011,0.000036
1770741522.592238,-0.015816,0.219486,0.555338,-0.329867,-0.895141,-0.234824,0.000108,0.000425,-0.005559,0.000000,-0.000213,-0.000796,0.050370,0.009989,0.003915,-0.141406,0.129975,0.070391,-0.043047,0.283294,-0.705152,-0.050370,-0.009989,0.496085,0.000692,0.003607,1.999454,-0.000692,-0.003607,0.000546,-0.004640,-0.005702,0.000305,0.000078,0.009572,0.008314,0.000108,0.000425,-0.005553,0.000000,-0.000213,-0.000795
1770741621.792188,0.424091,-0.785388,-0.189094,0.329867,-0.801138,0.612655,0.000024,-0.000010,0.000599,0.000000,0.000032,-0.000044,0.035965,-0.009981,-0.001904,-0.098410,0.112158,-0.030728,-0.044163,-0.284034,-0.580085,-0.035965,0.009981,0.501904,-0.004966,-0.003660,2.000016,0.004966,0.003660,-0.000016,0.012216,0.001632,0.000165,0.000038,-0.009828,-0.004161,0.000024,-0.000010,0.000598,0.000000,0.000032,-0.000044
1770741721.092241,0.267285,0.595841,0.670668,0.706858,-0.894302,-0.098365,-0.000250,0.001061,-0.010933,0.000000,-0.001052,0.004117,0.053588,0.009993,0.002595,-0.142000,0.131174,0.065114,-0.035814,0.241185,-0.689080,-0.053588,-0.009993,0.497405,0.003605,0.003176,2.000193,-0.003605,-0.003176,-0.000193,-0.009360,-0.002131,-0.000214,0.000052,0.009691,0.005712,-0.000249,0.001060,-0.010922,0.000000,-0.001051,0.004113
1770741751.192170,-0.329957,0.628025,0.506894,-0.157080,-0.926718,0.299298,0.000090,0.000293,-0.004240,-0.000000,-0.000052,-0.000846,0.016153,0.007691,-0.014986,-0.093407,0.080474,0.063751,-0.042614,0.272912,-0.701302,-0.016153,-0.007691,0.514986,0.009533,-0.008284,2.000348,-0.009533,0.008284,-0.000348,-0.008428,0.023787,0.000102,-0.000230,0.008166,-0.029814,0.000090,0.000293,-0.004235,-0.000000,-0.000052,-0.000846
1770741793.292197,-0.376998,-0.282810,0.173735,-0.125664,-0.628320,-0.518346,0.000007,0.000067,-0.000948,0.000000,0.000002,-0.000017,0.014270,-0.009989,-0.001533,-0.073744,0.096051,0.037299,-0.071965,0.205470,-0.679342,-0.014270,0.009989,0.501533,0.008116,-0.001861,1.997563,-0.008116,0.001861,0.002437,-0.012455,0.011023,0.002467,0.000031,-0.009934,-0.003205,0.000007,0.000067,-0.000947,0.000000,0.000002,-0.000017
1770741823.292218,-0.424078,0.172612,0.488532,-0.644026,-0.157085,-0.391791,-0.000037,0.000175,-0.001585,-0.000000,0.000006,-0.000908,0.004591,0.006252,-0.004217,-0.075708,0.058732,0.067471,-0.047649,0.241200,-0.688692,-0.004591,-0.006252,0.504217,0.000089,-0.007149,2.005288,-0.000089,0.007149,-0.005288,0.006712,0.012616,-0.005267,-0.000053,0.006284,-0.008396,-0.000037,0.000175,-0.001583,-0.000000,0.000006,-0.000908
1770741853.392211,0.722592,0.266422,0.429717,-0.251327,-0.157121,-0.375425,-0.000026,0.000613,-0.005602,0.000000,0.000041,-0.001566,0.100422,-0.009361,0.035780,-0.173013,0.182023,-0.015031,-0.054525,0.133229,-0.658483,-0.100422,0.009361,0.464220,-0.009864,0.026556,1.992002,0.009864,-0.026556,0.007998,-0.006208,-0.056778,0.002251,-0.000669,-0.016472,0.070188,-0.000026,0.000612,-0.005596,0.000000,0.000041,-0.001565
1770741883.392272,-0.408400,0.109970,-0.565436,0.282743,-1.492252,0.125679,-0.000007,-0.000015,-0.000051,0.000000,-0.000005,-0.000015,0.001715,0.001028,-0.034976,-0.053767,0.050992,0.050430,-0.047462,0.153958,-0.664779,-0.001715,-0.001028,0.534976,0.007995,-0.016061,1.997657,-0.007995,0.016061,0.002343,0.002620,0.035746,0.002399,-0.000072,0.001147,-0.069879,-0.000007,-0.000015,-0.000051,0.000000,-0.000005,-0.000015
1770741913.492188,-0.596909,0.565545,-0.785123,-0.062832,-1.162389,0.691329,0.000006,-0.000059,-0.000275,-0.000000,-0.000000,-0.000179,0.001408,-0.000764,-0.004090,-0.058962,0.061121,0.057763,-0.059966,0.148859,-0.662586,-0.001408,0.000764,0.504090,0.004588,-0.008887,2.002634,-0.004588,0.008887,-0.002634,0.000551,0.019979,-0.002603,0.000006,-0.000751,-0.008173,0.000006,-0.000059,-0.000275,-0.000000,-0.000000,-0.000179
1770741961.692193,-0.534203,0.031036,0.444475,-0.329867,-0.848004,0.630186,0.000132,0.000380,-0.004652,-0.000000,-0.000226,-0.001867,0.001006,0.009982,-0.000092,-0.073563,0.046656,0.071931,-0.044041,0.253321,-0.693929,-0.001006,-0.009982,0.500092,0.001195,-0.003525,1.999998,-0.001195,0.003525,0.000002,0.001283,0.007325,-0.000004,-0.000002,0.009972,-0.000174,0.000132,0.000380,-0.004647,-0.000000,-0.000226,-0.001865
1770741991.692228,-0.047085,0.314167,0.016282,0.471239,-1.083766,0.675479,-0.000039,-0.000008,-0.000574,0.000000,-0.000084,-0.000036,0.029737,0.005923,0.013169,-0.116513,0.108347,0.068246,-0.053119,0.271290,-0.700377,-0.029737,-0.005923,0.486831,-0.002037,0.007556,2.000768,0.002037,-0.007556,-0.000768,-0.003469,-0.015219,-0.001200,0.000156,0.005132,0.026475,-0.000039,-0.000008,-0.000573,0.000000,-0.000084,-0.000036
1770742065.892205,0.109951,-0.361288,-0.596932,0.565487,-1.350890,0.078543,0.000005,0.000005,0.000030,0.000000,0.000005,-0.000003,0.024647,-0.009986,-0.001267,-0.089718,0.105631,0.025963,-0.061503,-0.118193,-0.634949,-0.024647,0.009986,0.501267,-0.002448,-0.000244,2.000096,0.002448,0.000244,-0.000096,0.004525,-0.001921,-0.000098,0.000025,-0.009910,-0.002777,0.000005,0.000005,0.000030,0.000000,0.000005,-0.000003
1770742095.892215,-0.596877,0.628349,-0.596759,0.455531,-1.413689,0.298488,-0.000026,-0.000031,-0.000143,-0.000000,-0.000028,-0.000037,-0.018363,0.008629,-0.014670,0.013099,-0.058499,0.075210,-0.049052,0.069616,-0.649007,0.018363,-0.008629,0.514670,0.000255,-0.016800,2.004772,-0.000255,0.016800,-0.004772,0.016038,0.029373,-0.005446,-0.000253,0.008081,-0.029463,-0.000026,-0.000031,-0.000143,-0.000000,-0.000028,-0.000037
1770742125.892227,0.612604,0.377003,0.078828,-0.141372,-1.256632,-0.267095,0.000007,-0.000012,-0.000288,-0.000000,-0.000005,0.000059,0.100052,0.007627,0.042782,-0.178696,0.171803,0.041472,0.026379,0.046152,-0.646424,-0.100052,-0.007627,0.457218,-0.016431,0.027273,1.991502,0.016431,-0.027273,0.008498,0.005467,-0.063914,0.002075,0.000651,-0.000957,0.085810,0.000007,-0.000012,-0.000288,-0.000000,-0.000005,0.000059
1770742155.992217,0.581245,0.596790,-0.186924,0.251327,-0.471220,0.533583,-0.000051,0.000112,-0.001572,0.000000,-0.000019,0.000488,0.084333,0.000615,-0.000440,-0.158890,0.158457,-0.016745,0.020441,0.040513,-0.646495,-0.084333,-0.000615,0.500440,-0.004694,0.011222,1.997282,0.004694,-0.011222,0.002718,-0.002529,-0.024316,0.000671,-0.000001,0.000686,-0.000824,-0.000050,0.000112,-0.001570,0.000000,-0.000018,0.000487
1770742232.692162,0.094244,-0.518381,-0.691654,0.157080,-0.801117,-0.204039,0.000004,0.000019,0.000504,-0.000000,0.000010,-0.000165,0.028919,-0.009989,-0.002127,-0.088890,0.104752,-0.020693,-0.051409,-0.293832,-0.575041,-0.028919,0.009989,0.502127,-0.000637,-0.005948,2.000585,0.000637,0.005948,-0.000585,0.006840,0.009815,-0.000232,0.000042,-0.009852,-0.004537,0.000004,0.000018,0.000503,-0.000000,0.000010,-0.000164
1770742292.192206,-0.706867,0.141373,-0.518197,-0.502655,-0.863912,0.518499,0.000008,-0.000001,-0.000166,-0.000000,-0.000026,-0.000136,0.007548,0.009992,-0.000448,-0.083061,0.060044,0.069344,-0.038918,-0.161417,-0.625583,-0.007548,-0.009992,0.500448,0.001141,-0.005471,1.999593,-0.001141,0.005471,0.000407,0.003249,0.010682,0.000455,-0.000009,0.009988,-0.000820,0.000008,-0.000001,-0.000166,-0.000000,-0.000026,-0.000136
1770742344.592224,0.361212,0.125125,0.365949,-0.204204,-0.172709,0.520925,0.000071,0.000539,-0.004666,0.000000,-0.000079,-0.002562,0.075603,0.009989,0.007254,-0.157848,0.147542,0.045915,0.032234,0.090249,-0.651452,-0.075603,-0.009989,0.492746,-0.004611,0.012282,1.997852,0.004611,-0.012282,0.002148,-0.003469,-0.026069,0.000212,0.000145,0.008855,0.015206,0.000071,0.000539,-0.004661,0.000000,-0.000079,-0.002559
1770742378.592305,-0.675583,0.439450,0.113924,-0.565487,-0.455220,-0.327201,0.000141,0.000373,-0.003969,-0.000000,-0.000311,-0.002666,-0.012148,0.009999,-0.025129,-0.028216,-0.047029,0.067660,-0.039626,0.173497,-0.668724,0.012148,-0.009999,0.525129,0.012613,-0.016607,2.000700,-0.012613,0.016607,-0.000700,-0.005178,0.041332,-0.001150,-0.000502,0.009378,-0.050323,0.000141,0.000372,-0.003965,-0.000000,-0.000311,-0.002664
1770742408.692261,-0.785406,0.141394,-0.502506,-0.188496,-1.178094,0.597007,0.000008,-0.000022,-0.000149,0.000000,-0.000003,-0.000105,-0.008392,-0.004333,-0.001332,-0.014311,0.045255,0.054782,-0.069602,0.138424,-0.661201,0.008392,0.004333,0.501332,0.010841,-0.005557,1.996539,-0.010841,0.005557,0.003461,-0.013674,0.020175,0.003230,0.000012,-0.004351,-0.002625,0.000008,-0.000022,-0.000149,0.000000,-0.000003,-0.000104
1770742445.892320,0.376991,-0.267012,0.109766,0.486947,-0.109956,0.125856,-0.000000,-0.000023,0.000190,0.000000,0.000000,-0.000193,0.058146,-0.009992,0.012304,-0.129739,0.142102,-0.027535,-0.051017,-0.125407,-0.633755,-0.058146,0.009992,0.487696,-0.004319,0.014696,1.996694,0.004319,-0.014696,0.003306,-0.006168,-0.030121,0.001493,-0.000245,-0.011394,0.023960,-0.000000,-0.000023,0.000190,0.000000,0.000000,-0.000193
1770742475.992256,0.314131,0.769651,-0.517688,-0.172788,-0.486929,0.204513,0.000028,0.000039,-0.000675,-0.000000,-0.000018,-0.000309,0.063642,0.004388,0.003284,-0.143461,0.137266,0.035769,0.021434,-0.074944,-0.640261,-0.063642,-0.004388,0.496716,-0.008457,0.007039,2.003732,0.008457,-0.007039,-0.003732,0.008137,-0.020135,-0.005054,0.000029,0.003957,0.006827,0.000028,0.000039,-0.000674,-0.000000,-0.000018,-0.000309
1770742540.792454,-0.439849,0.691095,0.362787,-0.047124,-1.083847,0.188686,0.000026,0.000056,-0.001504,0.000000,-0.000002,-0.000190,0.003710,0.009981,-0.001516,-0.077298,0.053428,0.071390,-0.044458,0.240285,-0.689370,-0.003710,-0.009981,0.501516,0.005338,-0.005756,1.999294,-0.005338,0.005756,0.000706,-0.003815,0.015208,0.000800,-0.000030,0.009982,-0.002992,0.000026,0.000056,-0.001503,0.000000,-0.000002,-0.000190
1770742570.892229,0.502938,0.626709,0.674375,0.644026,-0.674152,-0.557402,-0.000283,0.001610,-0.014641,0.000000,-0.001291,0.007623,0.076430,0.002538,0.030329,-0.162273,0.160431,0.058561,-0.053246,0.224459,-0.683292,-0.076430,-0.002538,0.469671,-0.005734,0.019731,1.995525,0.005734,-0.019731,0.004475,-0.007616,-0.040563,0.001397,0.000154,-0.002099,0.060614,-0.000283,0.001608,-0.014626,0.000000,-0.001289,0.007615
1770742600.992166,-0.455398,0.109556,0.381861,0.644026,-0.831914,0.013565,-0.000133,0.000400,-0.004870,0.000000,-0.000608,0.002143,-0.011612,0.004520,-0.037016,0.020134,-0.040776,0.055439,-0.042622,0.247011,-0.692739,0.011612,-0.004520,0.537016,0.011427,-0.013971,1.992436,-0.011427,0.013971,0.007564,-0.005302,0.035751,0.007165,-0.000334,0.003656,-0.074005,-0.000133,0.000400,-0.004865,0.000000,-0.000607,0.002140
1770742674.492229,-0.298446,-0.455518,-0.204573,-0.157080,-0.722570,-0.314186,-0.000005,-0.000013,0.000370,-0.000000,0.000003,0.000027,0.025881,-0.009985,-0.000835,-0.090695,0.106407,0.021953,-0.059823,-0.160513,-0.625637,-0.025881,0.009985,0.500835,-0.002622,0.000042,2.000016,0.002622,-0.000042,-0.000016,0.004555,-0.002590,-0.000037,0.000017,-0.009929,-0.001927,-0.000005,-0.000013,0.000370,-0.000000,0.000003,0.000027
1770742704.592172,0.753876,-0.392827,0.488979,-0.534071,-1.319298,-0.754268,0.000106,0.000128,-0.002032,-0.000000,-0.000171,0.000285,0.111211,-0.001305,0.023186,-0.174927,0.175710,-0.055974,0.053466,-0.197549,-0.612889,-0.111211,0.001305,0.476814,-0.018084,0.024543,1.994057,0.018084,-0.024543,0.005943,0.009588,-0.060440,-0.000763,-0.000060,-0.006437,0.045895,0.000106,0.000128,-0.002030,-0.000000,-0.000171,0.000285
1770742787.292220,-0.298705,-0.173931,0.733596,-0.722566,-0.972868,0.475616,0.000254,0.001144,-0.011030,-0.000000,-0.001026,-0.004377,0.033561,0.009992,0.001254,-0.121089,0.107891,0.069596,-0.042682,0.266208,-0.698562,-0.033561,-0.009992,0.498746,0.005055,-0.001524,2.000267,-0.005055,0.001524,-0.000267,-0.007416,0.007507,0.000059,0.000025,0.009892,0.002838,0.000254,0.001143,-0.011019,-0.000000,-0.001025,-0.004373
1770742817.392195,-0.502635,-0.455544,0.314700,0.188496,-1.382288,0.455688,-0.000020,0.000013,-0.000541,0.000000,-0.000012,-0.000157,-0.003572,-0.006393,-0.016137,-0.024477,0.055782,0.043908,-0.066639,0.235606,-0.688212,0.003572,0.006393,0.516137,0.014071,-0.008618,1.996163,-0.014071,0.008618,0.003837,-0.015978,0.028863,0.003628,0.000206,-0.006502,-0.032218,-0.000020,0.000013,-0.000540,0.000000,-0.000012,-0.000157
1770742851.192297,0.424057,0.549580,-0.218029,-0.722566,-0.376743,0.520851,0.000058,0.000198,-0.001882,-0.000000,-0.000248,-0.002488,0.076705,-0.009981,0.021721,-0.151936,0.162572,0.011535,-0.058976,0.141756,-0.659980,-0.076705,0.009981,0.478279,-0.004909,0.017065,2.000243,0.004909,-0.017065,-0.000243,-0.006983,-0.034658,-0.002977,-0.000433,-0.013267,0.042504,0.000058,0.000198,-0.001880,-0.000000,-0.000248,-0.002486
1770742881.292157,-0.675419,0.141256,0.110957,-0.094248,-0.015707,-0.612974,-0.000024,0.000115,-0.001002,0.000000,-0.000001,0.000363,-0.009326,-0.003704,-0.030374,0.025035,0.025840,0.048178,-0.060130,0.114416,-0.656829,0.009326,0.003704,0.530374,0.009587,-0.016621,1.995708,-0.009587,0.016621,0.004292,0.000261,0.038375,0.003931,0.000225,-0.004266,-0.060649,-0.000024,0.000115,-0.001001,0.000000,-0.000001,0.000363
1770742911.292186,-0.361276,0.000015,-0.219794,0.157080,-1.288051,-0.706949,-0.000007,-0.000015,-0.000118,0.000000,-0.000002,0.000091,0.005323,0.007311,0.002078,-0.078731,0.060542,0.069068,-0.047301,0.175250,-0.669278,-0.005323,-0.007311,0.497922,-0.000788,-0.006812,2.000594,0.000788,0.006812,-0.000594,0.007878,0.011209,-0.000592,0.000030,0.007282,0.004191,-0.000007,-0.000015,-0.000118,0.000000,-0.000002,0.000091
1770742941.392206,0.204179,-0.015702,-0.094083,-0.612611,-1.492223,-0.251370,0.000025,-0.000006,-0.000165,-0.000000,-0.000033,0.000042,0.077859,0.002378,0.028996,-0.160358,0.158156,0.048084,-0.040136,0.154326,-0.663315,-0.077859,-0.002378,0.471004,-0.009713,0.019007,1.996616,0.009713,-0.019007,0.003384,0.000069,-0.042781,0.000053,0.000138,-0.002137,0.057943,0.000025,-0.000006,-0.000164,-0.000000,-0.000033,0.000042
1770742971.492220,0.644026,0.392542,0.079797,-0.565487,-0.172732,0.284319,0.000001,0.000157,-0.001257,0.000000,-0.000056,-0.001576,0.089762,-0.007359,0.004751,-0.159974,0.167661,-0.038474,-0.032220,0.058881,-0.647378,-0.089762,0.007359,0.495249,-0.004914,0.015191,1.998078,0.004914,-0.015191,0.001922,-0.005799,-0.031412,-0.000942,-0.000070,-0.008173,0.008796,0.000001,0.000157,-0.001256,0.000000,-0.000056,-0.001574
1770743036.392217,0.675426,-0.502679,-0.706993,0.502655,-1.225239,0.502642,0.000016,0.000024,0.000134,0.000000,0.000018,0.000012,0.040093,-0.009991,-0.003191,-0.103805,0.117788,-0.030230,-0.046739,-0.242488,-0.598371,-0.040093,0.009991,0.503191,-0.000159,-0.005221,2.001191,0.000159,0.005221,-0.001191,0.005321,0.009024,-0.000776,0.000064,-0.009718,-0.006770,0.000016,0.000024,0.000134,0.000000,0.000018,0.000012
1770743119.592193,-0.518262,-0.314560,0.680563,0.376991,-1.162205,0.675687,-0.000101,0.000401,-0.005121,-0.000000,-0.000184,-0.000245,-0.014021,0.009996,-0.001163,-0.032789,-0.044769,0.073754,-0.048587,0.222057,-0.683099,0.014021,-0.009996,0.501163,0.006056,-0.004625,1.999860,-0.006056,0.004625,0.000140,-0.006170,0.013920,0.000006,-0.000023,0.009952,-0.002464,-0.000101,0.000400,-0.005116,-0.000000,-0.000184,-0.000244
1770743149.592205,0.565509,0.047135,-0.109751,0.376991,-1.350868,-0.581314,-0.000022,-0.000011,-0.000205,-0.000000,-0.000017,0.000119,0.078396,-0.000224,0.038250,-0.161375,0.162593,0.049592,-0.053425,0.180472,-0.670111,-0.078396,0.000224,0.461750,-0.007227,0.026424,1.994716,0.007227,-0.026424,0.005284,-0.010595,-0.053948,0.001055,-0.000017,-0.006208,0.076172,-0.000022,-0.000011,-0.000204,-0.000000,-0.000017,0.000119
1770743179.692218,0.455579,0.423738,0.191577,0.392699,-0.188381,-0.489926,-0.000048,0.000377,-0.003082,0.000000,-0.000115,0.002979,0.077433,-0.000195,0.003030,-0.156578,0.157245,0.032378,-0.035465,0.172379,-0.667575,-0.077433,0.000195,0.496970,-0.004765,0.013994,1.999414,0.004765,-0.013994,0.000586,-0.004962,-0.029076,-0.001670,-0.000001,-0.000663,0.006022,-0.000048,0.000376,-0.003079,0.000000,-0.000114,0.002976
1770743209.792212,-0.628523,-0.283608,0.700301,-0.518363,-0.847646,-0.233376,0.000204,0.000865,-0.009151,-0.000000,-0.000584,-0.002244,-0.005632,0.009286,-0.034231,-0.046555,-0.027680,0.063174,-0.032523,0.224404,-0.684603,0.005632,-0.009286,0.534231,0.009740,-0.017591,1.995129,-0.009740,0.017591,0.004871,0.001193,0.040184,0.004629,-0.000634,0.008892,-0.068442,0.000204,0.000864,-0.009142,-0.000000,-0.000583,-0.002241
1770743239.892215,-0.204244,0.643779,0.050055,-0.109956,-0.424120,-0.345245,0.000040,0.000248,-0.002931,0.000000,0.000005,-0.000331,0.024404,0.005600,0.009086,-0.107533,0.099081,0.066431,-0.051645,0.246940,-0.690847,-0.024404,-0.005600,0.490914,0.001598,-0.000025,2.005262,-0.001598,0.000025,-0.005262,-0.002821,0.001677,-0.005202,0.000102,0.005150,0.018286,0.000040,0.000247,-0.002928,0.000000,0.000005,-0.000330
1770743269.992145,-0.392731,0.644063,-0.628098,-0.502655,-1.303720,-0.219901,0.000032,-0.000036,-0.000220,-0.000000,-0.000041,-0.000011,0.023887,-0.002098,0.000986,-0.099329,0.103484,0.052632,-0.060109,0.234452,-0.687428,-0.023887,0.002098,0.499014,0.003365,0.001320,1.998122,-0.003365,-0.001320,0.001878,-0.007169,0.000858,0.001882,-0.000004,-0.002142,0.001920,0.000032,-0.000036,-0.000220,-0.000000,-0.000041,-0.000011
1770743303.392216,0.204294,0.078163,0.633274,0.125664,-1.099521,-0.723840,-0.000090,0.000376,-0.004955,0.000000,-0.000037,0.001273,0.061353,0.009990,0.015188,-0.153704,0.142621,0.072495,-0.044404,0.274044,-0.701136,-0.061353,-0.009990,0.484812,-0.006923,0.009389,1.998746,0.006923,-0.009389,0.001254,0.003507,-0.023074,-0.000197,0.000303,0.008101,0.030898,-0.000090,0.000376,-0.004951,0.000000,-0.000037,0.001272
1770743372.192155,0.329867,0.172789,-0.267048,0.549779,-0.172788,0.361298,0.000000,-0.000001,0.000013,0.000000,0.000000,-0.000015,0.057660,-0.009981,-0.002752,-0.128756,0.140520,-0.024460,-0.050690,0.044281,-0.646906,-0.057660,0.009981,0.502752,-0.002113,0.001383,2.000221,0.002113,-0.001383,-0.000221,0.002370,-0.004437,-0.000453,0.000055,-0.009638,-0.006065,0.000000,-0.000001,0.000013,0.000000,0.000000,-0.000015
1770743426.492200,-0.722563,0.015720,-0.707185,0.000000,-0.502652,-0.738184,-0.000003,-0.000012,0.000326,-0.000000,-0.000003,-0.000090,0.005961,-0.009980,-0.003352,-0.055590,0.078601,0.040819,-0.068948,-0.215690,-0.608983,-0.005961,0.009980,0.503352,0.002122,-0.010300,2.000589,-0.002122,0.010300,-0.000589,0.006218,0.020074,-0.000407,0.000067,-0.009930,-0.006756,-0.000003,-0.000012,0.000326,-0.000000,-0.000003,-0.000090
1770743456.592218,0.549740,-0.691652,0.712816,-0.172788,-0.801054,-0.471097,0.000038,0.000502,-0.005958,-0.000000,-0.000052,-0.000142,0.082011,0.007599,0.022898,-0.159127,0.149885,0.019389,0.049801,-0.186467,-0.617933,-0.082011,-0.007599,0.477102,-0.016540,0.015152,1.992415,0.016540,-0.015152,0.007585,0.015511,-0.042538,0.003989,0.000347,0.003818,0.046216,0.000038,0.000501,-0.005952,-0.000000,-0.000052,-0.000142
1770743486.692208,0.267042,-0.376972,0.204033,0.424115,-0.062827,0.486991,-0.000006,-0.000019,0.000170,0.000000,-0.000005,-0.000044,0.053472,-0.000887,-0.005044,-0.125778,0.126778,-0.010730,-0.011718,-0.191100,-0.616626,-0.053472,0.000887,0.505044,-0.001036,0.000999,2.001558,0.001036,-0.000999,-0.001558,0.000846,-0.002662,-0.001700,0.000009,-0.000346,-0.010111,-0.000006,-0.000019,0.000170,0.000000,-0.000005,-0.000044
1770743519.092191,0.235628,0.157039,-0.219386,0.078540,-0.471236,-0.502809,-0.000008,0.000040,-0.000526,-0.000000,-0.000003,0.000154,0.054432,0.009986,0.001624,-0.136430,0.123497,0.049635,0.029963,-0.112016,-0.635379,-0.054432,-0.009986,0.498376,-0.003310,-0.000787,2.001326,0.003310,0.000787,-0.001326,0.006548,-0.001702,-0.001485,0.000032,0.009784,0.003782,-0.000008,0.000040,-0.000525,-0.000000,-0.000003,0.000154
1770743549.192205,-0.612638,-0.125540,-0.283844,0.722566,-0.330020,-0.453925,0.000027,-0.000124,0.001101,0.000000,0.000153,-0.001606,0.003624,-0.008958,-0.015266,-0.045575,0.072790,0.038304,-0.068472,-0.183658,-0.619990,-0.003624,0.008958,0.515266,0.012913,-0.012068,1.996810,-0.012913,0.012068,0.003190,-0.010596,0.033683,0.003214,0.000273,-0.008839,-0.030532,0.000027,-0.000124,0.001100,0.000000,0.000153,-0.001604
1770743624.692198,0.314093,0.533979,0.347561,-0.361283,-1.036606,-0.156798,0.000066,0.000092,-0.001986,-0.000000,-0.000119,-0.000281,0.080221,0.009988,0.004252,-0.164389,0.154606,0.054335,0.012963,0.189426,-0.672496,-0.080221,-0.009988,0.495748,-0.000903,0.007222,1.998402,0.000903,-0.007222,0.001598,-0.005260,-0.013639,0.000558,0.000085,0.009265,0.009267,0.000066,0.000092,-0.001984,-0.000000,-0.000119,-0.000281
1770743654.792191,0.518149,0.343983,0.769880,-0.314159,-0.580782,-0.043263,0.000214,0.001593,-0.015898,0.000000,-0.000413,-0.003861,0.096331,0.002995,0.007609,-0.174363,0.172263,0.040547,-0.030273,0.193609,-0.673100,-0.096331,-0.002995,0.492391,-0.000399,0.009803,1.997429,0.000399,-0.009803,0.002571,-0.008549,-0.017804,0.000885,0.000045,0.001516,0.015421,0.000214,0.001591,-0.015882,0.000000,-0.000413,-0.003857
1770743684.892158,-0.000076,-0.314414,0.364157,-0.565487,-0.643751,-0.438600,0.000076,0.000255,-0.002874,-0.000000,-0.000275,-0.001223,0.050642,-0.002544,-0.017450,-0.126580,0.130902,0.035161,-0.048470,0.193856,-0.675257,-0.050642,0.002544,0.517450,0.009856,-0.007235,1.993845,-0.009856,0.007235,0.006155,-0.009979,0.021967,0.007244,0.000089,-0.000774,-0.034948,0.000076,0.000255,-0.002871,-0.000000,-0.000275,-0.001222
1770743714.892197,-0.047165,-0.408549,0.504962,-0.235619,-1.068101,-0.722880,0.000041,0.000142,-0.002307,0.000000,-0.000041,0.000313,0.044711,0.005511,-0.003598,-0.128810,0.121632,0.060015,-0.042479,0.227988,-0.684580,-0.044711,-0.005511,0.503598,0.003723,-0.007112,2.002718,-0.003723,0.007112,-0.002718,0.000328,0.016141,-0.001998,-0.000040,0.005821,-0.006936,0.000041,0.000142,-0.002305,0.000000,-0.000041,0.000313
1770743753.492199,0.063049,-0.110950,0.764583,0.565487,-0.941737,0.437845,-0.000217,0.000994,-0.010601,0.000000,-0.000741,0.001978,0.041539,0.009984,0.000457,-0.131291,0.117986,0.071441,-0.042282,0.284614,-0.705147,-0.041539,-0.009984,0.499543,0.001943,-0.004022,2.001860,-0.001943,0.004022,-0.001860,0.000423,0.008982,-0.001491,0.000009,0.009928,0.001326,-0.000217,0.000993,-0.010591,0.000000,-0.000741,0.001976
1770743783.492311,0.141461,0.188384,0.190527,0.518363,-0.926528,-0.032203,-0.000090,0.000112,-0.002032,-0.000000,-0.000242,0.000787,0.046890,0.000812,0.002908,-0.131969,0.131568,0.059594,-0.058706,0.283214,-0.705182,-0.046890,-0.000812,0.497092,0.003456,0.001304,1.999584,-0.003456,-0.001304,0.000416,-0.007312,0.000982,0.000468,0.000005,0.000537,0.005843,-0.000089,0.000112,-0.002029,-0.000000,-0.000241,0.000786
1770743825.692167,-0.424167,-0.408558,0.347444,-0.439823,-0.722440,-0.235025,0.000052,0.000151,-0.001869,-0.000000,-0.000126,-0.000594,0.017552,-0.009982,-0.006155,-0.079421,0.099157,0.036488,-0.069685,0.218927,-0.682756,-0.017552,0.009982,0.506155,0.006927,-0.005367,1.998890,-0.006927,0.005367,0.001110,-0.006916,0.016069,0.001322,0.000123,-0.009755,-0.012471,0.000052,0.000151,-0.001867,-0.000000,-0.000126,-0.000594
1770743855.692171,-0.455569,0.109662,0.238915,-0.047124,-0.455525,0.408912,0.000038,0.000293,-0.003296,0.000000,-0.000006,-0.000505,0.005063,0.002580,-0.005876,-0.071766,0.064085,0.062448,-0.053448,0.235234,-0.687020,-0.005063,-0.002580,0.505876,0.001206,-0.009161,2.003597,-0.001206,0.009161,-0.003597,0.006751,0.017197,-0.003524,-0.000030,0.002637,-0.011727,0.000038,0.000293,-0.003292,0.000000,-0.000006,-0.000505
1770743956.792221,0.298486,-0.502672,-0.771026,-0.738274,-0.738620,-0.268098,-0.000035,0.000018,0.001335,-0.000000,0.000346,0.001062,0.044107,-0.009986,-0.002154,-0.103631,0.116569,-0.048835,-0.021524,-0.337331,-0.550681,-0.044107,0.009986,0.502154,-0.007343,-0.001781,1.999887,0.007343,0.001781,0.000113,0.014570,-0.003950,0.000084,0.000043,-0.009777,-0.004740,-0.000035,0.000018,0.001334,-0.000000,0.000345,0.001061
1770744010.892136,-0.675443,0.141372,-0.345577,-0.691150,-0.047124,-0.471236,0.000000,-0.000000,0.000002,0.000000,-0.000000,-0.000002,0.001399,0.009980,-0.001752,-0.073315,0.044064,0.072277,-0.042311,-0.248472,-0.596320,-0.001399,-0.009980,0.501752,0.000690,-0.009287,1.999673,-0.000690,0.009287,0.000327,0.007718,0.016931,0.000273,-0.000035,0.009975,-0.003487,0.000000,-0.000000,0.000002,0.000000,-0.000000,-0.000002
1770744056.592213,0.534053,-0.659714,-0.251511,0.753982,-0.141374,0.408656,0.000017,-0.000020,0.000184,0.000000,0.000002,-0.000249,0.035923,-0.009996,0.001306,-0.096088,0.112578,-0.040366,-0.042557,-0.321258,-0.560736,-0.035923,0.009996,0.498694,-0.000563,0.005855,1.999259,0.000563,-0.005855,0.000741,-0.004614,-0.010831,0.000305,-0.000026,-0.010073,0.002248,0.000017,-0.000020,0.000183,0.000000,0.000002,-0.000249
1770744086.692227,0.753924,-0.549569,0.029669,0.329867,-0.172797,0.142762,0.000058,-0.000209,0.001747,-0.000000,0.000010,-0.001390,0.054857,0.000561,0.003330,-0.122850,0.121242,-0.039408,0.044115,-0.317716,-0.561947,-0.054857,-0.000561,0.496670,-0.007428,0.006882,1.998638,0.007428,-0.006882,0.001362,0.006497,-0.019206,0.000304,0.000004,0.000195,0.006675,0.000058,-0.000209,0.001746,-0.000000,0.000010,-0.001389
1770744116.792195,-0.691145,-0.628325,-0.534098,-0.408407,-1.429427,-0.172783,-0.000005,0.000006,0.000027,-0.000000,0.000002,-0.000005,0.025154,0.007604,-0.005010,-0.099488,0.085289,0.050934,0.005456,-0.289015,-0.577727,-0.025154,-0.007604,0.505010,-0.000539,-0.006331,2.000235,0.000539,0.006331,-0.000235,0.007061,0.010553,-0.000024,-0.000076,0.007846,-0.009815,-0.000005,0.000006,0.000027,-0.000000,0.000002,-0.000005
1770744146.792222,-0.785398,0.439825,-0.644049,0.047124,-0.298451,-0.565479,0.000000,-0.000002,0.000022,0.000000,-0.000000,-0.000007,-0.004604,0.009402,-0.006698,-0.060815,0.022529,0.074420,-0.048446,-0.253672,-0.593648,0.004604,-0.009402,0.506698,0.004998,-0.012532,2.003193,-0.004998,0.012532,-0.003193,0.003390,0.026723,-0.003345,-0.000126,0.009331,-0.013425,0.000000,-0.000002,0.000022,0.000000,-0.000000,-0.000007
1770744227.092170,-0.188467,0.612616,-0.376345,0.267035,-0.832483,-0.424483,-0.000028,-0.000005,-0.000646,0.000000,-0.000040,0.000368,0.019369,0.009993,0.001085,-0.101242,0.085422,0.066729,-0.038730,0.177473,-0.669896,-0.019369,-0.009993,0.498915,0.003914,0.002760,2.000084,-0.003914,-0.002760,-0.000084,-0.009505,-0.001100,-0.000010,0.000022,0.009939,0.002360,-0.000028,-0.000005,-0.000645,0.000000,-0.000039,0.000368
1770744305.092232,0.581231,-0.298278,-0.284262,-0.439823,-0.298578,0.391118,-0.000037,-0.000174,0.001519,-0.000000,0.000127,0.001581,0.056614,-0.009988,-0.002389,-0.120017,0.132534,-0.050727,-0.024244,-0.260384,-0.590580,-0.056614,0.009988,0.502389,-0.004019,0.003211,1.999670,0.004019,-0.003211,0.000330,0.003945,-0.009495,-0.000168,0.000048,-0.009692,-0.005330,-0.000037,-0.000174,0.001517,-0.000000,0.000127,0.001579
1770744404.692263,0.000056,0.454868,0.636489,0.062832,-0.785381,-0.299328,-0.000056,0.000663,-0.008170,0.000000,-0.000017,0.000876,0.042110,0.009992,0.002018,-0.131652,0.120012,0.069691,-0.043908,0.281540,-0.704396,-0.042110,-0.009992,0.497982,0.004913,0.001785,2.000268,-0.004913,-0.001785,-0.000268,-0.010330,0.001560,-0.000099,0.000040,0.009803,0.004449,-0.000055,0.000662,-0.008162,0.000000,-0.000017,0.000875
1770744434.792202,-0.581050,0.108557,0.702248,0.486947,-0.297803,-0.746294,-0.000145,0.001399,-0.011097,0.000000,-0.000648,0.008019,-0.017116,-0.001312,-0.027279,0.054420,-0.045510,0.048812,-0.057214,0.271087,-0.701429,0.017116,0.001312,0.527279,0.016467,-0.013460,1.993192,-0.016467,0.013460,0.006808,-0.014910,0.039905,0.006100,0.000071,-0.002244,-0.054472,-0.000145,0.001398,-0.011086,0.000000,-0.000647,0.008011
1770744472.392287,-0.471212,-0.267324,0.504890,0.486947,-0.204088,-0.551927,-0.000027,0.000289,-0.002236,0.000000,-0.000116,0.002149,0.002714,-0.009982,0.003543,-0.050863,0.078317,0.043895,-0.073984,0.213669,-0.680954,-0.002714,0.009982,0.496457,0.005980,-0.000727,1.998781,-0.005980,0.000727,0.001219,-0.009826,0.006965,0.001138,-0.000071,-0.009991,0.007052,-0.000027,0.000289,-0.002233,0.000000,-0.000115,0.002147
1770744569.992232,0.722588,-0.392650,-0.722971,-0.439823,-0.125680,0.015011,-0.000022,-0.000050,0.000405,-0.000000,0.000016,0.000697,0.035457,-0.009991,-0.001705,-0.095650,0.109610,-0.037807,-0.037888,-0.329066,-0.555763,-0.035457,0.009991,0.501705,-0.007116,-0.001397,1.999975,0.007116,0.001397,0.000025,0.013807,-0.004393,0.000007,0.000034,-0.009854,-0.003759,-0.000022,-0.000049,0.000405,-0.000000,0.000016,0.000697
1770744639.992216,0.738286,-0.282737,-0.251256,0.486947,-1.476540,-0.549818,-0.000012,-0.000006,-0.000071,0.000000,-0.000009,0.000039,0.073367,0.009988,0.003763,-0.150002,0.138750,0.024067,0.051671,-0.189973,-0.616546,-0.073367,-0.009988,0.496237,-0.003439,0.005038,1.999150,0.003439,-0.005038,0.000850,0.001259,-0.012153,-0.000054,0.000075,0.009401,0.008229,-0.000012,-0.000006,-0.000071,0.000000,-0.000009,0.000039
1770744677.692212,0.110079,-0.660357,0.712746,0.769690,-0.596317,0.735473,-0.000123,0.000622,-0.005887,0.000000,-0.000586,0.002801,0.040614,0.009996,-0.003922,-0.122255,0.108596,0.055987,0.004332,-0.076301,-0.641590,-0.040614,-0.009996,0.503922,0.004679,-0.005380,1.999542,-0.004679,0.005380,0.000458,-0.002992,0.013895,0.001053,-0.000078,0.010296,-0.007425,-0.000123,0.000622,-0.005881,0.000000,-0.000585,0.002798
1770744732.092206,0.518389,0.408415,0.063073,0.424115,-1.429397,0.581298,-0.000026,-0.000008,-0.000242,-0.000000,-0.000028,-0.000103,0.080621,0.009987,0.005494,-0.164193,0.154368,0.053538,0.016220,0.177703,-0.668904,-0.080621,-0.009987,0.494506,-0.000493,0.006647,1.997420,0.000493,-0.006647,0.002580,-0.005409,-0.012330,0.001644,0.000110,0.009061,0.011745,-0.000026,-0.000008,-0.000241,-0.000000,-0.000028,-0.000103
1770744762.192191,-0.282728,0.502633,-0.455011,0.251327,-0.581172,0.156876,-0.000015,0.000022,-0.000520,-0.000000,-0.000023,0.000204,0.017162,-0.001452,-0.023817,-0.081820,0.087100,0.044226,-0.053367,0.172129,-0.669363,-0.017162,0.001452,0.523817,0.014845,-0.012541,1.996445,-0.014845,0.012541,0.003555,-0.013155,0.036466,0.004158,0.000069,-0.000634,-0.047605,-0.000015,0.000022,-0.000520,-0.000000,-0.000023,0.000204
1770744813.992213,0.502663,-0.612662,0.550179,0.565487,-0.235599,-0.314532,-0.000008,0.000051,-0.000401,0.000000,-0.000021,0.000372,0.062259,-0.009994,0.000134,-0.131001,0.143204,-0.037476,-0.044064,-0.136820,-0.630955,-0.062259,0.009994,0.499866,-0.000663,0.003903,2.000238,0.000663,-0.003903,-0.000238,-0.002572,-0.007449,-0.000728,-0.000003,-0.009981,-0.000354,-0.000008,0.000051,-0.000400,0.000000,-0.000021,0.000372
1770744843.992208,0.628343,0.518395,-0.565290,0.408407,-1.319448,-0.471367,-0.000025,-0.000032,-0.000197,-0.000000,-0.000021,0.000128,0.076685,0.007706,0.005442,-0.156520,0.146811,0.039305,0.037417,-0.050435,-0.642044,-0.076685,-0.007706,0.494558,-0.009049,0.003346,2.005258,0.009049,-0.003346,-0.005258,0.012699,-0.014013,-0.006443,0.000084,0.006843,0.011431,-0.000025,-0.000032,-0.000197,-0.000000,-0.000021,0.000128
1770744898.992206,0.659733,-0.392695,-0.345537,-0.172788,-1.178096,0.628344,0.000002,-0.000004,-0.000039,-0.000000,-0.000001,-0.000025,0.073930,-0.009990,-0.003292,-0.136395,0.147894,-0.057718,0.007911,-0.229775,-0.602911,-0.073930,0.009990,0.503292,-0.001078,0.001216,2.001076,0.001078,-0.001216,-0.001076,0.000726,-0.003079,-0.001299,0.000066,-0.009467,-0.007296,0.000002,-0.000004,-0.000039,-0.000000,-0.000001,-0.000025
1770744951.692230,-0.219915,0.157095,-0.502481,-0.109956,-0.989600,-0.345598,0.000003,-0.000016,-0.000174,0.000000,-0.000001,0.000023,0.026823,0.009997,-0.001763,-0.108212,0.091280,0.064256,-0.027406,-0.037852,-0.644724,-0.026823,-0.009997,0.501763,0.002959,-0.009632,2.000022,-0.002959,0.009632,-0.000022,0.004072,0.019710,0.000466,-0.000035,0.010077,-0.003253,0.000003,-0.000016,-0.000174,0.000000,-0.000001,0.000023
1770745030.592175,0.502661,-0.455446,-0.629125,0.078540,-0.188502,-0.392357,-0.000007,-0.000085,0.000807,0.000000,0.000007,-0.000342,0.033166,-0.009988,-0.001624,-0.093121,0.108242,-0.033298,-0.043994,-0.318008,-0.562181,-0.033166,0.009988,0.501624,-0.002221,-0.002367,2.000052,0.002221,0.002367,-0.000052,0.006165,0.002011,0.000077,0.000032,-0.009865,-0.003573,-0.000007,-0.000085,0.000806,0.000000,0.000007,-0.000342
1770745126.392165,-0.549778,0.314170,-0.204146,0.047124,-1.445133,-0.439857,-0.000001,-0.000011,-0.000057,-0.000000,0.000000,0.000034,-0.010267,0.009984,-0.000693,-0.046379,-0.028143,0.072644,-0.048316,0.204835,-0.677690,0.010267,-0.009984,0.500693,0.006299,-0.001084,2.000035,-0.006299,0.001084,-0.000035,-0.010000,0.007942,-0.000017,-0.000014,0.009959,-0.001487,-0.000001,-0.000011,-0.000057,-0.000000,0.000000,0.000034
1770745156.492222,0.518443,-0.000061,0.111190,0.738274,-1.146480,-0.377607,-0.000080,0.000061,-0.001235,0.000000,-0.000201,0.000615,0.068675,0.002959,0.031630,-0.154389,0.152390,0.054890,-0.048989,0.191330,-0.673638,-0.068675,-0.002959,0.468370,-0.006082,0.024133,1.992927,0.006082,-0.024133,0.007073,-0.010903,-0.048883,0.003752,0.000187,-0.001387,0.063251,-0.000080,0.000061,-0.001233,0.000000,-0.000201,0.000615
1770745186.492232,0.298452,0.329877,0.015815,-0.015708,-1.413717,-0.345619,-0.000001,-0.000010,-0.000107,-0.000000,-0.000000,0.000043,0.072051,0.008202,0.006104,-0.159132,0.150643,0.058297,-0.027736,0.225746,-0.683159,-0.072051,-0.008202,0.493896,-0.006082,0.013375,2.001716,0.006082,-0.013375,-0.001716,-0.001983,-0.029093,-0.003802,0.000100,0.007294,0.012754,-0.000001,-0.000010,-0.000107,-0.000000,-0.000000,0.000043
1770745216.592171,-0.172625,0.753568,0.600103,-0.628319,-0.109919,0.426457,-0.000163,0.000414,-0.003200,-0.000000,-0.000036,-0.002342,0.028322,0.006391,-0.017133,-0.109380,0.100175,0.059185,-0.039679,0.255435,-0.694256,-0.028322,-0.006391,0.517133,0.005402,-0.005196,2.002812,-0.005402,0.005196,-0.002812,-0.004267,0.014433,-0.002374,-0.000219,0.007351,-0.034036,-0.000162,0.000414,-0.003197,-0.000000,-0.000036,-0.002340
1770745246.592193,0.628323,0.407782,0.777272,0.031416,-1.083853,0.582068,-0.000005,0.000625,-0.007582,0.000000,0.000003,-0.000873,0.097443,-0.006174,0.025607,-0.173601,0.179878,0.031662,-0.056757,0.197597,-0.674269,-0.097443,0.006174,0.474393,-0.004067,0.018825,1.995392,0.004067,-0.018825,0.004608,-0.009981,-0.037437,0.000904,-0.000316,-0.011116,0.050319,-0.000005,0.000624,-0.007575,0.000000,0.000003,-0.000872
1770745276.592214,0.424219,0.769543,0.112399,0.251327,-0.753884,-0.519525,-0.000104,0.000148,-0.002443,0.000000,-0.000098,0.001162,0.073016,0.001896,-0.007050,-0.154283,0.152226,0.045020,-0.037371,0.215684,-0.680518,-0.073016,-0.001896,0.507050,-0.001158,0.001538,1.998914,0.001158,-0.001538,0.001086,0.000534,-0.003879,0.000803,-0.000027,0.002917,-0.013910,-0.000104,0.000147,-0.002440,0.000000,-0.000098,0.001161
1770745306.692237,-0.141365,-0.235675,0.283278,0.753982,-0.251295,0.706340,-0.000007,0.000056,-0.000535,0.000000,-0.000032,0.000519,0.029484,-0.007424,-0.019268,-0.096775,0.109751,0.030592,-0.060134,0.187846,-0.674148,-0.029484,0.007424,0.519268,0.010482,-0.010361,1.990760,-0.010482,0.010361,0.009240,-0.007978,0.028082,0.010004,0.000286,-0.006279,-0.038698,-0.000007,0.000055,-0.000535,0.000000,-0.000032,0.000518
1770745375.592205,0.408410,-0.706849,0.251191,-0.345575,-0.722574,-0.345605,-0.000003,-0.000010,0.000137,-0.000000,0.000008,0.000030,0.060338,-0.009991,-0.002392,-0.126698,0.138175,-0.043187,-0.034270,-0.200272,-0.613613,-0.060338,0.009991,0.502392,-0.003518,-0.000225,1.999880,0.003518,0.000225,0.000120,0.006376,-0.002996,0.000003,0.000048,-0.009674,-0.005372,-0.000003,-0.000010,0.000137,-0.000000,0.000008,0.000030
1770745444.792179,-0.659557,0.674696,0.448254,0.738274,-0.705848,0.341463,-0.000178,0.000747,-0.008431,0.000000,-0.001010,0.004112,-0.026800,0.009982,-0.003122,0.047613,-0.074194,0.078426,-0.053972,0.162726,-0.666482,0.026800,-0.009982,0.503122,0.006797,-0.010866,1.997623,-0.006797,0.010866,0.002377,-0.001405,0.025623,0.001703,-0.000062,0.009802,-0.006503,-0.000178,0.000746,-0.008423,0.000000,-0.001009,0.004108
1770745527.092172,0.377000,-0.078523,-0.785514,-0.392699,-0.047133,0.518006,-0.000009,-0.000016,0.000116,-0.000000,0.000010,0.000356,0.039746,-0.009995,-0.001365,-0.102428,0.116596,-0.039251,-0.039525,-0.287366,-0.578189,-0.039746,0.009995,0.501365,-0.005276,0.003019,1.999600,0.005276,-0.003019,0.000400,0.006340,-0.010366,0.000051,0.000027,-0.009869,-0.003122,-0.000009,-0.000016,0.000116,-0.000000,0.000010,0.000356
1770745586.492206,-0.596891,-0.361360,0.503326,-0.455531,-0.109962,-0.250960,-0.000011,0.000077,-0.000671,-0.000000,0.000006,-0.000368,-0.000373,0.009981,-0.001370,-0.070450,0.040924,0.072365,-0.044138,-0.144971,-0.629483,0.000373,-0.009981,0.501370,0.001763,-0.006120,2.000418,-0.001763,0.006120,-0.000418,0.002784,0.012416,-0.000450,-0.000027,0.009970,-0.002742,-0.000011,0.000077,-0.000671,-0.000000,0.000006,-0.000368
1770745624.292216,-0.172797,-0.251226,-0.456519,0.141372,-0.235622,0.110402,0.000010,-0.000101,0.000988,0.000000,0.000003,-0.000446,0.028719,-0.009992,0.003740,-0.092587,0.109272,-0.009694,-0.057218,-0.231979,-0.602876,-0.028719,0.009992,0.496260,0.001143,0.007178,1.999581,-0.001143,-0.007178,0.000419,-0.008841,-0.011530,-0.000001,-0.000075,-0.010192,0.007182,0.000010,-0.000101,0.000987,0.000000,0.000003,-0.000446
1770745711.992155,0.062901,0.172698,0.190246,0.345575,-0.926651,-0.534923,-0.000069,0.000089,-0.001750,0.000000,-0.000119,0.000852,0.041352,0.009985,0.002101,-0.129764,0.117770,0.066881,-0.038790,0.250192,-0.692513,-0.041352,-0.009985,0.497899,0.002919,0.004054,1.999951,-0.002919,-0.004054,0.000049,-0.008990,-0.004333,-0.000041,0.000042,0.009793,0.004606,-0.000069,0.000089,-0.001748,0.000000,-0.000119,0.000851
1770745742.592196,0.031409,-0.000015,0.188610,0.502655,-0.015708,-0.518469,0.000007,0.000015,-0.000114,0.000000,0.000000,0.000106,0.042497,-0.009985,-0.000359,-0.115707,0.130227,0.026963,-0.065561,0.197086,-0.675748,-0.042497,0.009985,0.500359,0.007171,0.005598,1.996704,-0.007171,-0.005598,0.003296,-0.017969,-0.003071,0.002986,0.000007,-0.009935,-0.001140,0.000007,0.000015,-0.000114,0.000000,0.000000,0.000106
1770745772.692189,0.062816,0.361277,-0.549398,-0.691150,-0.769606,0.220247,0.000016,0.000006,-0.000381,-0.000000,-0.000084,-0.000335,0.056339,-0.009552,0.003300,-0.130053,0.141990,0.008774,-0.057658,0.137139,-0.659704,-0.056339,0.009552,0.496700,0.000443,0.006667,2.001137,-0.000443,-0.006667,-0.001137,-0.007115,-0.011202,-0.001838,-0.000063,-0.009898,0.006045,0.000016,0.000006,-0.000380,-0.000000,-0.000084,-0.000335
1770745802.692246,0.628493,0.203567,0.651464,0.345575,-0.989325,-0.205802,-0.000175,0.000637,-0.007438,0.000000,-0.000277,0.001598,0.096614,0.007956,0.016228,-0.177596,0.169472,0.049350,0.019596,0.172468,-0.666726,-0.096614,-0.007956,0.483772,-0.012074,0.012775,1.999826,0.012074,-0.012775,0.000174,0.009485,-0.033668,-0.003164,0.000258,0.004783,0.033038,-0.000174,0.000636,-0.007430,0.000000,-0.000276,0.001597
1770745832.792197,0.141378,-0.345613,0.330186,0.471239,-0.204196,0.093985,-0.000006,0.000038,-0.000319,0.000000,-0.000007,0.000263,0.048172,-0.008978,-0.017791,-0.117647,0.130503,-0.017836,-0.053594,0.120340,-0.658297,-0.048172,0.008978,0.517791,0.007802,-0.004728,1.991162,-0.007802,0.004728,0.008838,-0.008948,0.015483,0.009506,0.000319,-0.007247,-0.035936,-0.000006,0.000038,-0.000319,0.000000,-0.000007,0.000263
1770745862.792278,0.628349,-0.141646,0.317422,0.031416,-0.549778,-0.613141,-0.000030,0.000274,-0.003263,-0.000000,-0.000000,0.000531,0.089228,-0.003068,0.011132,-0.162377,0.165405,-0.016557,-0.026807,0.077108,-0.648958,-0.089228,0.003068,0.488868,-0.005252,0.008462,2.001605,0.005252,-0.008462,-0.001605,0.001330,-0.019633,-0.003362,-0.000068,-0.005034,0.021880,-0.000030,0.000274,-0.003260,-0.000000,-0.000000,0.000530
1770745892.892215,0.298461,-0.518383,0.173045,0.518363,-0.769661,-0.597060,-0.000009,0.000020,-0.000257,0.000000,-0.000030,0.000157,0.044742,-0.005792,-0.014240,-0.115025,0.123177,0.014121,-0.046275,-0.057558,-0.643705,-0.044742,0.005792,0.514240,0.005520,-0.008600,1.997773,-0.005520,0.008600,0.002227,-0.001164,0.020265,0.003128,0.000165,-0.004508,-0.028681,-0.000009,0.000020,-0.000257,0.000000,-0.000030,0.000157
1770745965.092166,-0.785405,-0.691080,-0.189694,0.267035,-0.565522,0.612871,0.000007,-0.000070,0.001198,-0.000000,0.000035,-0.000261,0.016339,-0.009995,-0.001419,-0.072825,0.091258,0.026813,-0.061180,-0.292989,-0.575735,-0.016339,0.009995,0.501419,-0.000641,-0.007392,2.000336,0.000641,0.007392,-0.000336,0.008226,0.012337,-0.000052,0.000028,-0.009937,-0.002997,0.000007,-0.000070,0.001197,-0.000000,0.000035,-0.000260
1770745995.092216,-0.282758,0.062890,-0.723260,0.392699,-0.329920,-0.140655,0.000014,-0.000059,0.000694,0.000000,0.000053,-0.000717,0.021649,0.004402,0.001300,-0.095278,0.085607,0.052045,-0.030967,-0.273203,-0.584738,-0.021649,-0.004402,0.498700,-0.005996,-0.004683,2.003236,0.005996,0.004683,-0.003236,0.014981,0.002558,-0.003244,0.000011,0.004341,0.002693,0.000014,-0.000059,0.000693,0.000000,0.000053,-0.000716
1770746065.692203,-0.596957,-0.188750,0.301138,-0.219911,-0.471191,0.095067,0.000054,0.000254,-0.002687,-0.000000,-0.000047,-0.000819,-0.001625,0.009992,-0.000448,-0.067970,0.038816,0.072083,-0.045638,0.070443,-0.649838,0.001625,-0.009992,0.500448,0.003644,-0.002322,2.000045,-0.003644,0.002322,-0.000045,-0.004162,0.007564,-0.000015,-0.000009,0.009980,-0.000911,0.000054,0.000254,-0.002684,-0.000000,-0.000047,-0.000818
1770746098.592201,-0.094307,0.156949,-0.013970,-0.565487,-0.549584,-0.564445,0.000059,0.000130,-0.001738,-0.000000,-0.000195,-0.001041,0.040818,0.009992,0.014117,-0.128481,0.115640,0.064475,-0.031979,0.156721,-0.664193,-0.040818,-0.009992,0.485883,-0.003673,0.011324,2.000526,0.003673,-0.011324,-0.000526,-0.004081,-0.023394,-0.001441,0.000282,0.008823,0.028588,0.000059,0.000130,-0.001737,-0.000000,-0.000195,-0.001040
1770746152.092213,-0.377140,0.564583,0.528152,-0.172788,-0.486891,-0.234032,0.000149,0.000904,-0.009790,0.000000,-0.000056,-0.001588,0.008031,0.009988,-0.001854,-0.085285,0.064762,0.070122,-0.042874,0.265056,-0.698104,-0.008031,-0.009988,0.501854,0.004376,-0.001198,1.999213,-0.004376,0.001198,0.000787,-0.006505,0.006297,0.000902,-0.000037,0.010008,-0.003624,0.000148,0.000903,-0.009780,0.000000,-0.000056,-0.001586
1770746188.292161,0.031414,-0.455715,0.676864,0.628319,-0.172709,-0.645730,0.000001,0.000184,-0.001421,0.000000,-0.000078,0.001703,0.040578,-0.009998,0.008327,-0.115141,0.130620,0.030448,-0.068785,0.200208,-0.678005,-0.040578,0.009998,0.491673,0.002972,0.011079,1.992154,-0.002972,-0.011079,0.007846,-0.015763,-0.017009,0.006997,-0.000166,-0.010655,0.016217,0.000001,0.000184,-0.001420,0.000000,-0.000078,0.001702
1770746226.192157,-0.298534,0.361129,0.222397,-0.235619,-0.816722,0.708048,0.000083,0.000154,-0.002485,-0.000000,-0.000093,-0.001190,0.022400,0.009983,-0.003382,-0.107508,0.090166,0.069884,-0.038159,0.269441,-0.698663,-0.022400,-0.009983,0.503382,-0.001371,-0.002506,2.003797,0.001371,0.002506,-0.003797,0.004776,0.003150,-0.003772,-0.000067,0.010122,-0.006532,0.000083,0.000154,-0.002483,-0.000000,-0.000092,-0.001189
1770746313.792202,0.424046,-0.581147,-0.268251,0.753982,-0.801377,0.079360,0.000069,-0.000047,0.001216,0.000000,0.000271,-0.000820,0.032827,-0.009988,-0.001618,-0.097443,0.111603,-0.016533,-0.051832,-0.227874,-0.604384,-0.032827,0.009988,0.501618,-0.004536,-0.001617,1.999720,0.004536,0.001617,0.000280,0.009496,-0.001536,0.000324,0.000032,-0.009867,-0.003558,0.000069,-0.000047,0.001215,0.000000,0.000270,-0.000819
1770746402.292227,0.078606,0.675115,0.287046,0.094248,-0.628294,-0.267826,-0.000066,0.000327,-0.004303,-0.000000,-0.000025,0.000791,0.048353,0.009987,0.002372,-0.137097,0.125503,0.066257,-0.036685,0.245411,-0.690700,-0.048353,-0.009987,0.497628,0.001964,0.002791,2.000142,-0.001964,-0.002791,-0.000142,-0.006112,-0.003020,-0.000227,0.000047,0.009737,0.005215,-0.000066,0.000327,-0.004299,-0.000000,-0.000025,0.000790
1770746432.392250,-0.424005,0.564836,0.336565,0.125664,-0.361234,-0.158616,-0.000110,0.000651,-0.006698,0.000000,-0.000049,0.001536,0.002108,0.004594,-0.019406,-0.063308,0.052744,0.059486,-0.048093,0.262969,-0.697832,-0.002108,-0.004594,0.519406,0.011085,-0.010496,1.998066,-0.011085,0.010496,0.001934,-0.008810,0.029194,0.002034,-0.000178,0.004671,-0.038763,-0.000110,0.000650,-0.006691,0.000000,-0.000049,0.001535
1770746462.492160,-0.078461,0.486912,0.173923,0.628319,-1.209348,-0.000277,-0.000079,0.000035,-0.001136,0.000000,-0.000166,0.000277,0.019489,0.005177,0.005957,-0.100799,0.092762,0.066965,-0.054122,0.282591,-0.704954,-0.019489,-0.005177,0.494043,0.003199,-0.000831,2.000967,-0.003199,0.000831,-0.000967,-0.004844,0.004510,-0.000854,0.000062,0.004939,0.011999,-0.000079,0.000035,-0.001135,0.000000,-0.000165,0.000277
1770746492.492197,-0.785341,0.062623,0.395883,0.219911,-0.910975,-0.409289,-0.000057,0.000209,-0.003184,-0.000000,-0.000087,0.000882,-0.036159,-0.006739,-0.024083,0.094896,-0.080457,0.045092,-0.067570,0.246376,-0.691982,0.036159,0.006739,0.524083,0.014621,-0.014085,1.993106,-0.014621,0.014085,0.006894,-0.011255,0.039204,0.005397,0.000324,-0.008468,-0.047842,-0.000057,0.000209,-0.003181,-0.000000,-0.000087,0.000882
1770746522.592199,0.141340,-0.487439,0.617926,-0.094248,-0.486939,-0.188074,0.000032,0.000492,-0.005316,-0.000000,-0.000008,-0.000421,0.054004,-0.007111,0.035406,-0.135822,0.144679,0.047288,-0.068707,0.197968,-0.676181,-0.054004,0.007111,0.464594,-0.006509,0.018260,1.992477,0.006509,-0.018260,0.007523,-0.004774,-0.038791,0.005396,-0.000503,-0.010912,0.070253,0.000032,0.000492,-0.005311,-0.000000,-0.000008,-0.000421
1770746564.292203,0.015569,0.408097,0.522625,-0.486947,-1.052119,-0.109125,0.000139,0.000310,-0.004262,-0.000000,-0.000314,-0.000831,0.057224,0.009984,0.004105,-0.148458,0.135879,0.068368,-0.033136,0.264791,-0.696288,-0.057224,-0.009984,0.495895,-0.007309,0.006642,2.002146,0.007309,-0.006642,-0.002146,0.006509,-0.018464,-0.003270,0.000082,0.009489,0.008759,0.000139,0.000309,-0.004258,-0.000000,-0.000314,-0.000830
1770746594.292223,-0.722398,0.093318,0.495709,0.392699,-0.533537,-0.616895,-0.000168,0.000930,-0.008762,0.000000,-0.000534,0.004285,-0.029980,-0.003639,-0.040221,0.084833,-0.075115,0.043705,-0.058863,0.234700,-0.688616,0.029980,0.003639,0.540221,0.015998,-0.018050,1.990139,-0.015998,0.018050,0.009861,-0.008900,0.047641,0.008394,0.000292,-0.006042,-0.080216,-0.000168,0.000929,-0.008753,0.000000,-0.000533,0.004281
1770746624.392192,0.266904,-0.597202,0.663346,-0.329867,-1.539307,0.283103,0.000132,0.000299,-0.003611,-0.000000,-0.000073,-0.000360,0.078500,-0.003133,0.041265,-0.161076,0.164697,0.050021,-0.060679,0.193878,-0.674182,-0.078500,0.003133,0.458735,-0.008595,0.021194,1.993304,0.008595,-0.021194,0.006696,-0.003374,-0.045955,0.003085,-0.000258,-0.009585,0.081948,0.000131,0.000299,-0.003607,-0.000000,-0.000073,-0.000359
1770746654.492161,-0.298510,-0.754014,0.377536,-0.675442,-1.287977,-0.534099,0.000059,0.000031,-0.000545,-0.000000,-0.000076,0.000028,0.040524,-0.009459,-0.011520,-0.111029,0.124466,0.013735,-0.057906,0.141463,-0.661531,-0.040524,0.009459,0.511520,0.002273,0.001085,1.998234,-0.002273,-0.001085,0.001766,-0.005039,0.000263,0.001729,0.000217,-0.008509,-0.023379,0.000059,0.000031,-0.000544,-0.000000,-0.000076,0.000028
1770746684.492194,0.518619,0.422838,0.593331,0.345575,-0.423811,0.105543,-0.000256,0.001277,-0.012136,0.000000,-0.000304,0.004413,0.089491,0.007829,0.018426,-0.172625,0.164185,0.052116,0.011235,0.176872,-0.667166,-0.089491,-0.007829,0.481574,-0.012622,0.012931,2.006962,0.012622,-0.012931,-0.006962,0.010330,-0.033811,-0.010098,0.000288,0.004500,0.037367,-0.000256,0.001276,-0.012124,0.000000,-0.000304,0.004408
1770746765.292211,0.188493,-0.392694,-0.267067,0.738274,-0.062835,-0.502536,0.000002,-0.000005,0.000032,0.000000,0.000003,-0.000119,0.037064,-0.009996,-0.002325,-0.100169,0.114305,-0.028077,-0.047361,-0.257615,-0.592052,-0.037064,0.009996,0.502325,-0.002046,-0.004776,2.000327,0.002046,0.004776,-0.000327,0.008181,0.006400,-0.000008,0.000046,-0.009807,-0.005012,0.000002,-0.000005,0.000032,0.000000,0.000003,-0.000119
1770746795.392155,-0.141381,0.047150,-0.377290,0.376991,-0.314164,0.675650,0.000010,-0.000026,0.000299,-0.000000,0.000005,-0.000208,0.030079,0.009951,-0.001453,-0.110134,0.092845,0.057477,0.014348,-0.206708,-0.611650,-0.030079,-0.009951,0.501453,-0.005817,-0.007685,2.001603,0.005817,0.007685,-0.001603,0.017555,0.007927,-0.001539,-0.000029,0.010024,-0.002603,0.000010,-0.000026,0.000299,-0.000000,0.000005,-0.000208
1770746825.392169,0.549777,-0.031410,-0.706818,-0.314159,-1.115262,0.141386,0.000002,-0.000006,-0.000041,-0.000000,-0.000003,-0.000014,0.070902,-0.004284,0.009810,-0.138719,0.143781,-0.045799,0.025842,-0.238292,-0.599789,-0.070902,0.004284,0.490190,-0.005226,0.010798,1.997076,0.005226,-0.010798,0.002924,-0.000957,-0.024097,0.001213,-0.000084,-0.005658,0.019248,0.000002,-0.000006,-0.000041,-0.000000,-0.000003,-0.000014
1770746855.392216,0.753932,0.157060,0.189308,-0.408407,-1.272280,0.471549,0.000050,0.000019,-0.000812,-0.000000,-0.000065,-0.000310,0.115066,0.007899,0.013229,-0.178889,0.170877,-0.052970,0.074888,-0.216011,-0.606081,-0.115066,-0.007899,0.486771,-0.014140,0.017356,1.998487,0.014140,-0.017356,0.001513,0.008760,-0.043739,-0.003603,0.000209,0.004804,0.027163,0.000050,0.000019,-0.000812,-0.000000,-0.000065,-0.000309
1770746912.492172,-0.141400,-0.754020,-0.628568,0.471239,-1.162421,0.518335,0.000029,0.000037,0.000250,0.000000,0.000032,0.000027,0.017618,-0.009984,-0.005173,-0.070909,0.091710,0.018331,-0.060977,-0.312802,-0.565246,-0.017618,0.009984,0.505173,0.006141,-0.010641,2.002935,-0.006141,0.010641,-0.002935,-0.000419,0.024592,-0.002504,0.000103,-0.009790,-0.010509,0.000029,0.000037,0.000249,0.000000,0.000032,0.000027
1770746942.492193,0.612615,-0.157088,-0.659841,-0.424115,-0.973909,0.109905,-0.000004,0.000008,0.000107,-0.000000,0.000015,0.000051,0.067377,0.001711,0.009089,-0.135090,0.132002,-0.045988,0.054221,-0.307192,-0.567057,-0.067377,-0.001711,0.490911,-0.009476,0.007842,2.000014,0.009476,-0.007842,-0.000014,0.009311,-0.022690,-0.001561,0.000031,0.000483,0.018234,-0.000004,0.000008,0.000107,-0.000000,0.000015,0.000051
1770746972.492205,0.675439,-0.298446,-0.628296,-0.471239,-1.492254,0.628336,0.000004,-0.000005,-0.000022,-0.000000,-0.000002,-0.000018,0.079349,0.000002,0.003057,-0.141572,0.141209,-0.061622,0.062453,-0.310501,-0.565537,-0.079349,-0.000002,0.496943,-0.006304,0.008059,1.997735,0.006304,-0.008059,0.002265,0.003394,-0.020275,0.000657,0.000000,-0.000482,0.006089,0.000004,-0.000005,-0.000022,-0.000000,-0.000002,-0.000018
1770747065.692185,-0.581176,0.644048,-0.188286,0.314159,-1.240908,0.267063,-0.000019,-0.000021,-0.000209,0.000000,-0.000021,-0.000027,-0.016906,0.009992,-0.001239,-0.018342,-0.050798,0.074658,-0.051547,0.177405,-0.669881,0.016906,-0.009992,0.501239,0.008516,-0.003675,2.000076,-0.008516,0.003675,-0.000076,-0.011394,0.014614,-0.000209,-0.000025,0.009938,-0.002644,-0.000019,-0.000021,-0.000209,0.000000,-0.000021,-0.000027
1770747100.392255,-0.329868,0.329051,0.478617,-0.109956,-0.078521,0.772775,0.000001,0.000817,-0.007378,-0.000000,-0.000019,-0.003085,0.015646,0.009999,0.010014,-0.099566,0.082760,0.071598,-0.045415,0.236384,-0.688199,-0.015646,-0.009999,0.489986,0.000293,0.007643,1.998193,-0.000293,-0.007643,0.001807,-0.007685,-0.013226,0.001675,0.000200,0.009675,0.020161,0.000001,0.000816,-0.007371,-0.000000,-0.000019,-0.003082
1770747130.492196,-0.408259,0.596487,0.067110,0.565487,-0.486515,-0.286141,-0.000148,0.000416,-0.004278,0.000000,-0.000432,0.003398,-0.000360,0.002029,-0.005836,-0.058739,0.055503,0.058950,-0.055729,0.242779,-0.690011,0.000360,-0.002029,0.505836,0.005601,0.001092,2.001265,-0.005601,-0.001092,-0.001265,-0.010849,0.003513,-0.001243,-0.000024,0.002023,-0.011661,-0.000148,0.000415,-0.004274,0.000000,-0.000432,0.003394
1770747179.992206,0.298410,-0.628374,0.362237,-0.314159,-1.052385,0.204405,0.000041,0.000055,-0.000954,-0.000000,-0.000049,-0.000201,0.069377,-0.009983,0.003955,-0.141937,0.153834,-0.033332,-0.049069,0.077561,-0.650756,-0.069377,0.009983,0.496045,-0.005307,0.014832,1.998072,0.005307,-0.014832,0.001928,-0.004797,-0.031165,-0.000282,-0.000079,-0.010497,0.007192,0.000041,0.000055,-0.000953,-0.000000,-0.000049,-0.000201
1770747209.992216,0.581219,0.454176,0.703758,-0.015708,-0.015708,0.015787,-0.000025,0.001355,-0.012608,0.000000,-0.000000,-0.000079,0.093632,0.005360,0.008787,-0.171700,0.165499,0.032606,0.032060,0.122926,-0.654931,-0.093632,-0.005360,0.491213,-0.012649,0.012434,2.005036,0.012649,-0.012434,-0.005036,0.010539,-0.033204,-0.008228,0.000094,0.003690,0.017980,-0.000025,0.001354,-0.012595,0.000000,-0.000000,-0.000079
1770747240.092202,-0.172803,0.219857,-0.125137,-0.314159,-0.219918,-0.549458,0.000015,0.000054,-0.000527,-0.000000,0.000007,-0.000321,0.027929,0.001047,-0.022772,-0.100700,0.099141,0.045436,-0.041870,0.141097,-0.662174,-0.027929,-0.001047,0.522772,0.006975,-0.012037,1.993829,-0.006975,0.012037,0.006171,-0.000060,0.027614,0.006939,-0.000048,0.002316,-0.045452,0.000015,0.000054,-0.000526,-0.000000,0.000007,-0.000320
1770747270.092233,-0.015561,-0.549987,0.568174,0.486947,-1.397861,-0.251722,-0.000147,0.000208,-0.002687,0.000000,-0.000148,0.000395,0.026426,0.008205,-0.002883,-0.108891,0.095392,0.065486,-0.039130,0.200000,-0.676255,-0.026426,-0.008205,0.502883,0.002215,-0.008167,2.000328,-0.002215,0.008167,-0.000328,0.003984,0.016433,0.000074,-0.000047,0.008346,-0.005541,-0.000147,0.000208,-0.002685,0.000000,-0.000148,0.000394
1770747300.192167,-0.266994,0.581121,-0.438937,0.581195,-0.424006,-0.110899,-0.000041,0.000073,-0.000886,0.000000,-0.000109,0.000943,0.015799,-0.004447,-0.004419,-0.081483,0.091360,0.047087,-0.062646,0.172056,-0.668160,-0.015799,0.004447,0.504419,0.007248,-0.005099,2.002968,-0.007248,0.005099,-0.002968,-0.007742,0.015963,-0.002748,0.000039,-0.004302,-0.008898,-0.000041,0.000073,-0.000885,0.000000,-0.000109,0.000942
1770747330.192168,-0.486954,-0.125655,0.063119,-0.094248,-1.193804,-0.172815,0.000007,-0.000008,-0.000287,-0.000000,-0.000002,0.000027,0.002759,0.005827,-0.004701,-0.070814,0.054855,0.066619,-0.049324,0.208536,-0.679122,-0.002759,-0.005827,0.504701,0.002660,-0.008442,1.997578,-0.002660,0.008442,0.002422,0.003518,0.017327,0.002447,-0.000055,0.005847,-0.009377,0.000007,-0.000008,-0.000287,-0.000000,-0.000002,0.000027
1770747360.292170,0.141374,0.204223,-0.502583,0.047124,-1.382300,0.298481,-0.000002,-0.000019,-0.000072,0.000000,-0.000000,-0.000030,0.053365,0.000350,0.018998,-0.137223,0.137086,0.053374,-0.053025,0.195722,-0.674444,-0.053365,-0.000350,0.481002,-0.004723,0.011695,2.000142,0.004723,-0.011695,-0.000142,-0.002444,-0.025038,-0.001479,0.000013,-0.001676,0.037922,-0.000002,-0.000019,-0.000072,0.000000,-0.000000,-0.000030
1770747452.792194,-0.706927,-0.722558,-0.267790,0.769690,-1.036914,-0.486391,0.000069,-0.000008,0.000754,0.000000,0.000188,-0.000556,0.000420,-0.009981,-0.000257,-0.046116,0.070829,0.045651,-0.070523,-0.318670,-0.562034,-0.000420,0.009981,0.500257,-0.004045,-0.005463,1.999892,0.004045,0.005463,0.000108,0.012326,0.005701,0.000234,0.000005,-0.009971,-0.000517,0.000069,-0.000008,0.000754,0.000000,0.000188,-0.000555
1770747542.892217,-0.549759,-0.236282,0.588405,0.047124,-0.486938,-0.000369,-0.000020,0.000663,-0.007210,-0.000000,-0.000009,0.000369,-0.005554,0.009996,-0.000353,-0.059647,0.023644,0.071896,-0.046589,0.172922,-0.668757,0.005554,-0.009996,0.500353,0.003770,0.000930,2.000041,-0.003770,-0.000930,-0.000041,-0.007500,0.001983,0.000023,-0.000007,0.009982,-0.000760,-0.000020,0.000662,-0.007203,-0.000000,-0.000009,0.000369
1770747633.592164,0.581207,-0.753677,-0.206756,0.188496,-0.172872,-0.626441,-0.000012,-0.000305,0.002553,0.000000,0.000085,-0.001877,0.030848,-0.009985,-0.001393,-0.090743,0.105874,-0.032351,-0.043908,-0.327431,-0.556806,-0.030848,0.009985,0.501393,-0.005587,0.000607,1.999738,0.005587,-0.000607,0.000262,0.009203,-0.006438,0.000155,0.000028,-0.009885,-0.003090,-0.000012,-0.000305,0.002550,0.000000,0.000085,-0.001875
1770747683.892254,-0.706847,0.157080,-0.722827,-0.612611,-0.675493,-0.330062,-0.000011,-0.000000,0.000261,-0.000000,0.000050,0.000195,0.012246,0.009983,-0.000756,-0.088875,0.066646,0.065961,-0.029890,-0.246292,-0.597103,-0.012246,-0.009983,0.500756,-0.001994,-0.004768,1.999502,0.001994,0.004768,0.000498,0.008073,0.006438,0.000496,-0.000015,0.009991,-0.001389,-0.000011,-0.000000,0.000260,-0.000000,0.000050,0.000195
1770747757.592195,-0.738425,-0.534396,0.663876,-0.455531,-1.225037,-0.707060,0.000151,0.000325,-0.004142,0.000000,-0.000184,0.000202,-0.010531,0.009988,-0.000858,-0.046739,-0.028413,0.073436,-0.049002,0.157826,-0.664992,0.010531,-0.009988,0.500858,0.005571,-0.001323,1.999948,-0.005571,0.001323,0.000052,-0.008494,0.007664,0.000057,-0.000017,0.009960,-0.001819,0.000150,0.000325,-0.004138,0.000000,-0.000184,0.000202
1770747798.092216,-0.110099,0.455091,0.177026,-0.345575,-0.345441,-0.044731,0.000143,0.000440,-0.004238,0.000000,-0.000134,-0.002393,0.035819,0.009983,0.010324,-0.124889,0.111798,0.068123,-0.039276,0.226567,-0.683791,-0.035819,-0.009983,0.489676,-0.002493,0.011445,2.000866,0.002493,-0.011445,-0.000866,-0.006368,-0.022479,-0.001608,0.000206,0.009228,0.020970,0.000143,0.000439,-0.004234,0.000000,-0.000134,-0.002391
1770747828.192204,-0.785438,-0.078617,0.503262,0.581195,-0.015705,0.015742,0.000040,0.000077,-0.000607,0.000000,-0.000003,-0.000034,-0.017841,-0.007432,-0.020590,0.058603,-0.024895,0.044126,-0.069006,0.178393,-0.671050,0.017841,0.007432,0.520590,0.012777,-0.006338,1.993992,-0.012777,0.006338,0.006008,-0.015891,0.023785,0.005460,0.000305,-0.008158,-0.041000,0.000040,0.000077,-0.000607,0.000000,-0.000003,-0.000034
1770747858.192285,0.612526,0.565374,0.049223,-0.376991,-0.816632,0.692501,0.000085,0.000113,-0.002099,-0.000000,-0.000183,-0.001351,0.100400,-0.003248,0.042859,-0.174779,0.178516,0.015519,-0.039510,0.087749,-0.649848,-0.100400,0.003248,0.457141,-0.012507,0.030641,1.997823,0.012507,-0.030641,0.002177,-0.004606,-0.065849,-0.004463,-0.000278,-0.011812,0.084876,0.000084,0.000112,-0.002097,-0.000000,-0.000182,-0.001349
1770747937.692213,-0.219944,-0.691181,-0.675630,0.659734,-1.303798,0.219928,0.000032,0.000030,0.000188,0.000000,0.000037,-0.000016,0.009207,-0.009983,-0.001411,-0.061695,0.082618,0.035862,-0.065613,-0.296334,-0.573854,-0.009207,0.009983,0.501411,-0.001520,-0.006181,2.000279,0.001520,0.006181,-0.000279,0.008600,0.009371,-0.000107,0.000028,-0.009946,-0.002910,0.000032,0.000030,0.000188,0.000000,0.000037,-0.000016
1770747991.592201,-0.455531,-0.471257,0.471394,0.251327,-0.094248,0.062763,0.000001,0.000018,-0.000155,-0.000000,0.000000,0.000069,0.013021,0.009998,0.000630,-0.090688,0.070625,0.065975,-0.033410,-0.189120,-0.617697,-0.013021,-0.009998,0.499370,-0.002388,-0.002023,1.999920,0.002388,0.002023,0.000080,0.006125,0.001263,0.000036,0.000013,0.009971,0.001389,0.000001,0.000018,-0.000155,-0.000000,0.000000,0.000069
1770748021.692208,-0.424102,-0.204197,-0.266923,0.534071,-1.303742,-0.596975,-0.000013,-0.000007,-0.000112,0.000000,-0.000018,0.000073,-0.006000,0.008348,-0.005283,-0.056569,0.021579,0.071780,-0.049172,-0.138227,-0.630842,0.006000,-0.008348,0.505283,0.003155,-0.006296,2.001485,-0.003155,0.006296,-0.001485,0.000561,0.014049,-0.001573,-0.000088,0.008276,-0.010605,-0.000013,-0.000007,-0.000112,0.000000,-0.000018,0.000072
1770748086.592162,-0.298447,-0.518359,-0.644760,0.235619,-0.691193,-0.659243,-0.000004,-0.000004,0.000733,-0.000000,0.000042,-0.000491,0.020556,-0.009981,-0.000439,-0.079225,0.097131,0.008685,-0.056857,-0.300328,-0.571889,-0.020556,0.009981,0.500439,-0.001997,0.002001,2.000118,0.001997,-0.002001,-0.000118,0.001584,-0.005420,-0.000213,0.000009,-0.009951,-0.001082,-0.000004,-0.000004,0.000732,-0.000000,0.000042,-0.000491
1770748181.492179,0.298218,-0.080166,0.720590,-0.439823,-0.454717,0.713854,0.000233,0.001626,-0.013732,-0.000000,-0.000814,-0.006995,0.080302,0.009987,0.003905,-0.163662,0.154303,0.052960,0.013077,0.183039,-0.670462,-0.080302,-0.009987,0.496095,0.001305,0.006989,1.999221,-0.001305,-0.006989,0.000779,-0.008932,-0.011074,-0.000021,0.000078,0.009319,0.008577,0.000233,0.001624,-0.013718,-0.000000,-0.000813,-0.006988
1770748236.992195,0.298447,0.141367,-0.769808,0.408407,-0.753995,0.329919,0.000004,0.000004,0.000118,0.000000,0.000013,-0.000052,0.044313,-0.009999,-0.003998,-0.111889,0.126012,-0.020991,-0.054029,-0.124923,-0.633494,-0.044313,0.009999,0.503998,0.005312,-0.003517,2.000965,-0.005312,0.003517,-0.000965,-0.005890,0.011312,-0.000522,0.000080,-0.009625,-0.008422,0.000004,0.000004,0.000117,0.000000,0.000013,-0.000052
1770748270.992257,-0.157102,-0.392603,-0.110824,0.345575,-0.141339,0.613255,0.000023,-0.000096,0.000868,-0.000000,-0.000032,-0.000644,0.031287,-0.009984,-0.004526,-0.094591,0.110711,-0.008368,-0.056915,-0.196866,-0.615638,-0.031287,0.009984,0.504526,0.003752,-0.005901,1.998410,-0.003752,0.005901,0.001590,-0.000879,0.013888,0.002015,0.000090,-0.009687,-0.009351,0.000023,-0.000096,0.000867,-0.000000,-0.000032,-0.000644
1770748356.992234,-0.361488,0.250627,0.447081,-0.596903,-0.784635,0.726822,0.000205,0.000701,-0.007258,-0.000000,-0.000763,-0.004255,0.022101,0.009985,0.001018,-0.106989,0.091863,0.070314,-0.044006,0.274432,-0.701823,-0.022101,-0.009985,0.498982,0.004455,0.000055,2.000334,-0.004455,-0.000055,-0.000334,-0.007871,0.004167,-0.000163,0.000020,0.009928,0.002253,0.000204,0.000700,-0.007251,-0.000000,-0.000762,-0.004251
1770748453.692214,-0.408407,-0.267035,-0.581197,0.565487,-0.015708,0.314156,0.000000,-0.000000,0.000003,0.000000,-0.000000,0.000003,0.026392,-0.009984,-0.001324,-0.087929,0.103250,-0.010399,-0.053109,-0.275003,-0.584521,-0.026392,0.009984,0.501324,-0.004707,-0.002379,2.000005,0.004707,0.002379,-0.000005,0.010531,-0.000353,0.000091,0.000026,-0.009900,-0.002908,0.000000,-0.000000,0.000003,0.000000,-0.000000,0.000003
1770748483.792172,0.691147,0.282760,-0.549524,-0.141372,-0.911056,-0.172777,0.000004,-0.000016,-0.000255,-0.000000,-0.000006,-0.000011,0.084192,0.008444,0.015808,-0.157010,0.146291,-0.031108,0.064952,-0.245553,-0.596026,-0.084192,-0.008444,0.484192,-0.017843,0.013717,1.997848,0.017843,-0.013717,0.002152,0.018812,-0.040874,-0.001452,0.000266,0.005749,0.032180,0.000004,-0.000016,-0.000255,-0.000000,-0.000006,-0.000011
1770748580.292161,-0.203969,0.202879,0.766892,0.628319,-0.957122,-0.759380,-0.000235,0.001324,-0.012910,0.000000,-0.001064,0.005398,0.007867,0.009984,0.000176,-0.085159,0.066016,0.070733,-0.045931,0.284902,-0.706019,-0.007867,-0.009984,0.499824,0.007090,-0.000561,2.000254,-0.007090,0.000561,-0.000254,-0.011896,0.007774,-0.000074,0.000004,0.009971,0.000431,-0.000235,0.001323,-0.012897,0.000000,-0.001063,0.005393
1770748640.092158,-0.581193,-0.298446,-0.345553,0.109956,-1.507964,0.329882,-0.000002,-0.000006,-0.000022,-0.000000,-0.000001,-0.000015,-0.000872,-0.009989,-0.000356,-0.040432,0.070240,0.043637,-0.072134,0.147400,-0.662492,0.000872,0.009989,0.500356,0.003064,-0.001212,2.001536,-0.003064,0.001212,-0.001536,-0.004193,0.005060,-0.001580,0.000007,-0.009980,-0.000704,-0.000002,-0.000006,-0.000022,-0.000000,-0.000001,-0.000015
1770748670.092207,-0.062817,0.518327,-0.188211,-0.392699,-0.078542,-0.156927,-0.000014,0.000035,-0.000285,-0.000000,0.000002,-0.000153,0.035073,0.001195,0.013187,-0.116931,0.114590,0.054496,-0.049274,0.152652,-0.663151,-0.035073,-0.001195,0.486813,-0.008089,0.008222,2.002772,0.008089,-0.008222,-0.002772,0.006595,-0.021968,-0.003550,0.000031,0.000269,0.026374,-0.000014,0.000035,-0.000284,-0.000000,0.000002,-0.000152
1770748700.092216,-0.455544,0.345561,-0.376518,-0.251327,-0.659720,-0.392583,0.000013,0.000014,-0.000473,0.000000,-0.000015,-0.000116,0.009985,0.000845,-0.007884,-0.078183,0.075979,0.055653,-0.052513,0.159148,-0.665583,-0.009985,-0.000845,0.507884,0.000077,-0.002943,1.998136,-0.000077,0.002943,0.001864,0.002727,0.005194,0.001912,-0.000013,0.001001,-0.015744,0.000013,0.000014,-0.000472,0.000000,-0.000015,-0.000116
1770748730.192157,0.094274,0.031393,-0.077826,0.345575,-0.848174,-0.173088,-0.000027,0.000023,-0.000714,0.000000,-0.000056,0.000300,0.042518,0.004453,0.011706,-0.127521,0.121394,0.058369,-0.043382,0.182632,-0.671260,-0.042518,-0.004453,0.488294,-0.005994,0.007659,1.998121,0.005994,-0.007659,0.001879,0.003406,-0.019193,0.001047,0.000104,0.003450,0.023556,-0.000026,0.000023,-0.000713,0.000000,-0.000056,0.000300
1770748760.192199,-0.612600,0.518411,-0.738036,0.172788,-1.178090,-0.125716,-0.000010,-0.000048,-0.000239,-0.000000,-0.000007,0.000052,-0.008730,-0.004547,-0.017584,0.015227,0.037353,0.049760,-0.064057,0.148053,-0.662566,0.008730,0.004547,0.517584,0.008200,-0.009316,2.002013,-0.008200,0.009316,-0.002013,-0.005020,0.024263,-0.002246,0.000160,-0.004849,-0.035091,-0.000010,-0.000048,-0.000238,-0.000000,-0.000007,0.000052
1770748790.192229,-0.534055,-0.172967,0.378642,-0.094248,-0.062837,-0.314135,-0.000016,0.000179,-0.001651,-0.000000,0.000005,-0.000024,0.001645,-0.002396,0.001861,-0.059690,0.066226,0.056314,-0.063201,0.134623,-0.660492,-0.001645,0.002396,0.498139,0.001812,-0.002510,1.996432,-0.001812,0.002510,0.003568,-0.000792,0.006130,0.003573,-0.000009,-0.002400,0.003713,-0.000016,0.000179,-0.001649,-0.000000,0.000005,-0.000024
1770748820.292169,0.267044,0.691191,-0.581023,0.109956,-1.272342,0.157100,-0.000009,-0.000040,-0.000171,0.000000,-0.000003,-0.000020,0.060737,0.006728,0.023100,-0.147733,0.139757,0.057820,-0.032408,0.161947,-0.664636,-0.060737,-0.006728,0.476900,-0.011241,0.015380,2.004196,0.011241,-0.015380,-0.004196,0.005820,-0.037285,-0.006506,0.000310,0.003907,0.046476,-0.000009,-0.000040,-0.000171,0.000000,-0.000003,-0.000020
1770748850.292192,0.000054,0.659636,-0.281575,0.408407,-0.329830,0.627503,-0.000054,0.000099,-0.001169,0.000000,-0.000037,0.000816,0.040200,0.002861,-0.004569,-0.121296,0.117501,0.051040,-0.041223,0.178470,-0.670250,-0.040200,-0.002861,0.504569,-0.001038,0.002789,1.997710,0.001038,-0.002789,0.002290,-0.000872,-0.005968,0.002052,-0.000026,0.003223,-0.009006,-0.000054,0.000098,-0.001168,0.000000,-0.000037,0.000815
1770748892.392203,0.047322,-0.236093,0.712298,0.753982,-1.460483,-0.142214,-0.000198,0.000473,-0.005440,0.000000,-0.000358,0.000842,0.026817,0.009987,-0.001632,-0.112600,0.097592,0.068790,-0.039725,0.260135,-0.696335,-0.026817,-0.009987,0.501632,0.001237,-0.002154,2.000140,-0.001237,0.002154,-0.000140,-0.000099,0.004965,-0.000006,-0.000033,0.010061,-0.002991,-0.000198,0.000473,-0.005435,0.000000,-0.000358,0.000841
